O1111 (EMTSERIALSUB-3333)
(T50 D=0.125 CR=0. TAPER=30DEG - CHAMFER MILL)
N10 G90 G94 G17 G49
N15 G20
N20 G53 G0 Z0.

(SERIAL ENGRAVE TIT)
N25 T50 M6
N30 S18000 M3
N35 G90 G94 G17
N40 G54.1 P2
N45 G68.2 X0. Y0. Z0. I107.642 J90. K180.
N50 G53.1 P2
N55 M8
N60 G0 X11.2486 Y-0.4383
N65 G43 Z7.6059 H50
N70 G0 Z6.9379
N75 G1 Z6.8626 F1.
N80 X11.1889 Z6.8632 F3.
N85 X11.1048 Z6.8644
N90 Y-0.4275
N95 X11.1896 Y-0.3285 Z6.8632
N100 X11.1835 Y-0.3284 Z6.8633
N105 X11.1771 Y-0.3281 Z6.8634
N110 X11.1726 Y-0.3276 Z6.8635
N115 X11.1683 Y-0.3269
N120 X11.1643 Y-0.3261 Z6.8636
N125 X11.1606 Y-0.3251
N130 X11.1566 Y-0.3239 Z6.8637
N135 X11.1521 Y-0.3224
N140 X11.1475 Y-0.3205 Z6.8638
N145 X11.1435 Y-0.3187 Z6.8639
N150 X11.1394 Y-0.3166
N155 X11.1348 Y-0.3141 Z6.864
N160 X11.13 Y-0.311
N165 X11.1255 Y-0.3076 Z6.8641
N170 X11.1213 Y-0.3041 Z6.8642
N175 X11.1172 Y-0.3003
N180 X11.1137 Y-0.2967 Z6.8643
N185 X11.1106 Y-0.2931
N190 X11.1076 Y-0.2892 Z6.8644
N195 X11.1048 Y-0.2852
N200 X11.1023 Y-0.2811
N205 X11.1001 Y-0.277 Z6.8645
N210 X11.0981 Y-0.2727
N215 X11.0966 Y-0.269
N220 X11.0954 Y-0.265
N225 X11.0944 Y-0.2612 Z6.8646
N230 X11.0937 Y-0.2577
N235 X11.0932 Y-0.2539
N240 X11.0929 Y-0.2485
N245 Y-0.2459
N250 X11.0931 Y-0.2407
N255 X11.0934 Y-0.2377
N260 X11.094 Y-0.234
N265 X11.095 Y-0.2298
N270 X11.0961 Y-0.2258 Z6.8645
N275 X11.0975 Y-0.2221
N280 X11.0993 Y-0.2178
N285 X11.1016 Y-0.2134 Z6.8644
N290 X11.104 Y-0.2092
N295 X11.1067 Y-0.2053
N300 X11.11 Y-0.2008 Z6.8643
N305 X11.1137 Y-0.1966
N310 X11.1176 Y-0.1925 Z6.8642
N315 X11.1219 Y-0.1887
N320 X11.1263 Y-0.1852 Z6.8641
N325 X11.1309 Y-0.182 Z6.864
N330 X11.1358 Y-0.179
N335 X11.1408 Y-0.1763 Z6.8639
N340 X11.1459 Y-0.1739 Z6.8638
N345 X11.151 Y-0.1718
N350 X11.1561 Y-0.1699 Z6.8637
N355 X11.1615 Y-0.1683 Z6.8636
N360 X11.1666 Y-0.1671 Z6.8635
N365 X11.1716 Y-0.1662
N370 X11.1767 Y-0.1655 Z6.8634
N375 X11.1828 Y-0.1651 Z6.8633
N380 X11.1874 Y-0.165
N385 X11.194 Y-0.1652 Z6.8632
N390 X11.199 Y-0.1656 Z6.8631
N395 X11.2053 Y-0.1662 Z6.863
N400 X11.2113 Y-0.1671 Z6.8629
N405 X11.217 Y-0.1682
N410 X11.2226 Y-0.1697 Z6.8628
N415 X11.2283 Y-0.1716
N420 X11.2337 Y-0.1737 Z6.8627
N425 X11.2391 Y-0.1761
N430 X11.2456 Y-0.1795 Z6.8626
N435 X11.2486 Y-0.1811
N440 Z6.8526 F1.
N445 X11.2456 Y-0.1795 F3.
N450 X11.2391 Y-0.1761 Z6.8527
N455 X11.2337 Y-0.1737
N460 X11.2283 Y-0.1716 Z6.8528
N465 X11.2226 Y-0.1697
N470 X11.217 Y-0.1682 Z6.8529
N475 X11.2113 Y-0.1671
N480 X11.2053 Y-0.1662 Z6.853
N485 X11.199 Y-0.1656 Z6.8531
N490 X11.194 Y-0.1652 Z6.8532
N495 X11.1874 Y-0.165 Z6.8533
N500 X11.1828 Y-0.1651
N505 X11.1767 Y-0.1655 Z6.8534
N510 X11.1716 Y-0.1662 Z6.8535
N515 X11.1666 Y-0.1671
N520 X11.1615 Y-0.1683 Z6.8536
N525 X11.1561 Y-0.1699 Z6.8537
N530 X11.151 Y-0.1718 Z6.8538
N535 X11.1459 Y-0.1739
N540 X11.1408 Y-0.1763 Z6.8539
N545 X11.1358 Y-0.179 Z6.854
N550 X11.1309 Y-0.182
N555 X11.1263 Y-0.1852 Z6.8541
N560 X11.1219 Y-0.1887 Z6.8542
N565 X11.1176 Y-0.1925
N570 X11.1137 Y-0.1966 Z6.8543
N575 X11.11 Y-0.2008
N580 X11.1067 Y-0.2053 Z6.8544
N585 X11.104 Y-0.2092
N590 X11.1016 Y-0.2134
N595 X11.0993 Y-0.2178 Z6.8545
N600 X11.0975 Y-0.2221
N605 X11.0961 Y-0.2258
N610 X11.095 Y-0.2298 Z6.8546
N615 X11.094 Y-0.234
N620 X11.0934 Y-0.2377
N625 X11.0931 Y-0.2407
N630 X11.0929 Y-0.2459
N635 Y-0.2485
N640 X11.0932 Y-0.2539
N645 X11.0937 Y-0.2577
N650 X11.0944 Y-0.2612
N655 X11.0954 Y-0.265 Z6.8545
N660 X11.0966 Y-0.269
N665 X11.0981 Y-0.2727
N670 X11.1001 Y-0.277
N675 X11.1023 Y-0.2811 Z6.8544
N680 X11.1048 Y-0.2852
N685 X11.1076 Y-0.2892
N690 X11.1106 Y-0.2931 Z6.8543
N695 X11.1137 Y-0.2967
N700 X11.1172 Y-0.3003 Z6.8542
N705 X11.1213 Y-0.3041
N710 X11.1255 Y-0.3076 Z6.8541
N715 X11.13 Y-0.311 Z6.854
N720 X11.1348 Y-0.3141
N725 X11.1394 Y-0.3166 Z6.8539
N730 X11.1435 Y-0.3187
N735 X11.1475 Y-0.3205 Z6.8538
N740 X11.1521 Y-0.3224 Z6.8537
N745 X11.1566 Y-0.3239
N750 X11.1606 Y-0.3251 Z6.8536
N755 X11.1643 Y-0.3261
N760 X11.1683 Y-0.3269 Z6.8535
N765 X11.1726 Y-0.3276
N770 X11.1771 Y-0.3281 Z6.8534
N775 X11.1835 Y-0.3284 Z6.8533
N780 X11.1896 Y-0.3285 Z6.8532
N785 X11.1048 Y-0.4275 Z6.8544
N790 Y-0.4383
N795 X11.1889 Z6.8532
N800 X11.2486 Z6.8526
N805 Z6.8426 F1.
N810 X11.1889 Z6.8432 F3.
N815 X11.1048 Z6.8444
N820 Y-0.4275
N825 X11.1896 Y-0.3285 Z6.8432
N830 X11.1835 Y-0.3284 Z6.8433
N835 X11.1771 Y-0.3281 Z6.8434
N840 X11.1726 Y-0.3276 Z6.8435
N845 X11.1683 Y-0.3269
N850 X11.1643 Y-0.3261 Z6.8436
N855 X11.1606 Y-0.3251
N860 X11.1566 Y-0.3239 Z6.8437
N865 X11.1521 Y-0.3224
N870 X11.1475 Y-0.3205 Z6.8438
N875 X11.1435 Y-0.3187 Z6.8439
N880 X11.1394 Y-0.3166
N885 X11.1348 Y-0.3141 Z6.844
N890 X11.13 Y-0.311
N895 X11.1255 Y-0.3076 Z6.8441
N900 X11.1213 Y-0.3041 Z6.8442
N905 X11.1172 Y-0.3003
N910 X11.1137 Y-0.2967 Z6.8443
N915 X11.1106 Y-0.2931
N920 X11.1076 Y-0.2892 Z6.8444
N925 X11.1048 Y-0.2852
N930 X11.1023 Y-0.2811
N935 X11.1001 Y-0.277 Z6.8445
N940 X11.0981 Y-0.2727
N945 X11.0966 Y-0.269
N950 X11.0954 Y-0.265
N955 X11.0944 Y-0.2612 Z6.8446
N960 X11.0937 Y-0.2577
N965 X11.0932 Y-0.2539
N970 X11.0929 Y-0.2485
N975 Y-0.2459
N980 X11.0931 Y-0.2407
N985 X11.0934 Y-0.2377
N990 X11.094 Y-0.234
N995 X11.095 Y-0.2298
N1000 X11.0961 Y-0.2258 Z6.8445
N1005 X11.0975 Y-0.2221
N1010 X11.0993 Y-0.2178
N1015 X11.1016 Y-0.2134 Z6.8444
N1020 X11.104 Y-0.2092
N1025 X11.1067 Y-0.2053
N1030 X11.11 Y-0.2008 Z6.8443
N1035 X11.1137 Y-0.1966
N1040 X11.1176 Y-0.1925 Z6.8442
N1045 X11.1219 Y-0.1887
N1050 X11.1263 Y-0.1852 Z6.8441
N1055 X11.1309 Y-0.182 Z6.844
N1060 X11.1358 Y-0.179
N1065 X11.1408 Y-0.1763 Z6.8439
N1070 X11.1459 Y-0.1739 Z6.8438
N1075 X11.151 Y-0.1718
N1080 X11.1561 Y-0.1699 Z6.8437
N1085 X11.1615 Y-0.1683 Z6.8436
N1090 X11.1666 Y-0.1671 Z6.8435
N1095 X11.1716 Y-0.1662
N1100 X11.1767 Y-0.1655 Z6.8434
N1105 X11.1828 Y-0.1651 Z6.8433
N1110 X11.1874 Y-0.165
N1115 X11.194 Y-0.1652 Z6.8432
N1120 X11.199 Y-0.1656 Z6.8431
N1125 X11.2053 Y-0.1662 Z6.843
N1130 X11.2113 Y-0.1671 Z6.8429
N1135 X11.217 Y-0.1682
N1140 X11.2226 Y-0.1697 Z6.8428
N1145 X11.2283 Y-0.1716
N1150 X11.2337 Y-0.1737 Z6.8427
N1155 X11.2391 Y-0.1761
N1160 X11.2456 Y-0.1795 Z6.8426
N1165 X11.2486 Y-0.1811
N1170 Z6.8326 F1.
N1175 X11.2456 Y-0.1795 F3.
N1180 X11.2391 Y-0.1761 Z6.8327
N1185 X11.2337 Y-0.1737
N1190 X11.2283 Y-0.1716 Z6.8328
N1195 X11.2226 Y-0.1697
N1200 X11.217 Y-0.1682 Z6.8329
N1205 X11.2113 Y-0.1671
N1210 X11.2053 Y-0.1662 Z6.833
N1215 X11.199 Y-0.1656 Z6.8331
N1220 X11.194 Y-0.1652 Z6.8332
N1225 X11.1874 Y-0.165 Z6.8333
N1230 X11.1828 Y-0.1651
N1235 X11.1767 Y-0.1655 Z6.8334
N1240 X11.1716 Y-0.1662 Z6.8335
N1245 X11.1666 Y-0.1671
N1250 X11.1615 Y-0.1683 Z6.8336
N1255 X11.1561 Y-0.1699 Z6.8337
N1260 X11.151 Y-0.1718 Z6.8338
N1265 X11.1459 Y-0.1739
N1270 X11.1408 Y-0.1763 Z6.8339
N1275 X11.1358 Y-0.179 Z6.834
N1280 X11.1309 Y-0.182
N1285 X11.1263 Y-0.1852 Z6.8341
N1290 X11.1219 Y-0.1887 Z6.8342
N1295 X11.1176 Y-0.1925
N1300 X11.1137 Y-0.1966 Z6.8343
N1305 X11.11 Y-0.2008
N1310 X11.1067 Y-0.2053 Z6.8344
N1315 X11.104 Y-0.2092
N1320 X11.1016 Y-0.2134
N1325 X11.0993 Y-0.2178 Z6.8345
N1330 X11.0975 Y-0.2221
N1335 X11.0961 Y-0.2258
N1340 X11.095 Y-0.2298 Z6.8346
N1345 X11.094 Y-0.234
N1350 X11.0934 Y-0.2377
N1355 X11.0931 Y-0.2407
N1360 X11.0929 Y-0.2459
N1365 Y-0.2485
N1370 X11.0932 Y-0.2539
N1375 X11.0937 Y-0.2577
N1380 X11.0944 Y-0.2612
N1385 X11.0954 Y-0.265 Z6.8345
N1390 X11.0966 Y-0.269
N1395 X11.0981 Y-0.2727
N1400 X11.1001 Y-0.277
N1405 X11.1023 Y-0.2811 Z6.8344
N1410 X11.1048 Y-0.2852
N1415 X11.1076 Y-0.2892
N1420 X11.1106 Y-0.2931 Z6.8343
N1425 X11.1137 Y-0.2967
N1430 X11.1172 Y-0.3003 Z6.8342
N1435 X11.1213 Y-0.3041
N1440 X11.1255 Y-0.3076 Z6.8341
N1445 X11.13 Y-0.311 Z6.834
N1450 X11.1348 Y-0.3141
N1455 X11.1394 Y-0.3166 Z6.8339
N1460 X11.1435 Y-0.3187
N1465 X11.1475 Y-0.3205 Z6.8338
N1470 X11.1521 Y-0.3224 Z6.8337
N1475 X11.1566 Y-0.3239
N1480 X11.1606 Y-0.3251 Z6.8336
N1485 X11.1643 Y-0.3261
N1490 X11.1683 Y-0.3269 Z6.8335
N1495 X11.1726 Y-0.3276
N1500 X11.1771 Y-0.3281 Z6.8334
N1505 X11.1835 Y-0.3284 Z6.8333
N1510 X11.1896 Y-0.3285 Z6.8332
N1515 X11.1048 Y-0.4275 Z6.8344
N1520 Y-0.4383
N1525 X11.1889 Z6.8332
N1530 X11.2486 Z6.8326
N1535 G0 Z7.3559
N1540 X10.9285 Y-0.4383
N1545 Z6.9434
N1550 G1 Z6.8677 F1.
N1555 X10.8649 Z6.8691 F3.
N1560 X10.7847 Z6.8711
N1565 Y-0.4275
N1570 X10.8696 Y-0.3285 Z6.869
N1575 X10.8635 Y-0.3284 Z6.8691
N1580 X10.8572 Y-0.3281 Z6.8693
N1585 X10.8531 Y-0.3277 Z6.8694
N1590 X10.8495 Y-0.3271 Z6.8695
N1595 X10.8455 Y-0.3264 Z6.8696
N1600 X10.8413 Y-0.3253 Z6.8697
N1605 X10.8369 Y-0.324 Z6.8698
N1610 X10.8323 Y-0.3224 Z6.8699
N1615 X10.8276 Y-0.3206 Z6.87
N1620 X10.8236 Y-0.3187 Z6.8701
N1625 X10.8194 Y-0.3167 Z6.8702
N1630 X10.8148 Y-0.3141 Z6.8704
N1635 X10.81 Y-0.311 Z6.8705
N1640 X10.8055 Y-0.3076 Z6.8706
N1645 X10.8013 Y-0.3041 Z6.8707
N1650 X10.7971 Y-0.3003 Z6.8708
N1655 X10.7937 Y-0.2968 Z6.8709
N1660 X10.7905 Y-0.2931 Z6.871
N1665 X10.7876 Y-0.2893
N1670 X10.7848 Y-0.2853 Z6.8711
N1675 X10.7823 Y-0.2811 Z6.8712
N1680 X10.78 Y-0.277
N1685 X10.778 Y-0.2727 Z6.8713
N1690 X10.7766 Y-0.269
N1695 X10.7753 Y-0.265
N1700 X10.7744 Y-0.2612 Z6.8714
N1705 X10.7737 Y-0.2577
N1710 X10.7732 Y-0.254
N1715 X10.7729 Y-0.2486
N1720 X10.7728 Y-0.246
N1725 X10.7731 Y-0.2408
N1730 X10.7734 Y-0.2378
N1735 X10.774 Y-0.234
N1740 X10.7749 Y-0.2298 Z6.8713
N1745 X10.7761 Y-0.2259
N1750 X10.7774 Y-0.2221
N1755 X10.7793 Y-0.2178 Z6.8712
N1760 X10.7815 Y-0.2134
N1765 X10.784 Y-0.2092 Z6.8711
N1770 X10.7866 Y-0.2053
N1775 X10.79 Y-0.2008 Z6.871
N1780 X10.7936 Y-0.1966 Z6.8709
N1785 X10.7976 Y-0.1925 Z6.8708
N1790 X10.8019 Y-0.1887 Z6.8707
N1795 X10.8063 Y-0.1852 Z6.8706
N1800 X10.8109 Y-0.182 Z6.8705
N1805 X10.8157 Y-0.179 Z6.8703
N1810 X10.8207 Y-0.1763 Z6.8702
N1815 X10.8258 Y-0.1739 Z6.8701
N1820 X10.8309 Y-0.1718 Z6.87
N1825 X10.8361 Y-0.1699 Z6.8698
N1830 X10.8414 Y-0.1683 Z6.8697
N1835 X10.8466 Y-0.1671 Z6.8696
N1840 X10.8516 Y-0.1662 Z6.8694
N1845 X10.8567 Y-0.1655 Z6.8693
N1850 X10.8627 Y-0.1651 Z6.8692
N1855 X10.8673 Y-0.165 Z6.8691
N1860 X10.8739 Y-0.1652 Z6.8689
N1865 X10.8788 Y-0.1655 Z6.8688
N1870 X10.885 Y-0.1662 Z6.8686
N1875 X10.8908 Y-0.1671 Z6.8685
N1880 X10.8955 Y-0.1679 Z6.8684
N1885 X10.8989 Y-0.1687 Z6.8683
N1890 X10.9032 Y-0.1699 Z6.8682
N1895 X10.9084 Y-0.1716 Z6.8681
N1900 X10.9137 Y-0.1737 Z6.868
N1905 X10.9191 Y-0.1761 Z6.8679
N1910 X10.9255 Y-0.1795 Z6.8678
N1915 X10.9285 Y-0.1811 Z6.8677
N1920 Z6.8577 F1.
N1925 X10.9255 Y-0.1795 Z6.8578 F3.
N1930 X10.9191 Y-0.1761 Z6.8579
N1935 X10.9137 Y-0.1737 Z6.858
N1940 X10.9084 Y-0.1716 Z6.8581
N1945 X10.9032 Y-0.1699 Z6.8582
N1950 X10.8989 Y-0.1687 Z6.8583
N1955 X10.8955 Y-0.1679 Z6.8584
N1960 X10.8908 Y-0.1671 Z6.8585
N1965 X10.885 Y-0.1662 Z6.8586
N1970 X10.8788 Y-0.1655 Z6.8588
N1975 X10.8739 Y-0.1652 Z6.8589
N1980 X10.8673 Y-0.165 Z6.8591
N1985 X10.8627 Y-0.1651 Z6.8592
N1990 X10.8567 Y-0.1655 Z6.8593
N1995 X10.8516 Y-0.1662 Z6.8594
N2000 X10.8466 Y-0.1671 Z6.8596
N2005 X10.8414 Y-0.1683 Z6.8597
N2010 X10.8361 Y-0.1699 Z6.8598
N2015 X10.8309 Y-0.1718 Z6.86
N2020 X10.8258 Y-0.1739 Z6.8601
N2025 X10.8207 Y-0.1763 Z6.8602
N2030 X10.8157 Y-0.179 Z6.8603
N2035 X10.8109 Y-0.182 Z6.8605
N2040 X10.8063 Y-0.1852 Z6.8606
N2045 X10.8019 Y-0.1887 Z6.8607
N2050 X10.7976 Y-0.1925 Z6.8608
N2055 X10.7936 Y-0.1966 Z6.8609
N2060 X10.79 Y-0.2008 Z6.861
N2065 X10.7866 Y-0.2053 Z6.8611
N2070 X10.784 Y-0.2092
N2075 X10.7815 Y-0.2134 Z6.8612
N2080 X10.7793 Y-0.2178
N2085 X10.7774 Y-0.2221 Z6.8613
N2090 X10.7761 Y-0.2259
N2095 X10.7749 Y-0.2298
N2100 X10.774 Y-0.234 Z6.8614
N2105 X10.7734 Y-0.2378
N2110 X10.7731 Y-0.2408
N2115 X10.7728 Y-0.246
N2120 X10.7729 Y-0.2486
N2125 X10.7732 Y-0.254
N2130 X10.7737 Y-0.2577
N2135 X10.7744 Y-0.2612
N2140 X10.7753 Y-0.265 Z6.8613
N2145 X10.7766 Y-0.269
N2150 X10.778 Y-0.2727
N2155 X10.78 Y-0.277 Z6.8612
N2160 X10.7823 Y-0.2811
N2165 X10.7848 Y-0.2853 Z6.8611
N2170 X10.7876 Y-0.2893 Z6.861
N2175 X10.7905 Y-0.2931
N2180 X10.7937 Y-0.2968 Z6.8609
N2185 X10.7971 Y-0.3003 Z6.8608
N2190 X10.8013 Y-0.3041 Z6.8607
N2195 X10.8055 Y-0.3076 Z6.8606
N2200 X10.81 Y-0.311 Z6.8605
N2205 X10.8148 Y-0.3141 Z6.8604
N2210 X10.8194 Y-0.3167 Z6.8602
N2215 X10.8236 Y-0.3187 Z6.8601
N2220 X10.8276 Y-0.3206 Z6.86
N2225 X10.8323 Y-0.3224 Z6.8599
N2230 X10.8369 Y-0.324 Z6.8598
N2235 X10.8413 Y-0.3253 Z6.8597
N2240 X10.8455 Y-0.3264 Z6.8596
N2245 X10.8495 Y-0.3271 Z6.8595
N2250 X10.8531 Y-0.3277 Z6.8594
N2255 X10.8572 Y-0.3281 Z6.8593
N2260 X10.8635 Y-0.3284 Z6.8591
N2265 X10.8696 Y-0.3285 Z6.859
N2270 X10.7847 Y-0.4275 Z6.8611
N2275 Y-0.4383
N2280 X10.8649 Z6.8591
N2285 X10.9285 Z6.8577
N2290 Z6.8477 F1.
N2295 X10.8649 Z6.8491 F3.
N2300 X10.7847 Z6.8511
N2305 Y-0.4275
N2310 X10.8696 Y-0.3285 Z6.849
N2315 X10.8635 Y-0.3284 Z6.8491
N2320 X10.8572 Y-0.3281 Z6.8493
N2325 X10.8531 Y-0.3277 Z6.8494
N2330 X10.8495 Y-0.3271 Z6.8495
N2335 X10.8455 Y-0.3264 Z6.8496
N2340 X10.8413 Y-0.3253 Z6.8497
N2345 X10.8369 Y-0.324 Z6.8498
N2350 X10.8323 Y-0.3224 Z6.8499
N2355 X10.8276 Y-0.3206 Z6.85
N2360 X10.8236 Y-0.3187 Z6.8501
N2365 X10.8194 Y-0.3167 Z6.8502
N2370 X10.8148 Y-0.3141 Z6.8504
N2375 X10.81 Y-0.311 Z6.8505
N2380 X10.8055 Y-0.3076 Z6.8506
N2385 X10.8013 Y-0.3041 Z6.8507
N2390 X10.7971 Y-0.3003 Z6.8508
N2395 X10.7937 Y-0.2968 Z6.8509
N2400 X10.7905 Y-0.2931 Z6.851
N2405 X10.7876 Y-0.2893
N2410 X10.7848 Y-0.2853 Z6.8511
N2415 X10.7823 Y-0.2811 Z6.8512
N2420 X10.78 Y-0.277
N2425 X10.778 Y-0.2727 Z6.8513
N2430 X10.7766 Y-0.269
N2435 X10.7753 Y-0.265
N2440 X10.7744 Y-0.2612 Z6.8514
N2445 X10.7737 Y-0.2577
N2450 X10.7732 Y-0.254
N2455 X10.7729 Y-0.2486
N2460 X10.7728 Y-0.246
N2465 X10.7731 Y-0.2408
N2470 X10.7734 Y-0.2378
N2475 X10.774 Y-0.234
N2480 X10.7749 Y-0.2298 Z6.8513
N2485 X10.7761 Y-0.2259
N2490 X10.7774 Y-0.2221
N2495 X10.7793 Y-0.2178 Z6.8512
N2500 X10.7815 Y-0.2134
N2505 X10.784 Y-0.2092 Z6.8511
N2510 X10.7866 Y-0.2053
N2515 X10.79 Y-0.2008 Z6.851
N2520 X10.7936 Y-0.1966 Z6.8509
N2525 X10.7976 Y-0.1925 Z6.8508
N2530 X10.8019 Y-0.1887 Z6.8507
N2535 X10.8063 Y-0.1852 Z6.8506
N2540 X10.8109 Y-0.182 Z6.8505
N2545 X10.8157 Y-0.179 Z6.8503
N2550 X10.8207 Y-0.1763 Z6.8502
N2555 X10.8258 Y-0.1739 Z6.8501
N2560 X10.8309 Y-0.1718 Z6.85
N2565 X10.8361 Y-0.1699 Z6.8498
N2570 X10.8414 Y-0.1683 Z6.8497
N2575 X10.8466 Y-0.1671 Z6.8496
N2580 X10.8516 Y-0.1662 Z6.8494
N2585 X10.8567 Y-0.1655 Z6.8493
N2590 X10.8627 Y-0.1651 Z6.8492
N2595 X10.8673 Y-0.165 Z6.8491
N2600 X10.8739 Y-0.1652 Z6.8489
N2605 X10.8788 Y-0.1655 Z6.8488
N2610 X10.885 Y-0.1662 Z6.8486
N2615 X10.8908 Y-0.1671 Z6.8485
N2620 X10.8955 Y-0.1679 Z6.8484
N2625 X10.8989 Y-0.1687 Z6.8483
N2630 X10.9032 Y-0.1699 Z6.8482
N2635 X10.9084 Y-0.1716 Z6.8481
N2640 X10.9137 Y-0.1737 Z6.848
N2645 X10.9191 Y-0.1761 Z6.8479
N2650 X10.9255 Y-0.1795 Z6.8478
N2655 X10.9285 Y-0.1811 Z6.8477
N2660 Z6.8377 F1.
N2665 X10.9255 Y-0.1795 Z6.8378 F3.
N2670 X10.9191 Y-0.1761 Z6.8379
N2675 X10.9137 Y-0.1737 Z6.838
N2680 X10.9084 Y-0.1716 Z6.8381
N2685 X10.9032 Y-0.1699 Z6.8382
N2690 X10.8989 Y-0.1687 Z6.8383
N2695 X10.8955 Y-0.1679 Z6.8384
N2700 X10.8908 Y-0.1671 Z6.8385
N2705 X10.885 Y-0.1662 Z6.8386
N2710 X10.8788 Y-0.1655 Z6.8388
N2715 X10.8739 Y-0.1652 Z6.8389
N2720 X10.8673 Y-0.165 Z6.8391
N2725 X10.8627 Y-0.1651 Z6.8392
N2730 X10.8567 Y-0.1655 Z6.8393
N2735 X10.8516 Y-0.1662 Z6.8394
N2740 X10.8466 Y-0.1671 Z6.8396
N2745 X10.8414 Y-0.1683 Z6.8397
N2750 X10.8361 Y-0.1699 Z6.8398
N2755 X10.8309 Y-0.1718 Z6.84
N2760 X10.8258 Y-0.1739 Z6.8401
N2765 X10.8207 Y-0.1763 Z6.8402
N2770 X10.8157 Y-0.179 Z6.8403
N2775 X10.8109 Y-0.182 Z6.8405
N2780 X10.8063 Y-0.1852 Z6.8406
N2785 X10.8019 Y-0.1887 Z6.8407
N2790 X10.7976 Y-0.1925 Z6.8408
N2795 X10.7936 Y-0.1966 Z6.8409
N2800 X10.79 Y-0.2008 Z6.841
N2805 X10.7866 Y-0.2053 Z6.8411
N2810 X10.784 Y-0.2092
N2815 X10.7815 Y-0.2134 Z6.8412
N2820 X10.7793 Y-0.2178
N2825 X10.7774 Y-0.2221 Z6.8413
N2830 X10.7761 Y-0.2259
N2835 X10.7749 Y-0.2298
N2840 X10.774 Y-0.234 Z6.8414
N2845 X10.7734 Y-0.2378
N2850 X10.7731 Y-0.2408
N2855 X10.7728 Y-0.246
N2860 X10.7729 Y-0.2486
N2865 X10.7732 Y-0.254
N2870 X10.7737 Y-0.2577
N2875 X10.7744 Y-0.2612
N2880 X10.7753 Y-0.265 Z6.8413
N2885 X10.7766 Y-0.269
N2890 X10.778 Y-0.2727
N2895 X10.78 Y-0.277 Z6.8412
N2900 X10.7823 Y-0.2811
N2905 X10.7848 Y-0.2853 Z6.8411
N2910 X10.7876 Y-0.2893 Z6.841
N2915 X10.7905 Y-0.2931
N2920 X10.7937 Y-0.2968 Z6.8409
N2925 X10.7971 Y-0.3003 Z6.8408
N2930 X10.8013 Y-0.3041 Z6.8407
N2935 X10.8055 Y-0.3076 Z6.8406
N2940 X10.81 Y-0.311 Z6.8405
N2945 X10.8148 Y-0.3141 Z6.8404
N2950 X10.8194 Y-0.3167 Z6.8402
N2955 X10.8236 Y-0.3187 Z6.8401
N2960 X10.8276 Y-0.3206 Z6.84
N2965 X10.8323 Y-0.3224 Z6.8399
N2970 X10.8369 Y-0.324 Z6.8398
N2975 X10.8413 Y-0.3253 Z6.8397
N2980 X10.8455 Y-0.3264 Z6.8396
N2985 X10.8495 Y-0.3271 Z6.8395
N2990 X10.8531 Y-0.3277 Z6.8394
N2995 X10.8572 Y-0.3281 Z6.8393
N3000 X10.8635 Y-0.3284 Z6.8391
N3005 X10.8696 Y-0.3285 Z6.839
N3010 X10.7847 Y-0.4275 Z6.8411
N3015 Y-0.4383
N3020 X10.8649 Z6.8391
N3025 X10.9285 Z6.8377
N3030 G0 Z7.3559
N3035 X10.6085 Y-0.4383
N3040 Z6.9524
N3045 G1 Z6.8763 F1.
N3050 X10.5405 Z6.8786 F3.
N3055 X10.4647 Z6.8813
N3060 Y-0.4275
N3065 X10.5496 Y-0.3285 Z6.8782
N3070 X10.5435 Y-0.3284 Z6.8785
N3075 X10.5373 Y-0.3281 Z6.8787
N3080 X10.5336 Y-0.3277 Z6.8788
N3085 X10.53 Y-0.3272 Z6.8789
N3090 X10.5257 Y-0.3264 Z6.8791
N3095 X10.5214 Y-0.3254 Z6.8792
N3100 X10.5169 Y-0.3241 Z6.8794
N3105 X10.5123 Y-0.3225 Z6.8796
N3110 X10.5076 Y-0.3206 Z6.8797
N3115 X10.5036 Y-0.3188 Z6.8799
N3120 X10.4993 Y-0.3167 Z6.88
N3125 X10.4947 Y-0.3141 Z6.8802
N3130 X10.49 Y-0.311 Z6.8804
N3135 X10.4855 Y-0.3076 Z6.8805
N3140 X10.4812 Y-0.3041 Z6.8807
N3145 X10.4771 Y-0.3004 Z6.8808
N3150 X10.4737 Y-0.2968 Z6.881
N3155 X10.4705 Y-0.2931 Z6.8811
N3160 X10.4676 Y-0.2893 Z6.8812
N3165 X10.4648 Y-0.2853 Z6.8813
N3170 X10.4623 Y-0.2812 Z6.8814
N3175 X10.46 Y-0.277
N3180 X10.458 Y-0.2727 Z6.8815
N3185 X10.4565 Y-0.269 Z6.8816
N3190 X10.4553 Y-0.2651
N3195 X10.4543 Y-0.2612
N3200 X10.4536 Y-0.2577 Z6.8817
N3205 X10.4531 Y-0.254
N3210 X10.4528 Y-0.2486
N3215 Y-0.246
N3220 X10.4531 Y-0.2409
N3225 X10.4533 Y-0.2378
N3230 X10.4539 Y-0.234
N3235 X10.4549 Y-0.2298 Z6.8816
N3240 X10.4561 Y-0.2259
N3245 X10.4574 Y-0.2221 Z6.8815
N3250 X10.4592 Y-0.2178
N3255 X10.4615 Y-0.2134 Z6.8814
N3260 X10.4639 Y-0.2092 Z6.8813
N3265 X10.4666 Y-0.2053 Z6.8812
N3270 X10.4699 Y-0.2008 Z6.8811
N3275 X10.4736 Y-0.1966 Z6.881
N3280 X10.4775 Y-0.1925 Z6.8808
N3285 X10.4818 Y-0.1887 Z6.8807
N3290 X10.4862 Y-0.1852 Z6.8805
N3295 X10.4908 Y-0.182 Z6.8803
N3300 X10.4956 Y-0.179 Z6.8802
N3305 X10.5007 Y-0.1763 Z6.88
N3310 X10.5058 Y-0.1739 Z6.8798
N3315 X10.5109 Y-0.1718 Z6.8796
N3320 X10.516 Y-0.1699 Z6.8794
N3325 X10.5214 Y-0.1683 Z6.8792
N3330 X10.5265 Y-0.1671 Z6.8791
N3335 X10.5316 Y-0.1662 Z6.8789
N3340 X10.5366 Y-0.1655 Z6.8787
N3345 X10.5426 Y-0.1651 Z6.8785
N3350 X10.5473 Y-0.165 Z6.8783
N3355 X10.5539 Y-0.1652 Z6.8781
N3360 X10.5588 Y-0.1655 Z6.8779
N3365 X10.5649 Y-0.1662 Z6.8777
N3370 X10.5705 Y-0.167 Z6.8775
N3375 X10.5749 Y-0.1678 Z6.8774
N3380 X10.5785 Y-0.1686 Z6.8773
N3385 X10.583 Y-0.1699 Z6.8771
N3390 X10.5883 Y-0.1716 Z6.877
N3395 X10.5937 Y-0.1737 Z6.8768
N3400 X10.599 Y-0.1761 Z6.8766
N3405 X10.6054 Y-0.1794 Z6.8764
N3410 X10.6085 Y-0.1811 Z6.8763
N3415 Z6.8663 F1.
N3420 X10.6054 Y-0.1794 Z6.8664 F3.
N3425 X10.599 Y-0.1761 Z6.8666
N3430 X10.5937 Y-0.1737 Z6.8668
N3435 X10.5883 Y-0.1716 Z6.867
N3440 X10.583 Y-0.1699 Z6.8671
N3445 X10.5785 Y-0.1686 Z6.8673
N3450 X10.5749 Y-0.1678 Z6.8674
N3455 X10.5705 Y-0.167 Z6.8675
N3460 X10.5649 Y-0.1662 Z6.8677
N3465 X10.5588 Y-0.1655 Z6.8679
N3470 X10.5539 Y-0.1652 Z6.8681
N3475 X10.5473 Y-0.165 Z6.8683
N3480 X10.5426 Y-0.1651 Z6.8685
N3485 X10.5366 Y-0.1655 Z6.8687
N3490 X10.5316 Y-0.1662 Z6.8689
N3495 X10.5265 Y-0.1671 Z6.8691
N3500 X10.5214 Y-0.1683 Z6.8692
N3505 X10.516 Y-0.1699 Z6.8694
N3510 X10.5109 Y-0.1718 Z6.8696
N3515 X10.5058 Y-0.1739 Z6.8698
N3520 X10.5007 Y-0.1763 Z6.87
N3525 X10.4956 Y-0.179 Z6.8702
N3530 X10.4908 Y-0.182 Z6.8703
N3535 X10.4862 Y-0.1852 Z6.8705
N3540 X10.4818 Y-0.1887 Z6.8707
N3545 X10.4775 Y-0.1925 Z6.8708
N3550 X10.4736 Y-0.1966 Z6.871
N3555 X10.4699 Y-0.2008 Z6.8711
N3560 X10.4666 Y-0.2053 Z6.8712
N3565 X10.4639 Y-0.2092 Z6.8713
N3570 X10.4615 Y-0.2134 Z6.8714
N3575 X10.4592 Y-0.2178 Z6.8715
N3580 X10.4574 Y-0.2221
N3585 X10.4561 Y-0.2259 Z6.8716
N3590 X10.4549 Y-0.2298
N3595 X10.4539 Y-0.234 Z6.8717
N3600 X10.4533 Y-0.2378
N3605 X10.4531 Y-0.2409
N3610 X10.4528 Y-0.246
N3615 Y-0.2486
N3620 X10.4531 Y-0.254
N3625 X10.4536 Y-0.2577
N3630 X10.4543 Y-0.2612 Z6.8716
N3635 X10.4553 Y-0.2651
N3640 X10.4565 Y-0.269
N3645 X10.458 Y-0.2727 Z6.8715
N3650 X10.46 Y-0.277 Z6.8714
N3655 X10.4623 Y-0.2812
N3660 X10.4648 Y-0.2853 Z6.8713
N3665 X10.4676 Y-0.2893 Z6.8712
N3670 X10.4705 Y-0.2931 Z6.8711
N3675 X10.4737 Y-0.2968 Z6.871
N3680 X10.4771 Y-0.3004 Z6.8708
N3685 X10.4812 Y-0.3041 Z6.8707
N3690 X10.4855 Y-0.3076 Z6.8705
N3695 X10.49 Y-0.311 Z6.8704
N3700 X10.4947 Y-0.3141 Z6.8702
N3705 X10.4993 Y-0.3167 Z6.87
N3710 X10.5036 Y-0.3188 Z6.8699
N3715 X10.5076 Y-0.3206 Z6.8697
N3720 X10.5123 Y-0.3225 Z6.8696
N3725 X10.5169 Y-0.3241 Z6.8694
N3730 X10.5214 Y-0.3254 Z6.8692
N3735 X10.5257 Y-0.3264 Z6.8691
N3740 X10.53 Y-0.3272 Z6.8689
N3745 X10.5336 Y-0.3277 Z6.8688
N3750 X10.5373 Y-0.3281 Z6.8687
N3755 X10.5435 Y-0.3284 Z6.8685
N3760 X10.5496 Y-0.3285 Z6.8682
N3765 X10.4647 Y-0.4275 Z6.8713
N3770 Y-0.4383
N3775 X10.5405 Z6.8686
N3780 X10.6085 Z6.8663
N3785 Z6.8563 F1.
N3790 X10.5405 Z6.8586 F3.
N3795 X10.4647 Z6.8613
N3800 Y-0.4275
N3805 X10.5496 Y-0.3285 Z6.8582
N3810 X10.5435 Y-0.3284 Z6.8585
N3815 X10.5373 Y-0.3281 Z6.8587
N3820 X10.5336 Y-0.3277 Z6.8588
N3825 X10.53 Y-0.3272 Z6.8589
N3830 X10.5257 Y-0.3264 Z6.8591
N3835 X10.5214 Y-0.3254 Z6.8592
N3840 X10.5169 Y-0.3241 Z6.8594
N3845 X10.5123 Y-0.3225 Z6.8596
N3850 X10.5076 Y-0.3206 Z6.8597
N3855 X10.5036 Y-0.3188 Z6.8599
N3860 X10.4993 Y-0.3167 Z6.86
N3865 X10.4947 Y-0.3141 Z6.8602
N3870 X10.49 Y-0.311 Z6.8604
N3875 X10.4855 Y-0.3076 Z6.8605
N3880 X10.4812 Y-0.3041 Z6.8607
N3885 X10.4771 Y-0.3004 Z6.8608
N3890 X10.4737 Y-0.2968 Z6.861
N3895 X10.4705 Y-0.2931 Z6.8611
N3900 X10.4676 Y-0.2893 Z6.8612
N3905 X10.4648 Y-0.2853 Z6.8613
N3910 X10.4623 Y-0.2812 Z6.8614
N3915 X10.46 Y-0.277
N3920 X10.458 Y-0.2727 Z6.8615
N3925 X10.4565 Y-0.269 Z6.8616
N3930 X10.4553 Y-0.2651
N3935 X10.4543 Y-0.2612
N3940 X10.4536 Y-0.2577 Z6.8617
N3945 X10.4531 Y-0.254
N3950 X10.4528 Y-0.2486
N3955 Y-0.246
N3960 X10.4531 Y-0.2409
N3965 X10.4533 Y-0.2378
N3970 X10.4539 Y-0.234
N3975 X10.4549 Y-0.2298 Z6.8616
N3980 X10.4561 Y-0.2259
N3985 X10.4574 Y-0.2221 Z6.8615
N3990 X10.4592 Y-0.2178
N3995 X10.4615 Y-0.2134 Z6.8614
N4000 X10.4639 Y-0.2092 Z6.8613
N4005 X10.4666 Y-0.2053 Z6.8612
N4010 X10.4699 Y-0.2008 Z6.8611
N4015 X10.4736 Y-0.1966 Z6.861
N4020 X10.4775 Y-0.1925 Z6.8608
N4025 X10.4818 Y-0.1887 Z6.8607
N4030 X10.4862 Y-0.1852 Z6.8605
N4035 X10.4908 Y-0.182 Z6.8603
N4040 X10.4956 Y-0.179 Z6.8602
N4045 X10.5007 Y-0.1763 Z6.86
N4050 X10.5058 Y-0.1739 Z6.8598
N4055 X10.5109 Y-0.1718 Z6.8596
N4060 X10.516 Y-0.1699 Z6.8594
N4065 X10.5214 Y-0.1683 Z6.8592
N4070 X10.5265 Y-0.1671 Z6.8591
N4075 X10.5316 Y-0.1662 Z6.8589
N4080 X10.5366 Y-0.1655 Z6.8587
N4085 X10.5426 Y-0.1651 Z6.8585
N4090 X10.5473 Y-0.165 Z6.8583
N4095 X10.5539 Y-0.1652 Z6.8581
N4100 X10.5588 Y-0.1655 Z6.8579
N4105 X10.5649 Y-0.1662 Z6.8577
N4110 X10.5705 Y-0.167 Z6.8575
N4115 X10.5749 Y-0.1678 Z6.8574
N4120 X10.5785 Y-0.1686 Z6.8573
N4125 X10.583 Y-0.1699 Z6.8571
N4130 X10.5883 Y-0.1716 Z6.857
N4135 X10.5937 Y-0.1737 Z6.8568
N4140 X10.599 Y-0.1761 Z6.8566
N4145 X10.6054 Y-0.1794 Z6.8564
N4150 X10.6085 Y-0.1811 Z6.8563
N4155 Z6.8463 F1.
N4160 X10.6054 Y-0.1794 Z6.8464 F3.
N4165 X10.599 Y-0.1761 Z6.8466
N4170 X10.5937 Y-0.1737 Z6.8468
N4175 X10.5883 Y-0.1716 Z6.847
N4180 X10.583 Y-0.1699 Z6.8471
N4185 X10.5785 Y-0.1686 Z6.8473
N4190 X10.5749 Y-0.1678 Z6.8474
N4195 X10.5705 Y-0.167 Z6.8475
N4200 X10.5649 Y-0.1662 Z6.8477
N4205 X10.5588 Y-0.1655 Z6.8479
N4210 X10.5539 Y-0.1652 Z6.8481
N4215 X10.5473 Y-0.165 Z6.8483
N4220 X10.5426 Y-0.1651 Z6.8485
N4225 X10.5366 Y-0.1655 Z6.8487
N4230 X10.5316 Y-0.1662 Z6.8489
N4235 X10.5265 Y-0.1671 Z6.8491
N4240 X10.5214 Y-0.1683 Z6.8492
N4245 X10.516 Y-0.1699 Z6.8494
N4250 X10.5109 Y-0.1718 Z6.8496
N4255 X10.5058 Y-0.1739 Z6.8498
N4260 X10.5007 Y-0.1763 Z6.85
N4265 X10.4956 Y-0.179 Z6.8502
N4270 X10.4908 Y-0.182 Z6.8503
N4275 X10.4862 Y-0.1852 Z6.8505
N4280 X10.4818 Y-0.1887 Z6.8507
N4285 X10.4775 Y-0.1925 Z6.8508
N4290 X10.4736 Y-0.1966 Z6.851
N4295 X10.4699 Y-0.2008 Z6.8511
N4300 X10.4666 Y-0.2053 Z6.8512
N4305 X10.4639 Y-0.2092 Z6.8513
N4310 X10.4615 Y-0.2134 Z6.8514
N4315 X10.4592 Y-0.2178 Z6.8515
N4320 X10.4574 Y-0.2221
N4325 X10.4561 Y-0.2259 Z6.8516
N4330 X10.4549 Y-0.2298
N4335 X10.4539 Y-0.234 Z6.8517
N4340 X10.4533 Y-0.2378
N4345 X10.4531 Y-0.2409
N4350 X10.4528 Y-0.246
N4355 Y-0.2486
N4360 X10.4531 Y-0.254
N4365 X10.4536 Y-0.2577
N4370 X10.4543 Y-0.2612 Z6.8516
N4375 X10.4553 Y-0.2651
N4380 X10.4565 Y-0.269
N4385 X10.458 Y-0.2727 Z6.8515
N4390 X10.46 Y-0.277 Z6.8514
N4395 X10.4623 Y-0.2812
N4400 X10.4648 Y-0.2853 Z6.8513
N4405 X10.4676 Y-0.2893 Z6.8512
N4410 X10.4705 Y-0.2931 Z6.8511
N4415 X10.4737 Y-0.2968 Z6.851
N4420 X10.4771 Y-0.3004 Z6.8508
N4425 X10.4812 Y-0.3041 Z6.8507
N4430 X10.4855 Y-0.3076 Z6.8505
N4435 X10.49 Y-0.311 Z6.8504
N4440 X10.4947 Y-0.3141 Z6.8502
N4445 X10.4993 Y-0.3167 Z6.85
N4450 X10.5036 Y-0.3188 Z6.8499
N4455 X10.5076 Y-0.3206 Z6.8497
N4460 X10.5123 Y-0.3225 Z6.8496
N4465 X10.5169 Y-0.3241 Z6.8494
N4470 X10.5214 Y-0.3254 Z6.8492
N4475 X10.5257 Y-0.3264 Z6.8491
N4480 X10.53 Y-0.3272 Z6.8489
N4485 X10.5336 Y-0.3277 Z6.8488
N4490 X10.5373 Y-0.3281 Z6.8487
N4495 X10.5435 Y-0.3284 Z6.8485
N4500 X10.5496 Y-0.3285 Z6.8482
N4505 X10.4647 Y-0.4275 Z6.8513
N4510 Y-0.4383
N4515 X10.5405 Z6.8486
N4520 X10.6085 Z6.8463
N4525 G0 Z7.3559
N4530 X10.2885 Y-0.4383
N4535 Z6.9649
N4540 G1 Z6.8884 F1.
N4545 X10.2161 Z6.8916 F3.
N4550 X10.1446 Z6.8949
N4555 Y-0.4275
N4560 X10.2295 Y-0.3285 Z6.891
N4565 X10.2235 Y-0.3284 Z6.8912
N4570 X10.2174 Y-0.3281 Z6.8915
N4575 X10.2139 Y-0.3278 Z6.8917
N4580 X10.2102 Y-0.3272 Z6.8919
N4585 X10.2058 Y-0.3264 Z6.8921
N4590 X10.2014 Y-0.3254 Z6.8923
N4595 X10.1969 Y-0.3241 Z6.8925
N4600 X10.1923 Y-0.3225 Z6.8927
N4605 X10.1877 Y-0.3206 Z6.8929
N4610 X10.1836 Y-0.3188 Z6.8931
N4615 X10.1793 Y-0.3167 Z6.8933
N4620 X10.1747 Y-0.3141 Z6.8935
N4625 X10.17 Y-0.311 Z6.8937
N4630 X10.1655 Y-0.3077 Z6.894
N4635 X10.1612 Y-0.3041 Z6.8942
N4640 X10.1571 Y-0.3004 Z6.8944
N4645 X10.1537 Y-0.2968 Z6.8945
N4650 X10.1505 Y-0.2931 Z6.8947
N4655 X10.1476 Y-0.2893 Z6.8948
N4660 X10.1448 Y-0.2853 Z6.8949
N4665 X10.1422 Y-0.2812 Z6.895
N4670 X10.14 Y-0.277 Z6.8952
N4675 X10.138 Y-0.2728
N4680 X10.1365 Y-0.269 Z6.8953
N4685 X10.1353 Y-0.2651 Z6.8954
N4690 X10.1343 Y-0.2612
N4695 X10.1336 Y-0.2577 Z6.8955
N4700 X10.1331 Y-0.254
N4705 X10.1328 Y-0.2486
N4710 X10.1327 Y-0.2461
N4715 X10.133 Y-0.2409
N4720 X10.1333 Y-0.2379
N4725 X10.1339 Y-0.234 Z6.8954
N4730 X10.1348 Y-0.2299
N4735 X10.136 Y-0.2259 Z6.8953
N4740 X10.1373 Y-0.2221
N4745 X10.1392 Y-0.2178 Z6.8952
N4750 X10.1414 Y-0.2134 Z6.8951
N4755 X10.1439 Y-0.2092 Z6.895
N4760 X10.1465 Y-0.2053 Z6.8948
N4765 X10.1498 Y-0.2009 Z6.8947
N4770 X10.1535 Y-0.1966 Z6.8945
N4775 X10.1575 Y-0.1925 Z6.8943
N4780 X10.1618 Y-0.1887 Z6.8941
N4785 X10.1662 Y-0.1852 Z6.8939
N4790 X10.1708 Y-0.182 Z6.8937
N4795 X10.1756 Y-0.179 Z6.8935
N4800 X10.1806 Y-0.1763 Z6.8933
N4805 X10.1857 Y-0.1739 Z6.893
N4810 X10.1908 Y-0.1718 Z6.8928
N4815 X10.196 Y-0.1699 Z6.8925
N4820 X10.2013 Y-0.1684 Z6.8923
N4825 X10.2064 Y-0.1671 Z6.892
N4830 X10.2115 Y-0.1662 Z6.8918
N4835 X10.2166 Y-0.1655 Z6.8916
N4840 X10.2225 Y-0.1651 Z6.8913
N4845 X10.2272 Y-0.165 Z6.8911
N4850 X10.2338 Y-0.1652 Z6.8908
N4855 X10.2386 Y-0.1655 Z6.8905
N4860 X10.2447 Y-0.1662 Z6.8903
N4865 X10.2502 Y-0.167 Z6.89
N4870 X10.2544 Y-0.1677 Z6.8899
N4875 X10.2582 Y-0.1686 Z6.8897
N4880 X10.2629 Y-0.1698 Z6.8895
N4885 X10.2683 Y-0.1716 Z6.8893
N4890 X10.2736 Y-0.1737 Z6.889
N4895 X10.2789 Y-0.1761 Z6.8888
N4900 X10.2853 Y-0.1794 Z6.8885
N4905 X10.2885 Y-0.1811 Z6.8884
N4910 Z6.8784 F1.
N4915 X10.2853 Y-0.1794 Z6.8785 F3.
N4920 X10.2789 Y-0.1761 Z6.8788
N4925 X10.2736 Y-0.1737 Z6.879
N4930 X10.2683 Y-0.1716 Z6.8793
N4935 X10.2629 Y-0.1698 Z6.8795
N4940 X10.2582 Y-0.1686 Z6.8797
N4945 X10.2544 Y-0.1677 Z6.8799
N4950 X10.2502 Y-0.167 Z6.88
N4955 X10.2447 Y-0.1662 Z6.8803
N4960 X10.2386 Y-0.1655 Z6.8805
N4965 X10.2338 Y-0.1652 Z6.8808
N4970 X10.2272 Y-0.165 Z6.8811
N4975 X10.2225 Y-0.1651 Z6.8813
N4980 X10.2166 Y-0.1655 Z6.8816
N4985 X10.2115 Y-0.1662 Z6.8818
N4990 X10.2064 Y-0.1671 Z6.882
N4995 X10.2013 Y-0.1684 Z6.8823
N5000 X10.196 Y-0.1699 Z6.8825
N5005 X10.1908 Y-0.1718 Z6.8828
N5010 X10.1857 Y-0.1739 Z6.883
N5015 X10.1806 Y-0.1763 Z6.8833
N5020 X10.1756 Y-0.179 Z6.8835
N5025 X10.1708 Y-0.182 Z6.8837
N5030 X10.1662 Y-0.1852 Z6.8839
N5035 X10.1618 Y-0.1887 Z6.8841
N5040 X10.1575 Y-0.1925 Z6.8843
N5045 X10.1535 Y-0.1966 Z6.8845
N5050 X10.1498 Y-0.2009 Z6.8847
N5055 X10.1465 Y-0.2053 Z6.8848
N5060 X10.1439 Y-0.2092 Z6.885
N5065 X10.1414 Y-0.2134 Z6.8851
N5070 X10.1392 Y-0.2178 Z6.8852
N5075 X10.1373 Y-0.2221 Z6.8853
N5080 X10.136 Y-0.2259
N5085 X10.1348 Y-0.2299 Z6.8854
N5090 X10.1339 Y-0.234
N5095 X10.1333 Y-0.2379 Z6.8855
N5100 X10.133 Y-0.2409
N5105 X10.1327 Y-0.2461
N5110 X10.1328 Y-0.2486
N5115 X10.1331 Y-0.254
N5120 X10.1336 Y-0.2577
N5125 X10.1343 Y-0.2612 Z6.8854
N5130 X10.1353 Y-0.2651
N5135 X10.1365 Y-0.269 Z6.8853
N5140 X10.138 Y-0.2728 Z6.8852
N5145 X10.14 Y-0.277
N5150 X10.1422 Y-0.2812 Z6.885
N5155 X10.1448 Y-0.2853 Z6.8849
N5160 X10.1476 Y-0.2893 Z6.8848
N5165 X10.1505 Y-0.2931 Z6.8847
N5170 X10.1537 Y-0.2968 Z6.8845
N5175 X10.1571 Y-0.3004 Z6.8844
N5180 X10.1612 Y-0.3041 Z6.8842
N5185 X10.1655 Y-0.3077 Z6.884
N5190 X10.17 Y-0.311 Z6.8837
N5195 X10.1747 Y-0.3141 Z6.8835
N5200 X10.1793 Y-0.3167 Z6.8833
N5205 X10.1836 Y-0.3188 Z6.8831
N5210 X10.1877 Y-0.3206 Z6.8829
N5215 X10.1923 Y-0.3225 Z6.8827
N5220 X10.1969 Y-0.3241 Z6.8825
N5225 X10.2014 Y-0.3254 Z6.8823
N5230 X10.2058 Y-0.3264 Z6.8821
N5235 X10.2102 Y-0.3272 Z6.8819
N5240 X10.2139 Y-0.3278 Z6.8817
N5245 X10.2174 Y-0.3281 Z6.8815
N5250 X10.2235 Y-0.3284 Z6.8812
N5255 X10.2295 Y-0.3285 Z6.881
N5260 X10.1446 Y-0.4275 Z6.8849
N5265 Y-0.4383
N5270 X10.2161 Z6.8816
N5275 X10.2885 Z6.8784
N5280 Z6.8684 F1.
N5285 X10.2161 Z6.8716 F3.
N5290 X10.1446 Z6.8749
N5295 Y-0.4275
N5300 X10.2295 Y-0.3285 Z6.871
N5305 X10.2235 Y-0.3284 Z6.8712
N5310 X10.2174 Y-0.3281 Z6.8715
N5315 X10.2139 Y-0.3278 Z6.8717
N5320 X10.2102 Y-0.3272 Z6.8719
N5325 X10.2058 Y-0.3264 Z6.8721
N5330 X10.2014 Y-0.3254 Z6.8723
N5335 X10.1969 Y-0.3241 Z6.8725
N5340 X10.1923 Y-0.3225 Z6.8727
N5345 X10.1877 Y-0.3206 Z6.8729
N5350 X10.1836 Y-0.3188 Z6.8731
N5355 X10.1793 Y-0.3167 Z6.8733
N5360 X10.1747 Y-0.3141 Z6.8735
N5365 X10.17 Y-0.311 Z6.8737
N5370 X10.1655 Y-0.3077 Z6.874
N5375 X10.1612 Y-0.3041 Z6.8742
N5380 X10.1571 Y-0.3004 Z6.8744
N5385 X10.1537 Y-0.2968 Z6.8745
N5390 X10.1505 Y-0.2931 Z6.8747
N5395 X10.1476 Y-0.2893 Z6.8748
N5400 X10.1448 Y-0.2853 Z6.8749
N5405 X10.1422 Y-0.2812 Z6.875
N5410 X10.14 Y-0.277 Z6.8752
N5415 X10.138 Y-0.2728
N5420 X10.1365 Y-0.269 Z6.8753
N5425 X10.1353 Y-0.2651 Z6.8754
N5430 X10.1343 Y-0.2612
N5435 X10.1336 Y-0.2577 Z6.8755
N5440 X10.1331 Y-0.254
N5445 X10.1328 Y-0.2486
N5450 X10.1327 Y-0.2461
N5455 X10.133 Y-0.2409
N5460 X10.1333 Y-0.2379
N5465 X10.1339 Y-0.234 Z6.8754
N5470 X10.1348 Y-0.2299
N5475 X10.136 Y-0.2259 Z6.8753
N5480 X10.1373 Y-0.2221
N5485 X10.1392 Y-0.2178 Z6.8752
N5490 X10.1414 Y-0.2134 Z6.8751
N5495 X10.1439 Y-0.2092 Z6.875
N5500 X10.1465 Y-0.2053 Z6.8748
N5505 X10.1498 Y-0.2009 Z6.8747
N5510 X10.1535 Y-0.1966 Z6.8745
N5515 X10.1575 Y-0.1925 Z6.8743
N5520 X10.1618 Y-0.1887 Z6.8741
N5525 X10.1662 Y-0.1852 Z6.8739
N5530 X10.1708 Y-0.182 Z6.8737
N5535 X10.1756 Y-0.179 Z6.8735
N5540 X10.1806 Y-0.1763 Z6.8733
N5545 X10.1857 Y-0.1739 Z6.873
N5550 X10.1908 Y-0.1718 Z6.8728
N5555 X10.196 Y-0.1699 Z6.8725
N5560 X10.2013 Y-0.1684 Z6.8723
N5565 X10.2064 Y-0.1671 Z6.872
N5570 X10.2115 Y-0.1662 Z6.8718
N5575 X10.2166 Y-0.1655 Z6.8716
N5580 X10.2225 Y-0.1651 Z6.8713
N5585 X10.2272 Y-0.165 Z6.8711
N5590 X10.2338 Y-0.1652 Z6.8708
N5595 X10.2386 Y-0.1655 Z6.8705
N5600 X10.2447 Y-0.1662 Z6.8703
N5605 X10.2502 Y-0.167 Z6.87
N5610 X10.2544 Y-0.1677 Z6.8699
N5615 X10.2582 Y-0.1686 Z6.8697
N5620 X10.2629 Y-0.1698 Z6.8695
N5625 X10.2683 Y-0.1716 Z6.8693
N5630 X10.2736 Y-0.1737 Z6.869
N5635 X10.2789 Y-0.1761 Z6.8688
N5640 X10.2853 Y-0.1794 Z6.8685
N5645 X10.2885 Y-0.1811 Z6.8684
N5650 Z6.8584 F1.
N5655 X10.2853 Y-0.1794 Z6.8585 F3.
N5660 X10.2789 Y-0.1761 Z6.8588
N5665 X10.2736 Y-0.1737 Z6.859
N5670 X10.2683 Y-0.1716 Z6.8593
N5675 X10.2629 Y-0.1698 Z6.8595
N5680 X10.2582 Y-0.1686 Z6.8597
N5685 X10.2544 Y-0.1677 Z6.8599
N5690 X10.2502 Y-0.167 Z6.86
N5695 X10.2447 Y-0.1662 Z6.8603
N5700 X10.2386 Y-0.1655 Z6.8605
N5705 X10.2338 Y-0.1652 Z6.8608
N5710 X10.2272 Y-0.165 Z6.8611
N5715 X10.2225 Y-0.1651 Z6.8613
N5720 X10.2166 Y-0.1655 Z6.8616
N5725 X10.2115 Y-0.1662 Z6.8618
N5730 X10.2064 Y-0.1671 Z6.862
N5735 X10.2013 Y-0.1684 Z6.8623
N5740 X10.196 Y-0.1699 Z6.8625
N5745 X10.1908 Y-0.1718 Z6.8628
N5750 X10.1857 Y-0.1739 Z6.863
N5755 X10.1806 Y-0.1763 Z6.8633
N5760 X10.1756 Y-0.179 Z6.8635
N5765 X10.1708 Y-0.182 Z6.8637
N5770 X10.1662 Y-0.1852 Z6.8639
N5775 X10.1618 Y-0.1887 Z6.8641
N5780 X10.1575 Y-0.1925 Z6.8643
N5785 X10.1535 Y-0.1966 Z6.8645
N5790 X10.1498 Y-0.2009 Z6.8647
N5795 X10.1465 Y-0.2053 Z6.8648
N5800 X10.1439 Y-0.2092 Z6.865
N5805 X10.1414 Y-0.2134 Z6.8651
N5810 X10.1392 Y-0.2178 Z6.8652
N5815 X10.1373 Y-0.2221 Z6.8653
N5820 X10.136 Y-0.2259
N5825 X10.1348 Y-0.2299 Z6.8654
N5830 X10.1339 Y-0.234
N5835 X10.1333 Y-0.2379 Z6.8655
N5840 X10.133 Y-0.2409
N5845 X10.1327 Y-0.2461
N5850 X10.1328 Y-0.2486
N5855 X10.1331 Y-0.254
N5860 X10.1336 Y-0.2577
N5865 X10.1343 Y-0.2612 Z6.8654
N5870 X10.1353 Y-0.2651
N5875 X10.1365 Y-0.269 Z6.8653
N5880 X10.138 Y-0.2728 Z6.8652
N5885 X10.14 Y-0.277
N5890 X10.1422 Y-0.2812 Z6.865
N5895 X10.1448 Y-0.2853 Z6.8649
N5900 X10.1476 Y-0.2893 Z6.8648
N5905 X10.1505 Y-0.2931 Z6.8647
N5910 X10.1537 Y-0.2968 Z6.8645
N5915 X10.1571 Y-0.3004 Z6.8644
N5920 X10.1612 Y-0.3041 Z6.8642
N5925 X10.1655 Y-0.3077 Z6.864
N5930 X10.17 Y-0.311 Z6.8637
N5935 X10.1747 Y-0.3141 Z6.8635
N5940 X10.1793 Y-0.3167 Z6.8633
N5945 X10.1836 Y-0.3188 Z6.8631
N5950 X10.1877 Y-0.3206 Z6.8629
N5955 X10.1923 Y-0.3225 Z6.8627
N5960 X10.1969 Y-0.3241 Z6.8625
N5965 X10.2014 Y-0.3254 Z6.8623
N5970 X10.2058 Y-0.3264 Z6.8621
N5975 X10.2102 Y-0.3272 Z6.8619
N5980 X10.2139 Y-0.3278 Z6.8617
N5985 X10.2174 Y-0.3281 Z6.8615
N5990 X10.2235 Y-0.3284 Z6.8612
N5995 X10.2295 Y-0.3285 Z6.861
N6000 X10.1446 Y-0.4275 Z6.8649
N6005 Y-0.4383
N6010 X10.2161 Z6.8616
N6015 X10.2885 Z6.8584
N6020 G0 Z7.6059

N6025 M5
N6030 M9
N6035 G53 G0 Z0.
N6040 G53 G0 X0. Y0.
N6045 G49
N6050 G69
N6055 G0 A0. C0.
N6060 M99
