O1111 (EMTSERIALSUB-0000)
(T50 D=0.125 CR=0. TAPER=30DEG - CHAMFER MILL)
N10 G90 G94 G17 G49
N15 G20
N20 G53 G0 Z0.

(SERIAL ENGRAVE TIT)
N25 T50 M6
N30 S18000 M3
N35 G90 G94 G17
N40 G54.1 P2
N45 G68.2 X0. Y0. Z0. I107.642 J90. K180.
N50 G53.1 P2
N55 M8
N60 G0 X11.0969 Y-0.3696
N65 G43 Z7.6059 H50
N70 G0 Z6.9401
N75 G1 Z6.8645 F1.
N80 X11.0953 Y-0.3398 F3.
N85 X11.0945 Y-0.3221 Z6.8646
N90 X11.0942 Y-0.3087
N95 Y-0.2939
N100 X11.0945 Y-0.2813
N105 X11.0953 Y-0.2629 Z6.8645
N110 X11.0969 Y-0.2336
N115 X11.0978 Y-0.2277
N120 X11.0985 Y-0.2238
N125 X11.0996 Y-0.2194
N130 X11.101 Y-0.215 Z6.8644
N135 X11.1026 Y-0.2107
N140 X11.1046 Y-0.2064
N145 X11.1067 Y-0.2023
N150 X11.109 Y-0.1985 Z6.8643
N155 X11.1117 Y-0.1945
N160 X11.1147 Y-0.1905
N165 X11.1175 Y-0.1873 Z6.8642
N170 X11.1208 Y-0.1838
N175 X11.1245 Y-0.1804 Z6.8641
N180 X11.128 Y-0.1776
N185 X11.1318 Y-0.1748 Z6.864
N190 X11.136 Y-0.1722
N195 X11.14 Y-0.17 Z6.8639
N200 X11.1441 Y-0.168
N205 X11.1483 Y-0.1662 Z6.8638
N210 X11.1528 Y-0.1646 Z6.8637
N215 X11.1569 Y-0.1635
N220 X11.1613 Y-0.1626 Z6.8636
N225 X11.165 Y-0.162
N230 X11.1679 Y-0.1617 Z6.8635
N235 X11.1728 Y-0.1615
N240 X11.1756 Z6.8634
N245 X11.1812 Y-0.1619 Z6.8633
N250 X11.1853 Y-0.1625
N255 X11.1908 Y-0.1637 Z6.8632
N260 X11.1944 Y-0.1646
N265 X11.1997 Y-0.1663 Z6.8631
N270 X11.203 Y-0.1675 Z6.863
N275 X11.2067 Y-0.1691
N280 X11.2105 Y-0.1709 Z6.8629
N285 X11.2143 Y-0.1731
N290 X11.2179 Y-0.1754
N295 X11.2205 Y-0.1774 Z6.8628
N300 X11.223 Y-0.1795
N305 X11.2257 Y-0.1821
N310 X11.228 Y-0.1846
N315 X11.2307 Y-0.1879 Z6.8627
N320 X11.2335 Y-0.1917
N325 X11.236 Y-0.1956
N330 X11.2382 Y-0.1995
N335 X11.2403 Y-0.2036 Z6.8626
N340 X11.2421 Y-0.208
N345 X11.2438 Y-0.2124
N350 X11.2453 Y-0.2171
N355 X11.2466 Y-0.2217
N360 X11.248 Y-0.2274
N365 X11.2492 Y-0.2336
N370 X11.2502 Y-0.24 Z6.8625
N375 X11.251 Y-0.2467
N380 X11.2516 Y-0.2549
N385 X11.2521 Y-0.2662
N390 X11.2525 Y-0.2832
N395 X11.2526 Y-0.3028
N400 X11.2524 Y-0.3276
N405 X11.2519 Y-0.3418
N410 X11.2514 Y-0.3516
N415 X11.2505 Y-0.3636
N420 X11.2498 Y-0.3706
N425 X11.249 Y-0.3762 Z6.8626
N430 X11.2483 Y-0.3798
N435 X11.2473 Y-0.3841
N440 X11.246 Y-0.3884
N445 X11.2445 Y-0.3925
N450 X11.2426 Y-0.3968
N455 X11.2404 Y-0.4011
N460 X11.2382 Y-0.4048 Z6.8627
N465 X11.2356 Y-0.4088
N470 X11.2325 Y-0.4128
N475 X11.2297 Y-0.4162
N480 X11.2264 Y-0.4195 Z6.8628
N485 X11.2228 Y-0.4228
N490 X11.2191 Y-0.4258 Z6.8629
N495 X11.2153 Y-0.4285
N500 X11.2114 Y-0.431
N505 X11.2072 Y-0.4333 Z6.863
N510 X11.2031 Y-0.4353
N515 X11.1989 Y-0.4371 Z6.8631
N520 X11.1942 Y-0.4386 Z6.8632
N525 X11.1899 Y-0.4398
N530 X11.186 Y-0.4407 Z6.8633
N535 X11.1819 Y-0.4414
N540 X11.177 Y-0.4417 Z6.8634
N545 X11.1732 Y-0.4418 Z6.8635
N550 X11.1683 Y-0.4416
N555 X11.1644 Y-0.4412 Z6.8636
N560 X11.16 Y-0.4404
N565 X11.1554 Y-0.4392 Z6.8637
N570 X11.151 Y-0.4379 Z6.8638
N575 X11.147 Y-0.4363
N580 X11.1428 Y-0.4345 Z6.8639
N585 X11.1389 Y-0.4326
N590 X11.135 Y-0.4303 Z6.864
N595 X11.1311 Y-0.4278
N600 X11.1272 Y-0.4249 Z6.8641
N605 X11.1236 Y-0.4219
N610 X11.1203 Y-0.4189 Z6.8642
N615 X11.1171 Y-0.4155
N620 X11.1138 Y-0.4116 Z6.8643
N625 X11.111 Y-0.4078
N630 X11.1084 Y-0.4039
N635 X11.106 Y-0.3999 Z6.8644
N640 X11.1039 Y-0.3956
N645 X11.102 Y-0.3912
N650 X11.1004 Y-0.3869 Z6.8645
N655 X11.0992 Y-0.3826
N660 X11.0982 Y-0.3779
N665 X11.0972 Y-0.3716
N670 X11.0969 Y-0.3696
N675 G0 Z7.3559
N680 Z6.9401
N685 G1 Z6.8545 F1.
N690 X11.0953 Y-0.3398 F3.
N695 X11.0945 Y-0.3221 Z6.8546
N700 X11.0942 Y-0.3087
N705 Y-0.2939
N710 X11.0945 Y-0.2813
N715 X11.0953 Y-0.2629 Z6.8545
N720 X11.0969 Y-0.2336
N725 X11.0978 Y-0.2277
N730 X11.0985 Y-0.2238
N735 X11.0996 Y-0.2194
N740 X11.101 Y-0.215 Z6.8544
N745 X11.1026 Y-0.2107
N750 X11.1046 Y-0.2064
N755 X11.1067 Y-0.2023
N760 X11.109 Y-0.1985 Z6.8543
N765 X11.1117 Y-0.1945
N770 X11.1147 Y-0.1905
N775 X11.1175 Y-0.1873 Z6.8542
N780 X11.1208 Y-0.1838
N785 X11.1245 Y-0.1804 Z6.8541
N790 X11.128 Y-0.1776
N795 X11.1318 Y-0.1748 Z6.854
N800 X11.136 Y-0.1722
N805 X11.14 Y-0.17 Z6.8539
N810 X11.1441 Y-0.168
N815 X11.1483 Y-0.1662 Z6.8538
N820 X11.1528 Y-0.1646 Z6.8537
N825 X11.1569 Y-0.1635
N830 X11.1613 Y-0.1626 Z6.8536
N835 X11.165 Y-0.162
N840 X11.1679 Y-0.1617 Z6.8535
N845 X11.1728 Y-0.1615
N850 X11.1756 Z6.8534
N855 X11.1812 Y-0.1619 Z6.8533
N860 X11.1853 Y-0.1625
N865 X11.1908 Y-0.1637 Z6.8532
N870 X11.1944 Y-0.1646
N875 X11.1997 Y-0.1663 Z6.8531
N880 X11.203 Y-0.1675 Z6.853
N885 X11.2067 Y-0.1691
N890 X11.2105 Y-0.1709 Z6.8529
N895 X11.2143 Y-0.1731
N900 X11.2179 Y-0.1754
N905 X11.2205 Y-0.1774 Z6.8528
N910 X11.223 Y-0.1795
N915 X11.2257 Y-0.1821
N920 X11.228 Y-0.1846
N925 X11.2307 Y-0.1879 Z6.8527
N930 X11.2335 Y-0.1917
N935 X11.236 Y-0.1956
N940 X11.2382 Y-0.1995
N945 X11.2403 Y-0.2036 Z6.8526
N950 X11.2421 Y-0.208
N955 X11.2438 Y-0.2124
N960 X11.2453 Y-0.2171
N965 X11.2466 Y-0.2217
N970 X11.248 Y-0.2274
N975 X11.2492 Y-0.2336
N980 X11.2502 Y-0.24 Z6.8525
N985 X11.251 Y-0.2467
N990 X11.2516 Y-0.2549
N995 X11.2521 Y-0.2662
N1000 X11.2525 Y-0.2832
N1005 X11.2526 Y-0.3028
N1010 X11.2524 Y-0.3276
N1015 X11.2519 Y-0.3418
N1020 X11.2514 Y-0.3516
N1025 X11.2505 Y-0.3636
N1030 X11.2498 Y-0.3706
N1035 X11.249 Y-0.3762 Z6.8526
N1040 X11.2483 Y-0.3798
N1045 X11.2473 Y-0.3841
N1050 X11.246 Y-0.3884
N1055 X11.2445 Y-0.3925
N1060 X11.2426 Y-0.3968
N1065 X11.2404 Y-0.4011
N1070 X11.2382 Y-0.4048 Z6.8527
N1075 X11.2356 Y-0.4088
N1080 X11.2325 Y-0.4128
N1085 X11.2297 Y-0.4162
N1090 X11.2264 Y-0.4195 Z6.8528
N1095 X11.2228 Y-0.4228
N1100 X11.2191 Y-0.4258 Z6.8529
N1105 X11.2153 Y-0.4285
N1110 X11.2114 Y-0.431
N1115 X11.2072 Y-0.4333 Z6.853
N1120 X11.2031 Y-0.4353
N1125 X11.1989 Y-0.4371 Z6.8531
N1130 X11.1942 Y-0.4386 Z6.8532
N1135 X11.1899 Y-0.4398
N1140 X11.186 Y-0.4407 Z6.8533
N1145 X11.1819 Y-0.4414
N1150 X11.177 Y-0.4417 Z6.8534
N1155 X11.1732 Y-0.4418 Z6.8535
N1160 X11.1683 Y-0.4416
N1165 X11.1644 Y-0.4412 Z6.8536
N1170 X11.16 Y-0.4404
N1175 X11.1554 Y-0.4392 Z6.8537
N1180 X11.151 Y-0.4379 Z6.8538
N1185 X11.147 Y-0.4363
N1190 X11.1428 Y-0.4345 Z6.8539
N1195 X11.1389 Y-0.4326
N1200 X11.135 Y-0.4303 Z6.854
N1205 X11.1311 Y-0.4278
N1210 X11.1272 Y-0.4249 Z6.8541
N1215 X11.1236 Y-0.4219
N1220 X11.1203 Y-0.4189 Z6.8542
N1225 X11.1171 Y-0.4155
N1230 X11.1138 Y-0.4116 Z6.8543
N1235 X11.111 Y-0.4078
N1240 X11.1084 Y-0.4039
N1245 X11.106 Y-0.3999 Z6.8544
N1250 X11.1039 Y-0.3956
N1255 X11.102 Y-0.3912
N1260 X11.1004 Y-0.3869 Z6.8545
N1265 X11.0992 Y-0.3826
N1270 X11.0982 Y-0.3779
N1275 X11.0972 Y-0.3716
N1280 X11.0969 Y-0.3696
N1285 G0 Z7.3559
N1290 Z6.9401
N1295 G1 Z6.8445 F1.
N1300 X11.0953 Y-0.3398 F3.
N1305 X11.0945 Y-0.3221 Z6.8446
N1310 X11.0942 Y-0.3087
N1315 Y-0.2939
N1320 X11.0945 Y-0.2813
N1325 X11.0953 Y-0.2629 Z6.8445
N1330 X11.0969 Y-0.2336
N1335 X11.0978 Y-0.2277
N1340 X11.0985 Y-0.2238
N1345 X11.0996 Y-0.2194
N1350 X11.101 Y-0.215 Z6.8444
N1355 X11.1026 Y-0.2107
N1360 X11.1046 Y-0.2064
N1365 X11.1067 Y-0.2023
N1370 X11.109 Y-0.1985 Z6.8443
N1375 X11.1117 Y-0.1945
N1380 X11.1147 Y-0.1905
N1385 X11.1175 Y-0.1873 Z6.8442
N1390 X11.1208 Y-0.1838
N1395 X11.1245 Y-0.1804 Z6.8441
N1400 X11.128 Y-0.1776
N1405 X11.1318 Y-0.1748 Z6.844
N1410 X11.136 Y-0.1722
N1415 X11.14 Y-0.17 Z6.8439
N1420 X11.1441 Y-0.168
N1425 X11.1483 Y-0.1662 Z6.8438
N1430 X11.1528 Y-0.1646 Z6.8437
N1435 X11.1569 Y-0.1635
N1440 X11.1613 Y-0.1626 Z6.8436
N1445 X11.165 Y-0.162
N1450 X11.1679 Y-0.1617 Z6.8435
N1455 X11.1728 Y-0.1615
N1460 X11.1756 Z6.8434
N1465 X11.1812 Y-0.1619 Z6.8433
N1470 X11.1853 Y-0.1625
N1475 X11.1908 Y-0.1637 Z6.8432
N1480 X11.1944 Y-0.1646
N1485 X11.1997 Y-0.1663 Z6.8431
N1490 X11.203 Y-0.1675 Z6.843
N1495 X11.2067 Y-0.1691
N1500 X11.2105 Y-0.1709 Z6.8429
N1505 X11.2143 Y-0.1731
N1510 X11.2179 Y-0.1754
N1515 X11.2205 Y-0.1774 Z6.8428
N1520 X11.223 Y-0.1795
N1525 X11.2257 Y-0.1821
N1530 X11.228 Y-0.1846
N1535 X11.2307 Y-0.1879 Z6.8427
N1540 X11.2335 Y-0.1917
N1545 X11.236 Y-0.1956
N1550 X11.2382 Y-0.1995
N1555 X11.2403 Y-0.2036 Z6.8426
N1560 X11.2421 Y-0.208
N1565 X11.2438 Y-0.2124
N1570 X11.2453 Y-0.2171
N1575 X11.2466 Y-0.2217
N1580 X11.248 Y-0.2274
N1585 X11.2492 Y-0.2336
N1590 X11.2502 Y-0.24 Z6.8425
N1595 X11.251 Y-0.2467
N1600 X11.2516 Y-0.2549
N1605 X11.2521 Y-0.2662
N1610 X11.2525 Y-0.2832
N1615 X11.2526 Y-0.3028
N1620 X11.2524 Y-0.3276
N1625 X11.2519 Y-0.3418
N1630 X11.2514 Y-0.3516
N1635 X11.2505 Y-0.3636
N1640 X11.2498 Y-0.3706
N1645 X11.249 Y-0.3762 Z6.8426
N1650 X11.2483 Y-0.3798
N1655 X11.2473 Y-0.3841
N1660 X11.246 Y-0.3884
N1665 X11.2445 Y-0.3925
N1670 X11.2426 Y-0.3968
N1675 X11.2404 Y-0.4011
N1680 X11.2382 Y-0.4048 Z6.8427
N1685 X11.2356 Y-0.4088
N1690 X11.2325 Y-0.4128
N1695 X11.2297 Y-0.4162
N1700 X11.2264 Y-0.4195 Z6.8428
N1705 X11.2228 Y-0.4228
N1710 X11.2191 Y-0.4258 Z6.8429
N1715 X11.2153 Y-0.4285
N1720 X11.2114 Y-0.431
N1725 X11.2072 Y-0.4333 Z6.843
N1730 X11.2031 Y-0.4353
N1735 X11.1989 Y-0.4371 Z6.8431
N1740 X11.1942 Y-0.4386 Z6.8432
N1745 X11.1899 Y-0.4398
N1750 X11.186 Y-0.4407 Z6.8433
N1755 X11.1819 Y-0.4414
N1760 X11.177 Y-0.4417 Z6.8434
N1765 X11.1732 Y-0.4418 Z6.8435
N1770 X11.1683 Y-0.4416
N1775 X11.1644 Y-0.4412 Z6.8436
N1780 X11.16 Y-0.4404
N1785 X11.1554 Y-0.4392 Z6.8437
N1790 X11.151 Y-0.4379 Z6.8438
N1795 X11.147 Y-0.4363
N1800 X11.1428 Y-0.4345 Z6.8439
N1805 X11.1389 Y-0.4326
N1810 X11.135 Y-0.4303 Z6.844
N1815 X11.1311 Y-0.4278
N1820 X11.1272 Y-0.4249 Z6.8441
N1825 X11.1236 Y-0.4219
N1830 X11.1203 Y-0.4189 Z6.8442
N1835 X11.1171 Y-0.4155
N1840 X11.1138 Y-0.4116 Z6.8443
N1845 X11.111 Y-0.4078
N1850 X11.1084 Y-0.4039
N1855 X11.106 Y-0.3999 Z6.8444
N1860 X11.1039 Y-0.3956
N1865 X11.102 Y-0.3912
N1870 X11.1004 Y-0.3869 Z6.8445
N1875 X11.0992 Y-0.3826
N1880 X11.0982 Y-0.3779
N1885 X11.0972 Y-0.3716
N1890 X11.0969 Y-0.3696
N1895 G0 Z7.3559
N1900 Z6.9401
N1905 G1 Z6.8345 F1.
N1910 X11.0953 Y-0.3398 F3.
N1915 X11.0945 Y-0.3221 Z6.8346
N1920 X11.0942 Y-0.3087
N1925 Y-0.2939
N1930 X11.0945 Y-0.2813
N1935 X11.0953 Y-0.2629 Z6.8345
N1940 X11.0969 Y-0.2336
N1945 X11.0978 Y-0.2277
N1950 X11.0985 Y-0.2238
N1955 X11.0996 Y-0.2194
N1960 X11.101 Y-0.215 Z6.8344
N1965 X11.1026 Y-0.2107
N1970 X11.1046 Y-0.2064
N1975 X11.1067 Y-0.2023
N1980 X11.109 Y-0.1985 Z6.8343
N1985 X11.1117 Y-0.1945
N1990 X11.1147 Y-0.1905
N1995 X11.1175 Y-0.1873 Z6.8342
N2000 X11.1208 Y-0.1838
N2005 X11.1245 Y-0.1804 Z6.8341
N2010 X11.128 Y-0.1776
N2015 X11.1318 Y-0.1748 Z6.834
N2020 X11.136 Y-0.1722
N2025 X11.14 Y-0.17 Z6.8339
N2030 X11.1441 Y-0.168
N2035 X11.1483 Y-0.1662 Z6.8338
N2040 X11.1528 Y-0.1646 Z6.8337
N2045 X11.1569 Y-0.1635
N2050 X11.1613 Y-0.1626 Z6.8336
N2055 X11.165 Y-0.162
N2060 X11.1679 Y-0.1617 Z6.8335
N2065 X11.1728 Y-0.1615
N2070 X11.1756 Z6.8334
N2075 X11.1812 Y-0.1619 Z6.8333
N2080 X11.1853 Y-0.1625
N2085 X11.1908 Y-0.1637 Z6.8332
N2090 X11.1944 Y-0.1646
N2095 X11.1997 Y-0.1663 Z6.8331
N2100 X11.203 Y-0.1675 Z6.833
N2105 X11.2067 Y-0.1691
N2110 X11.2105 Y-0.1709 Z6.8329
N2115 X11.2143 Y-0.1731
N2120 X11.2179 Y-0.1754
N2125 X11.2205 Y-0.1774 Z6.8328
N2130 X11.223 Y-0.1795
N2135 X11.2257 Y-0.1821
N2140 X11.228 Y-0.1846
N2145 X11.2307 Y-0.1879 Z6.8327
N2150 X11.2335 Y-0.1917
N2155 X11.236 Y-0.1956
N2160 X11.2382 Y-0.1995
N2165 X11.2403 Y-0.2036 Z6.8326
N2170 X11.2421 Y-0.208
N2175 X11.2438 Y-0.2124
N2180 X11.2453 Y-0.2171
N2185 X11.2466 Y-0.2217
N2190 X11.248 Y-0.2274
N2195 X11.2492 Y-0.2336
N2200 X11.2502 Y-0.24 Z6.8325
N2205 X11.251 Y-0.2467
N2210 X11.2516 Y-0.2549
N2215 X11.2521 Y-0.2662
N2220 X11.2525 Y-0.2832
N2225 X11.2526 Y-0.3028
N2230 X11.2524 Y-0.3276
N2235 X11.2519 Y-0.3418
N2240 X11.2514 Y-0.3516
N2245 X11.2505 Y-0.3636
N2250 X11.2498 Y-0.3706
N2255 X11.249 Y-0.3762 Z6.8326
N2260 X11.2483 Y-0.3798
N2265 X11.2473 Y-0.3841
N2270 X11.246 Y-0.3884
N2275 X11.2445 Y-0.3925
N2280 X11.2426 Y-0.3968
N2285 X11.2404 Y-0.4011
N2290 X11.2382 Y-0.4048 Z6.8327
N2295 X11.2356 Y-0.4088
N2300 X11.2325 Y-0.4128
N2305 X11.2297 Y-0.4162
N2310 X11.2264 Y-0.4195 Z6.8328
N2315 X11.2228 Y-0.4228
N2320 X11.2191 Y-0.4258 Z6.8329
N2325 X11.2153 Y-0.4285
N2330 X11.2114 Y-0.431
N2335 X11.2072 Y-0.4333 Z6.833
N2340 X11.2031 Y-0.4353
N2345 X11.1989 Y-0.4371 Z6.8331
N2350 X11.1942 Y-0.4386 Z6.8332
N2355 X11.1899 Y-0.4398
N2360 X11.186 Y-0.4407 Z6.8333
N2365 X11.1819 Y-0.4414
N2370 X11.177 Y-0.4417 Z6.8334
N2375 X11.1732 Y-0.4418 Z6.8335
N2380 X11.1683 Y-0.4416
N2385 X11.1644 Y-0.4412 Z6.8336
N2390 X11.16 Y-0.4404
N2395 X11.1554 Y-0.4392 Z6.8337
N2400 X11.151 Y-0.4379 Z6.8338
N2405 X11.147 Y-0.4363
N2410 X11.1428 Y-0.4345 Z6.8339
N2415 X11.1389 Y-0.4326
N2420 X11.135 Y-0.4303 Z6.834
N2425 X11.1311 Y-0.4278
N2430 X11.1272 Y-0.4249 Z6.8341
N2435 X11.1236 Y-0.4219
N2440 X11.1203 Y-0.4189 Z6.8342
N2445 X11.1171 Y-0.4155
N2450 X11.1138 Y-0.4116 Z6.8343
N2455 X11.111 Y-0.4078
N2460 X11.1084 Y-0.4039
N2465 X11.106 Y-0.3999 Z6.8344
N2470 X11.1039 Y-0.3956
N2475 X11.102 Y-0.3912
N2480 X11.1004 Y-0.3869 Z6.8345
N2485 X11.0992 Y-0.3826
N2490 X11.0982 Y-0.3779
N2495 X11.0972 Y-0.3716
N2500 X11.0969 Y-0.3696
N2505 G0 Z7.3559
N2510 X10.931 Y-0.3565
N2515 Z6.9434
N2520 G1 Z6.8676 F1.
N2525 X10.9305 Y-0.3636 Z6.8677 F3.
N2530 X10.9298 Y-0.3706
N2535 X10.929 Y-0.3762
N2540 X10.9283 Y-0.3798
N2545 X10.9273 Y-0.3841
N2550 X10.926 Y-0.3884
N2555 X10.9245 Y-0.3925 Z6.8678
N2560 X10.9226 Y-0.3968
N2565 X10.9204 Y-0.4011 Z6.8679
N2570 X10.9182 Y-0.4048
N2575 X10.9156 Y-0.4088 Z6.868
N2580 X10.9125 Y-0.4128
N2585 X10.9096 Y-0.4162 Z6.8681
N2590 X10.9064 Y-0.4195 Z6.8682
N2595 X10.9028 Y-0.4228
N2600 X10.8991 Y-0.4258 Z6.8683
N2605 X10.8953 Y-0.4285 Z6.8684
N2610 X10.8913 Y-0.431 Z6.8685
N2615 X10.8872 Y-0.4333 Z6.8686
N2620 X10.883 Y-0.4353 Z6.8687
N2625 X10.8789 Y-0.4371 Z6.8688
N2630 X10.8743 Y-0.4386 Z6.8689
N2635 X10.8699 Y-0.4398 Z6.869
N2640 X10.866 Y-0.4407 Z6.8691
N2645 X10.8618 Y-0.4414 Z6.8692
N2650 X10.857 Y-0.4417 Z6.8693
N2655 X10.8532 Y-0.4418 Z6.8694
N2660 X10.8483 Y-0.4416 Z6.8695
N2665 X10.8443 Y-0.4412 Z6.8696
N2670 X10.84 Y-0.4404 Z6.8697
N2675 X10.8354 Y-0.4392 Z6.8698
N2680 X10.831 Y-0.4379 Z6.87
N2685 X10.8269 Y-0.4363 Z6.8701
N2690 X10.8228 Y-0.4345 Z6.8702
N2695 X10.8189 Y-0.4326 Z6.8703
N2700 X10.815 Y-0.4304
N2705 X10.811 Y-0.4278 Z6.8704
N2710 X10.8072 Y-0.4249 Z6.8705
N2715 X10.8035 Y-0.4219 Z6.8706
N2720 X10.8003 Y-0.419 Z6.8707
N2725 X10.797 Y-0.4155 Z6.8708
N2730 X10.7938 Y-0.4117 Z6.8709
N2735 X10.7909 Y-0.4078
N2740 X10.7884 Y-0.4039 Z6.871
N2745 X10.786 Y-0.3999 Z6.8711
N2750 X10.7838 Y-0.3956
N2755 X10.7819 Y-0.3912 Z6.8712
N2760 X10.7804 Y-0.387
N2765 X10.7791 Y-0.3826
N2770 X10.7781 Y-0.378 Z6.8713
N2775 X10.7772 Y-0.3717
N2780 X10.7769 Y-0.3696
N2785 X10.7752 Y-0.3396
N2790 X10.7744 Y-0.3221 Z6.8714
N2795 X10.7742 Y-0.3087
N2800 Y-0.2941
N2805 X10.7744 Y-0.2814
N2810 X10.7752 Y-0.2631 Z6.8713
N2815 X10.7769 Y-0.2336
N2820 X10.7778 Y-0.2277
N2825 X10.7785 Y-0.2238
N2830 X10.7796 Y-0.2194 Z6.8712
N2835 X10.781 Y-0.215
N2840 X10.7826 Y-0.2108
N2845 X10.7845 Y-0.2065 Z6.8711
N2850 X10.7867 Y-0.2023
N2855 X10.7889 Y-0.1985 Z6.871
N2860 X10.7917 Y-0.1945 Z6.8709
N2865 X10.7946 Y-0.1906
N2870 X10.7974 Y-0.1873 Z6.8708
N2875 X10.8008 Y-0.1838 Z6.8707
N2880 X10.8045 Y-0.1804 Z6.8706
N2885 X10.8079 Y-0.1776 Z6.8705
N2890 X10.8118 Y-0.1748 Z6.8704
N2895 X10.816 Y-0.1722 Z6.8703
N2900 X10.8199 Y-0.17 Z6.8702
N2905 X10.824 Y-0.168 Z6.8701
N2910 X10.8283 Y-0.1662 Z6.87
N2915 X10.8327 Y-0.1647 Z6.8699
N2920 X10.8368 Y-0.1635 Z6.8698
N2925 X10.8411 Y-0.1626 Z6.8697
N2930 X10.8446 Y-0.162 Z6.8696
N2935 X10.8475 Y-0.1617 Z6.8695
N2940 X10.8523 Y-0.1615 Z6.8694
N2945 X10.8548
N2950 X10.8611 Y-0.1619 Z6.8692
N2955 X10.8653 Y-0.1625 Z6.8691
N2960 X10.8707 Y-0.1637 Z6.869
N2965 X10.8743 Y-0.1646 Z6.8689
N2970 X10.8795 Y-0.1662 Z6.8687
N2975 X10.883 Y-0.1675
N2980 X10.8867 Y-0.1691 Z6.8686
N2985 X10.8905 Y-0.1709 Z6.8685
N2990 X10.8943 Y-0.1731 Z6.8684
N2995 X10.8978 Y-0.1754 Z6.8683
N3000 X10.9004 Y-0.1773
N3005 X10.9029 Y-0.1795 Z6.8682
N3010 X10.9056 Y-0.182
N3015 X10.9079 Y-0.1845 Z6.8681
N3020 X10.9106 Y-0.1878
N3025 X10.9134 Y-0.1917 Z6.868
N3030 X10.9159 Y-0.1955
N3035 X10.9181 Y-0.1995 Z6.8679
N3040 X10.9202 Y-0.2036
N3045 X10.9221 Y-0.2079 Z6.8678
N3050 X10.9238 Y-0.2124
N3055 X10.9253 Y-0.2171
N3060 X10.9266 Y-0.2217 Z6.8677
N3065 X10.9279 Y-0.2273
N3070 X10.9292 Y-0.2336
N3075 X10.9302 Y-0.24
N3080 X10.9309 Y-0.2467 Z6.8676
N3085 X10.9315 Y-0.2549
N3090 X10.9321 Y-0.2662
N3095 X10.9324 Y-0.2831
N3100 X10.9326 Y-0.3028
N3105 X10.9323 Y-0.3276
N3110 X10.9319 Y-0.3418
N3115 X10.9314 Y-0.3516
N3120 X10.931 Y-0.3565
N3125 G0 Z7.3559
N3130 Z6.9434
N3135 G1 Z6.8576 F1.
N3140 X10.9305 Y-0.3636 Z6.8577 F3.
N3145 X10.9298 Y-0.3706
N3150 X10.929 Y-0.3762
N3155 X10.9283 Y-0.3798
N3160 X10.9273 Y-0.3841
N3165 X10.926 Y-0.3884
N3170 X10.9245 Y-0.3925 Z6.8578
N3175 X10.9226 Y-0.3968
N3180 X10.9204 Y-0.4011 Z6.8579
N3185 X10.9182 Y-0.4048
N3190 X10.9156 Y-0.4088 Z6.858
N3195 X10.9125 Y-0.4128
N3200 X10.9096 Y-0.4162 Z6.8581
N3205 X10.9064 Y-0.4195 Z6.8582
N3210 X10.9028 Y-0.4228
N3215 X10.8991 Y-0.4258 Z6.8583
N3220 X10.8953 Y-0.4285 Z6.8584
N3225 X10.8913 Y-0.431 Z6.8585
N3230 X10.8872 Y-0.4333 Z6.8586
N3235 X10.883 Y-0.4353 Z6.8587
N3240 X10.8789 Y-0.4371 Z6.8588
N3245 X10.8743 Y-0.4386 Z6.8589
N3250 X10.8699 Y-0.4398 Z6.859
N3255 X10.866 Y-0.4407 Z6.8591
N3260 X10.8618 Y-0.4414 Z6.8592
N3265 X10.857 Y-0.4417 Z6.8593
N3270 X10.8532 Y-0.4418 Z6.8594
N3275 X10.8483 Y-0.4416 Z6.8595
N3280 X10.8443 Y-0.4412 Z6.8596
N3285 X10.84 Y-0.4404 Z6.8597
N3290 X10.8354 Y-0.4392 Z6.8598
N3295 X10.831 Y-0.4379 Z6.86
N3300 X10.8269 Y-0.4363 Z6.8601
N3305 X10.8228 Y-0.4345 Z6.8602
N3310 X10.8189 Y-0.4326 Z6.8603
N3315 X10.815 Y-0.4304
N3320 X10.811 Y-0.4278 Z6.8604
N3325 X10.8072 Y-0.4249 Z6.8605
N3330 X10.8035 Y-0.4219 Z6.8606
N3335 X10.8003 Y-0.419 Z6.8607
N3340 X10.797 Y-0.4155 Z6.8608
N3345 X10.7938 Y-0.4117 Z6.8609
N3350 X10.7909 Y-0.4078
N3355 X10.7884 Y-0.4039 Z6.861
N3360 X10.786 Y-0.3999 Z6.8611
N3365 X10.7838 Y-0.3956
N3370 X10.7819 Y-0.3912 Z6.8612
N3375 X10.7804 Y-0.387
N3380 X10.7791 Y-0.3826
N3385 X10.7781 Y-0.378 Z6.8613
N3390 X10.7772 Y-0.3717
N3395 X10.7769 Y-0.3696
N3400 X10.7752 Y-0.3396
N3405 X10.7744 Y-0.3221 Z6.8614
N3410 X10.7742 Y-0.3087
N3415 Y-0.2941
N3420 X10.7744 Y-0.2814
N3425 X10.7752 Y-0.2631 Z6.8613
N3430 X10.7769 Y-0.2336
N3435 X10.7778 Y-0.2277
N3440 X10.7785 Y-0.2238
N3445 X10.7796 Y-0.2194 Z6.8612
N3450 X10.781 Y-0.215
N3455 X10.7826 Y-0.2108
N3460 X10.7845 Y-0.2065 Z6.8611
N3465 X10.7867 Y-0.2023
N3470 X10.7889 Y-0.1985 Z6.861
N3475 X10.7917 Y-0.1945 Z6.8609
N3480 X10.7946 Y-0.1906
N3485 X10.7974 Y-0.1873 Z6.8608
N3490 X10.8008 Y-0.1838 Z6.8607
N3495 X10.8045 Y-0.1804 Z6.8606
N3500 X10.8079 Y-0.1776 Z6.8605
N3505 X10.8118 Y-0.1748 Z6.8604
N3510 X10.816 Y-0.1722 Z6.8603
N3515 X10.8199 Y-0.17 Z6.8602
N3520 X10.824 Y-0.168 Z6.8601
N3525 X10.8283 Y-0.1662 Z6.86
N3530 X10.8327 Y-0.1647 Z6.8599
N3535 X10.8368 Y-0.1635 Z6.8598
N3540 X10.8411 Y-0.1626 Z6.8597
N3545 X10.8446 Y-0.162 Z6.8596
N3550 X10.8475 Y-0.1617 Z6.8595
N3555 X10.8523 Y-0.1615 Z6.8594
N3560 X10.8548
N3565 X10.8611 Y-0.1619 Z6.8592
N3570 X10.8653 Y-0.1625 Z6.8591
N3575 X10.8707 Y-0.1637 Z6.859
N3580 X10.8743 Y-0.1646 Z6.8589
N3585 X10.8795 Y-0.1662 Z6.8587
N3590 X10.883 Y-0.1675
N3595 X10.8867 Y-0.1691 Z6.8586
N3600 X10.8905 Y-0.1709 Z6.8585
N3605 X10.8943 Y-0.1731 Z6.8584
N3610 X10.8978 Y-0.1754 Z6.8583
N3615 X10.9004 Y-0.1773
N3620 X10.9029 Y-0.1795 Z6.8582
N3625 X10.9056 Y-0.182
N3630 X10.9079 Y-0.1845 Z6.8581
N3635 X10.9106 Y-0.1878
N3640 X10.9134 Y-0.1917 Z6.858
N3645 X10.9159 Y-0.1955
N3650 X10.9181 Y-0.1995 Z6.8579
N3655 X10.9202 Y-0.2036
N3660 X10.9221 Y-0.2079 Z6.8578
N3665 X10.9238 Y-0.2124
N3670 X10.9253 Y-0.2171
N3675 X10.9266 Y-0.2217 Z6.8577
N3680 X10.9279 Y-0.2273
N3685 X10.9292 Y-0.2336
N3690 X10.9302 Y-0.24
N3695 X10.9309 Y-0.2467 Z6.8576
N3700 X10.9315 Y-0.2549
N3705 X10.9321 Y-0.2662
N3710 X10.9324 Y-0.2831
N3715 X10.9326 Y-0.3028
N3720 X10.9323 Y-0.3276
N3725 X10.9319 Y-0.3418
N3730 X10.9314 Y-0.3516
N3735 X10.931 Y-0.3565
N3740 G0 Z7.3559
N3745 Z6.9434
N3750 G1 Z6.8476 F1.
N3755 X10.9305 Y-0.3636 Z6.8477 F3.
N3760 X10.9298 Y-0.3706
N3765 X10.929 Y-0.3762
N3770 X10.9283 Y-0.3798
N3775 X10.9273 Y-0.3841
N3780 X10.926 Y-0.3884
N3785 X10.9245 Y-0.3925 Z6.8478
N3790 X10.9226 Y-0.3968
N3795 X10.9204 Y-0.4011 Z6.8479
N3800 X10.9182 Y-0.4048
N3805 X10.9156 Y-0.4088 Z6.848
N3810 X10.9125 Y-0.4128
N3815 X10.9096 Y-0.4162 Z6.8481
N3820 X10.9064 Y-0.4195 Z6.8482
N3825 X10.9028 Y-0.4228
N3830 X10.8991 Y-0.4258 Z6.8483
N3835 X10.8953 Y-0.4285 Z6.8484
N3840 X10.8913 Y-0.431 Z6.8485
N3845 X10.8872 Y-0.4333 Z6.8486
N3850 X10.883 Y-0.4353 Z6.8487
N3855 X10.8789 Y-0.4371 Z6.8488
N3860 X10.8743 Y-0.4386 Z6.8489
N3865 X10.8699 Y-0.4398 Z6.849
N3870 X10.866 Y-0.4407 Z6.8491
N3875 X10.8618 Y-0.4414 Z6.8492
N3880 X10.857 Y-0.4417 Z6.8493
N3885 X10.8532 Y-0.4418 Z6.8494
N3890 X10.8483 Y-0.4416 Z6.8495
N3895 X10.8443 Y-0.4412 Z6.8496
N3900 X10.84 Y-0.4404 Z6.8497
N3905 X10.8354 Y-0.4392 Z6.8498
N3910 X10.831 Y-0.4379 Z6.85
N3915 X10.8269 Y-0.4363 Z6.8501
N3920 X10.8228 Y-0.4345 Z6.8502
N3925 X10.8189 Y-0.4326 Z6.8503
N3930 X10.815 Y-0.4304
N3935 X10.811 Y-0.4278 Z6.8504
N3940 X10.8072 Y-0.4249 Z6.8505
N3945 X10.8035 Y-0.4219 Z6.8506
N3950 X10.8003 Y-0.419 Z6.8507
N3955 X10.797 Y-0.4155 Z6.8508
N3960 X10.7938 Y-0.4117 Z6.8509
N3965 X10.7909 Y-0.4078
N3970 X10.7884 Y-0.4039 Z6.851
N3975 X10.786 Y-0.3999 Z6.8511
N3980 X10.7838 Y-0.3956
N3985 X10.7819 Y-0.3912 Z6.8512
N3990 X10.7804 Y-0.387
N3995 X10.7791 Y-0.3826
N4000 X10.7781 Y-0.378 Z6.8513
N4005 X10.7772 Y-0.3717
N4010 X10.7769 Y-0.3696
N4015 X10.7752 Y-0.3396
N4020 X10.7744 Y-0.3221 Z6.8514
N4025 X10.7742 Y-0.3087
N4030 Y-0.2941
N4035 X10.7744 Y-0.2814
N4040 X10.7752 Y-0.2631 Z6.8513
N4045 X10.7769 Y-0.2336
N4050 X10.7778 Y-0.2277
N4055 X10.7785 Y-0.2238
N4060 X10.7796 Y-0.2194 Z6.8512
N4065 X10.781 Y-0.215
N4070 X10.7826 Y-0.2108
N4075 X10.7845 Y-0.2065 Z6.8511
N4080 X10.7867 Y-0.2023
N4085 X10.7889 Y-0.1985 Z6.851
N4090 X10.7917 Y-0.1945 Z6.8509
N4095 X10.7946 Y-0.1906
N4100 X10.7974 Y-0.1873 Z6.8508
N4105 X10.8008 Y-0.1838 Z6.8507
N4110 X10.8045 Y-0.1804 Z6.8506
N4115 X10.8079 Y-0.1776 Z6.8505
N4120 X10.8118 Y-0.1748 Z6.8504
N4125 X10.816 Y-0.1722 Z6.8503
N4130 X10.8199 Y-0.17 Z6.8502
N4135 X10.824 Y-0.168 Z6.8501
N4140 X10.8283 Y-0.1662 Z6.85
N4145 X10.8327 Y-0.1647 Z6.8499
N4150 X10.8368 Y-0.1635 Z6.8498
N4155 X10.8411 Y-0.1626 Z6.8497
N4160 X10.8446 Y-0.162 Z6.8496
N4165 X10.8475 Y-0.1617 Z6.8495
N4170 X10.8523 Y-0.1615 Z6.8494
N4175 X10.8548
N4180 X10.8611 Y-0.1619 Z6.8492
N4185 X10.8653 Y-0.1625 Z6.8491
N4190 X10.8707 Y-0.1637 Z6.849
N4195 X10.8743 Y-0.1646 Z6.8489
N4200 X10.8795 Y-0.1662 Z6.8487
N4205 X10.883 Y-0.1675
N4210 X10.8867 Y-0.1691 Z6.8486
N4215 X10.8905 Y-0.1709 Z6.8485
N4220 X10.8943 Y-0.1731 Z6.8484
N4225 X10.8978 Y-0.1754 Z6.8483
N4230 X10.9004 Y-0.1773
N4235 X10.9029 Y-0.1795 Z6.8482
N4240 X10.9056 Y-0.182
N4245 X10.9079 Y-0.1845 Z6.8481
N4250 X10.9106 Y-0.1878
N4255 X10.9134 Y-0.1917 Z6.848
N4260 X10.9159 Y-0.1955
N4265 X10.9181 Y-0.1995 Z6.8479
N4270 X10.9202 Y-0.2036
N4275 X10.9221 Y-0.2079 Z6.8478
N4280 X10.9238 Y-0.2124
N4285 X10.9253 Y-0.2171
N4290 X10.9266 Y-0.2217 Z6.8477
N4295 X10.9279 Y-0.2273
N4300 X10.9292 Y-0.2336
N4305 X10.9302 Y-0.24
N4310 X10.9309 Y-0.2467 Z6.8476
N4315 X10.9315 Y-0.2549
N4320 X10.9321 Y-0.2662
N4325 X10.9324 Y-0.2831
N4330 X10.9326 Y-0.3028
N4335 X10.9323 Y-0.3276
N4340 X10.9319 Y-0.3418
N4345 X10.9314 Y-0.3516
N4350 X10.931 Y-0.3565
N4355 G0 Z7.3559
N4360 Z6.9434
N4365 G1 Z6.8376 F1.
N4370 X10.9305 Y-0.3636 Z6.8377 F3.
N4375 X10.9298 Y-0.3706
N4380 X10.929 Y-0.3762
N4385 X10.9283 Y-0.3798
N4390 X10.9273 Y-0.3841
N4395 X10.926 Y-0.3884
N4400 X10.9245 Y-0.3925 Z6.8378
N4405 X10.9226 Y-0.3968
N4410 X10.9204 Y-0.4011 Z6.8379
N4415 X10.9182 Y-0.4048
N4420 X10.9156 Y-0.4088 Z6.838
N4425 X10.9125 Y-0.4128
N4430 X10.9096 Y-0.4162 Z6.8381
N4435 X10.9064 Y-0.4195 Z6.8382
N4440 X10.9028 Y-0.4228
N4445 X10.8991 Y-0.4258 Z6.8383
N4450 X10.8953 Y-0.4285 Z6.8384
N4455 X10.8913 Y-0.431 Z6.8385
N4460 X10.8872 Y-0.4333 Z6.8386
N4465 X10.883 Y-0.4353 Z6.8387
N4470 X10.8789 Y-0.4371 Z6.8388
N4475 X10.8743 Y-0.4386 Z6.8389
N4480 X10.8699 Y-0.4398 Z6.839
N4485 X10.866 Y-0.4407 Z6.8391
N4490 X10.8618 Y-0.4414 Z6.8392
N4495 X10.857 Y-0.4417 Z6.8393
N4500 X10.8532 Y-0.4418 Z6.8394
N4505 X10.8483 Y-0.4416 Z6.8395
N4510 X10.8443 Y-0.4412 Z6.8396
N4515 X10.84 Y-0.4404 Z6.8397
N4520 X10.8354 Y-0.4392 Z6.8398
N4525 X10.831 Y-0.4379 Z6.84
N4530 X10.8269 Y-0.4363 Z6.8401
N4535 X10.8228 Y-0.4345 Z6.8402
N4540 X10.8189 Y-0.4326 Z6.8403
N4545 X10.815 Y-0.4304
N4550 X10.811 Y-0.4278 Z6.8404
N4555 X10.8072 Y-0.4249 Z6.8405
N4560 X10.8035 Y-0.4219 Z6.8406
N4565 X10.8003 Y-0.419 Z6.8407
N4570 X10.797 Y-0.4155 Z6.8408
N4575 X10.7938 Y-0.4117 Z6.8409
N4580 X10.7909 Y-0.4078
N4585 X10.7884 Y-0.4039 Z6.841
N4590 X10.786 Y-0.3999 Z6.8411
N4595 X10.7838 Y-0.3956
N4600 X10.7819 Y-0.3912 Z6.8412
N4605 X10.7804 Y-0.387
N4610 X10.7791 Y-0.3826
N4615 X10.7781 Y-0.378 Z6.8413
N4620 X10.7772 Y-0.3717
N4625 X10.7769 Y-0.3696
N4630 X10.7752 Y-0.3396
N4635 X10.7744 Y-0.3221 Z6.8414
N4640 X10.7742 Y-0.3087
N4645 Y-0.2941
N4650 X10.7744 Y-0.2814
N4655 X10.7752 Y-0.2631 Z6.8413
N4660 X10.7769 Y-0.2336
N4665 X10.7778 Y-0.2277
N4670 X10.7785 Y-0.2238
N4675 X10.7796 Y-0.2194 Z6.8412
N4680 X10.781 Y-0.215
N4685 X10.7826 Y-0.2108
N4690 X10.7845 Y-0.2065 Z6.8411
N4695 X10.7867 Y-0.2023
N4700 X10.7889 Y-0.1985 Z6.841
N4705 X10.7917 Y-0.1945 Z6.8409
N4710 X10.7946 Y-0.1906
N4715 X10.7974 Y-0.1873 Z6.8408
N4720 X10.8008 Y-0.1838 Z6.8407
N4725 X10.8045 Y-0.1804 Z6.8406
N4730 X10.8079 Y-0.1776 Z6.8405
N4735 X10.8118 Y-0.1748 Z6.8404
N4740 X10.816 Y-0.1722 Z6.8403
N4745 X10.8199 Y-0.17 Z6.8402
N4750 X10.824 Y-0.168 Z6.8401
N4755 X10.8283 Y-0.1662 Z6.84
N4760 X10.8327 Y-0.1647 Z6.8399
N4765 X10.8368 Y-0.1635 Z6.8398
N4770 X10.8411 Y-0.1626 Z6.8397
N4775 X10.8446 Y-0.162 Z6.8396
N4780 X10.8475 Y-0.1617 Z6.8395
N4785 X10.8523 Y-0.1615 Z6.8394
N4790 X10.8548
N4795 X10.8611 Y-0.1619 Z6.8392
N4800 X10.8653 Y-0.1625 Z6.8391
N4805 X10.8707 Y-0.1637 Z6.839
N4810 X10.8743 Y-0.1646 Z6.8389
N4815 X10.8795 Y-0.1662 Z6.8387
N4820 X10.883 Y-0.1675
N4825 X10.8867 Y-0.1691 Z6.8386
N4830 X10.8905 Y-0.1709 Z6.8385
N4835 X10.8943 Y-0.1731 Z6.8384
N4840 X10.8978 Y-0.1754 Z6.8383
N4845 X10.9004 Y-0.1773
N4850 X10.9029 Y-0.1795 Z6.8382
N4855 X10.9056 Y-0.182
N4860 X10.9079 Y-0.1845 Z6.8381
N4865 X10.9106 Y-0.1878
N4870 X10.9134 Y-0.1917 Z6.838
N4875 X10.9159 Y-0.1955
N4880 X10.9181 Y-0.1995 Z6.8379
N4885 X10.9202 Y-0.2036
N4890 X10.9221 Y-0.2079 Z6.8378
N4895 X10.9238 Y-0.2124
N4900 X10.9253 Y-0.2171
N4905 X10.9266 Y-0.2217 Z6.8377
N4910 X10.9279 Y-0.2273
N4915 X10.9292 Y-0.2336
N4920 X10.9302 Y-0.24
N4925 X10.9309 Y-0.2467 Z6.8376
N4930 X10.9315 Y-0.2549
N4935 X10.9321 Y-0.2662
N4940 X10.9324 Y-0.2831
N4945 X10.9326 Y-0.3028
N4950 X10.9323 Y-0.3276
N4955 X10.9319 Y-0.3418
N4960 X10.9314 Y-0.3516
N4965 X10.931 Y-0.3565
N4970 G0 Z7.3559
N4975 X10.6119 Y-0.3418
N4980 Z6.9523
N4985 G1 Z6.8762 F1.
N4990 X10.6114 Y-0.3516 F3.
N4995 X10.6104 Y-0.3635
N5000 X10.6097 Y-0.3706 Z6.8763
N5005 X10.6089 Y-0.3762
N5010 X10.6083 Y-0.3798
N5015 X10.6072 Y-0.3841
N5020 X10.6059 Y-0.3884 Z6.8764
N5025 X10.6044 Y-0.3925
N5030 X10.6025 Y-0.3968 Z6.8765
N5035 X10.6004 Y-0.4011 Z6.8766
N5040 X10.5982 Y-0.4048
N5045 X10.5955 Y-0.4088 Z6.8767
N5050 X10.5925 Y-0.4128 Z6.8768
N5055 X10.5896 Y-0.4162 Z6.8769
N5060 X10.5864 Y-0.4195 Z6.877
N5065 X10.5827 Y-0.4228 Z6.8771
N5070 X10.5791 Y-0.4258 Z6.8773
N5075 X10.5753 Y-0.4285 Z6.8774
N5080 X10.5713 Y-0.431 Z6.8775
N5085 X10.5672 Y-0.4333 Z6.8776
N5090 X10.563 Y-0.4353 Z6.8778
N5095 X10.5589 Y-0.437 Z6.8779
N5100 X10.5542 Y-0.4386 Z6.8781
N5105 X10.5499 Y-0.4398 Z6.8782
N5110 X10.546 Y-0.4407 Z6.8784
N5115 X10.5418 Y-0.4414 Z6.8785
N5120 X10.537 Y-0.4417 Z6.8787
N5125 X10.5331 Y-0.4418 Z6.8788
N5130 X10.5283 Y-0.4416 Z6.879
N5135 X10.5243 Y-0.4412 Z6.8791
N5140 X10.5199 Y-0.4404 Z6.8793
N5145 X10.5153 Y-0.4392 Z6.8795
N5150 X10.511 Y-0.4379 Z6.8796
N5155 X10.5069 Y-0.4364 Z6.8798
N5160 X10.5028 Y-0.4345 Z6.8799
N5165 X10.4988 Y-0.4326 Z6.8801
N5170 X10.495 Y-0.4304 Z6.8802
N5175 X10.491 Y-0.4278 Z6.8803
N5180 X10.4871 Y-0.4249 Z6.8805
N5185 X10.4835 Y-0.422 Z6.8806
N5190 X10.4803 Y-0.419 Z6.8807
N5195 X10.477 Y-0.4155 Z6.8808
N5200 X10.4738 Y-0.4117 Z6.881
N5205 X10.4709 Y-0.4078 Z6.8811
N5210 X10.4683 Y-0.4039
N5215 X10.466 Y-0.3999 Z6.8812
N5220 X10.4638 Y-0.3956 Z6.8813
N5225 X10.4619 Y-0.3912 Z6.8814
N5230 X10.4604 Y-0.387
N5235 X10.4591 Y-0.3826 Z6.8815
N5240 X10.4581 Y-0.378
N5245 X10.4571 Y-0.3718
N5250 X10.4568 Y-0.3696 Z6.8816
N5255 X10.4552 Y-0.3402
N5260 X10.4544 Y-0.3229
N5265 X10.4541 Y-0.3104 Z6.8817
N5270 Y-0.2956
N5275 X10.4544 Y-0.282 Z6.8816
N5280 X10.4552 Y-0.2633
N5285 X10.4569 Y-0.2336
N5290 X10.4577 Y-0.2277 Z6.8815
N5295 X10.4585 Y-0.2238
N5300 X10.4596 Y-0.2194
N5305 X10.4609 Y-0.215 Z6.8814
N5310 X10.4625 Y-0.2108
N5315 X10.4645 Y-0.2065 Z6.8813
N5320 X10.4666 Y-0.2024 Z6.8812
N5325 X10.4689 Y-0.1985 Z6.8811
N5330 X10.4716 Y-0.1945 Z6.881
N5335 X10.4746 Y-0.1906 Z6.8809
N5340 X10.4774 Y-0.1873 Z6.8808
N5345 X10.4807 Y-0.1838 Z6.8807
N5350 X10.4844 Y-0.1805 Z6.8806
N5355 X10.4879 Y-0.1776 Z6.8804
N5360 X10.4917 Y-0.1748 Z6.8803
N5365 X10.4959 Y-0.1722 Z6.8802
N5370 X10.4998 Y-0.17 Z6.88
N5375 X10.5039 Y-0.168 Z6.8799
N5380 X10.5082 Y-0.1662 Z6.8797
N5385 X10.5127 Y-0.1647 Z6.8796
N5390 X10.5168 Y-0.1635 Z6.8794
N5395 X10.521 Y-0.1626 Z6.8793
N5400 X10.5245 Y-0.162 Z6.8791
N5405 X10.5274 Y-0.1617 Z6.879
N5410 X10.5321 Y-0.1615 Z6.8789
N5415 X10.5346 Z6.8788
N5420 X10.541 Y-0.1619 Z6.8785
N5425 X10.5452 Y-0.1625 Z6.8784
N5430 X10.5506 Y-0.1636 Z6.8782
N5435 X10.5542 Y-0.1646 Z6.8781
N5440 X10.5595 Y-0.1662 Z6.8779
N5445 X10.5629 Y-0.1675 Z6.8778
N5450 X10.5666 Y-0.169 Z6.8777
N5455 X10.5704 Y-0.1709 Z6.8775
N5460 X10.5742 Y-0.1731 Z6.8774
N5465 X10.5777 Y-0.1754 Z6.8773
N5470 X10.5803 Y-0.1773 Z6.8772
N5475 X10.5829 Y-0.1794 Z6.8771
N5480 X10.5856 Y-0.182 Z6.877
N5485 X10.5879 Y-0.1845
N5490 X10.5906 Y-0.1878 Z6.8769
N5495 X10.5934 Y-0.1917 Z6.8768
N5500 X10.5959 Y-0.1955 Z6.8767
N5505 X10.5981 Y-0.1995 Z6.8766
N5510 X10.6002 Y-0.2036
N5515 X10.6021 Y-0.2079 Z6.8765
N5520 X10.6037 Y-0.2124
N5525 X10.6053 Y-0.2171 Z6.8764
N5530 X10.6065 Y-0.2217
N5535 X10.6079 Y-0.2273 Z6.8763
N5540 X10.6091 Y-0.2336
N5545 X10.6101 Y-0.24
N5550 X10.6109 Y-0.2467 Z6.8762
N5555 X10.6115 Y-0.2549
N5560 X10.612 Y-0.2662
N5565 X10.6124 Y-0.2831
N5570 X10.6126 Y-0.3028
N5575 X10.6123 Y-0.3276
N5580 X10.6119 Y-0.3418
N5585 G0 Z7.3559
N5590 Z6.9523
N5595 G1 Z6.8662 F1.
N5600 X10.6114 Y-0.3516 F3.
N5605 X10.6104 Y-0.3635
N5610 X10.6097 Y-0.3706 Z6.8663
N5615 X10.6089 Y-0.3762
N5620 X10.6083 Y-0.3798
N5625 X10.6072 Y-0.3841
N5630 X10.6059 Y-0.3884 Z6.8664
N5635 X10.6044 Y-0.3925
N5640 X10.6025 Y-0.3968 Z6.8665
N5645 X10.6004 Y-0.4011 Z6.8666
N5650 X10.5982 Y-0.4048
N5655 X10.5955 Y-0.4088 Z6.8667
N5660 X10.5925 Y-0.4128 Z6.8668
N5665 X10.5896 Y-0.4162 Z6.8669
N5670 X10.5864 Y-0.4195 Z6.867
N5675 X10.5827 Y-0.4228 Z6.8671
N5680 X10.5791 Y-0.4258 Z6.8673
N5685 X10.5753 Y-0.4285 Z6.8674
N5690 X10.5713 Y-0.431 Z6.8675
N5695 X10.5672 Y-0.4333 Z6.8676
N5700 X10.563 Y-0.4353 Z6.8678
N5705 X10.5589 Y-0.437 Z6.8679
N5710 X10.5542 Y-0.4386 Z6.8681
N5715 X10.5499 Y-0.4398 Z6.8682
N5720 X10.546 Y-0.4407 Z6.8684
N5725 X10.5418 Y-0.4414 Z6.8685
N5730 X10.537 Y-0.4417 Z6.8687
N5735 X10.5331 Y-0.4418 Z6.8688
N5740 X10.5283 Y-0.4416 Z6.869
N5745 X10.5243 Y-0.4412 Z6.8691
N5750 X10.5199 Y-0.4404 Z6.8693
N5755 X10.5153 Y-0.4392 Z6.8695
N5760 X10.511 Y-0.4379 Z6.8696
N5765 X10.5069 Y-0.4364 Z6.8698
N5770 X10.5028 Y-0.4345 Z6.8699
N5775 X10.4988 Y-0.4326 Z6.8701
N5780 X10.495 Y-0.4304 Z6.8702
N5785 X10.491 Y-0.4278 Z6.8703
N5790 X10.4871 Y-0.4249 Z6.8705
N5795 X10.4835 Y-0.422 Z6.8706
N5800 X10.4803 Y-0.419 Z6.8707
N5805 X10.477 Y-0.4155 Z6.8708
N5810 X10.4738 Y-0.4117 Z6.871
N5815 X10.4709 Y-0.4078 Z6.8711
N5820 X10.4683 Y-0.4039
N5825 X10.466 Y-0.3999 Z6.8712
N5830 X10.4638 Y-0.3956 Z6.8713
N5835 X10.4619 Y-0.3912 Z6.8714
N5840 X10.4604 Y-0.387
N5845 X10.4591 Y-0.3826 Z6.8715
N5850 X10.4581 Y-0.378
N5855 X10.4571 Y-0.3718
N5860 X10.4568 Y-0.3696 Z6.8716
N5865 X10.4552 Y-0.3402
N5870 X10.4544 Y-0.3229
N5875 X10.4541 Y-0.3104 Z6.8717
N5880 Y-0.2956
N5885 X10.4544 Y-0.282 Z6.8716
N5890 X10.4552 Y-0.2633
N5895 X10.4569 Y-0.2336
N5900 X10.4577 Y-0.2277 Z6.8715
N5905 X10.4585 Y-0.2238
N5910 X10.4596 Y-0.2194
N5915 X10.4609 Y-0.215 Z6.8714
N5920 X10.4625 Y-0.2108
N5925 X10.4645 Y-0.2065 Z6.8713
N5930 X10.4666 Y-0.2024 Z6.8712
N5935 X10.4689 Y-0.1985 Z6.8711
N5940 X10.4716 Y-0.1945 Z6.871
N5945 X10.4746 Y-0.1906 Z6.8709
N5950 X10.4774 Y-0.1873 Z6.8708
N5955 X10.4807 Y-0.1838 Z6.8707
N5960 X10.4844 Y-0.1805 Z6.8706
N5965 X10.4879 Y-0.1776 Z6.8704
N5970 X10.4917 Y-0.1748 Z6.8703
N5975 X10.4959 Y-0.1722 Z6.8702
N5980 X10.4998 Y-0.17 Z6.87
N5985 X10.5039 Y-0.168 Z6.8699
N5990 X10.5082 Y-0.1662 Z6.8697
N5995 X10.5127 Y-0.1647 Z6.8696
N6000 X10.5168 Y-0.1635 Z6.8694
N6005 X10.521 Y-0.1626 Z6.8693
N6010 X10.5245 Y-0.162 Z6.8691
N6015 X10.5274 Y-0.1617 Z6.869
N6020 X10.5321 Y-0.1615 Z6.8689
N6025 X10.5346 Z6.8688
N6030 X10.541 Y-0.1619 Z6.8685
N6035 X10.5452 Y-0.1625 Z6.8684
N6040 X10.5506 Y-0.1636 Z6.8682
N6045 X10.5542 Y-0.1646 Z6.8681
N6050 X10.5595 Y-0.1662 Z6.8679
N6055 X10.5629 Y-0.1675 Z6.8678
N6060 X10.5666 Y-0.169 Z6.8677
N6065 X10.5704 Y-0.1709 Z6.8675
N6070 X10.5742 Y-0.1731 Z6.8674
N6075 X10.5777 Y-0.1754 Z6.8673
N6080 X10.5803 Y-0.1773 Z6.8672
N6085 X10.5829 Y-0.1794 Z6.8671
N6090 X10.5856 Y-0.182 Z6.867
N6095 X10.5879 Y-0.1845
N6100 X10.5906 Y-0.1878 Z6.8669
N6105 X10.5934 Y-0.1917 Z6.8668
N6110 X10.5959 Y-0.1955 Z6.8667
N6115 X10.5981 Y-0.1995 Z6.8666
N6120 X10.6002 Y-0.2036
N6125 X10.6021 Y-0.2079 Z6.8665
N6130 X10.6037 Y-0.2124
N6135 X10.6053 Y-0.2171 Z6.8664
N6140 X10.6065 Y-0.2217
N6145 X10.6079 Y-0.2273 Z6.8663
N6150 X10.6091 Y-0.2336
N6155 X10.6101 Y-0.24
N6160 X10.6109 Y-0.2467 Z6.8662
N6165 X10.6115 Y-0.2549
N6170 X10.612 Y-0.2662
N6175 X10.6124 Y-0.2831
N6180 X10.6126 Y-0.3028
N6185 X10.6123 Y-0.3276
N6190 X10.6119 Y-0.3418
N6195 G0 Z7.3559
N6200 Y-0.3419
N6205 Z6.9523
N6210 G1 Z6.8562 F1.
N6215 X10.6114 Y-0.3516 F3.
N6220 X10.6104 Y-0.3635
N6225 X10.6097 Y-0.3706 Z6.8563
N6230 X10.6089 Y-0.3762
N6235 X10.6083 Y-0.3798
N6240 X10.6072 Y-0.3841
N6245 X10.6059 Y-0.3884 Z6.8564
N6250 X10.6044 Y-0.3925
N6255 X10.6025 Y-0.3968 Z6.8565
N6260 X10.6004 Y-0.4011 Z6.8566
N6265 X10.5982 Y-0.4048
N6270 X10.5955 Y-0.4088 Z6.8567
N6275 X10.5925 Y-0.4128 Z6.8568
N6280 X10.5896 Y-0.4162 Z6.8569
N6285 X10.5864 Y-0.4195 Z6.857
N6290 X10.5827 Y-0.4228 Z6.8571
N6295 X10.5791 Y-0.4258 Z6.8573
N6300 X10.5753 Y-0.4285 Z6.8574
N6305 X10.5713 Y-0.431 Z6.8575
N6310 X10.5672 Y-0.4333 Z6.8576
N6315 X10.563 Y-0.4353 Z6.8578
N6320 X10.5589 Y-0.437 Z6.8579
N6325 X10.5542 Y-0.4386 Z6.8581
N6330 X10.5499 Y-0.4398 Z6.8582
N6335 X10.546 Y-0.4407 Z6.8584
N6340 X10.5418 Y-0.4414 Z6.8585
N6345 X10.537 Y-0.4417 Z6.8587
N6350 X10.5331 Y-0.4418 Z6.8588
N6355 X10.5283 Y-0.4416 Z6.859
N6360 X10.5243 Y-0.4412 Z6.8591
N6365 X10.5199 Y-0.4404 Z6.8593
N6370 X10.5153 Y-0.4392 Z6.8595
N6375 X10.511 Y-0.4379 Z6.8596
N6380 X10.5069 Y-0.4364 Z6.8598
N6385 X10.5028 Y-0.4345 Z6.8599
N6390 X10.4988 Y-0.4326 Z6.8601
N6395 X10.495 Y-0.4304 Z6.8602
N6400 X10.491 Y-0.4278 Z6.8603
N6405 X10.4871 Y-0.4249 Z6.8605
N6410 X10.4835 Y-0.422 Z6.8606
N6415 X10.4803 Y-0.419 Z6.8607
N6420 X10.477 Y-0.4155 Z6.8608
N6425 X10.4738 Y-0.4117 Z6.861
N6430 X10.4709 Y-0.4078 Z6.8611
N6435 X10.4683 Y-0.4039
N6440 X10.466 Y-0.3999 Z6.8612
N6445 X10.4638 Y-0.3956 Z6.8613
N6450 X10.4619 Y-0.3912 Z6.8614
N6455 X10.4604 Y-0.387
N6460 X10.4591 Y-0.3826 Z6.8615
N6465 X10.4581 Y-0.378
N6470 X10.4571 Y-0.3718
N6475 X10.4568 Y-0.3696 Z6.8616
N6480 X10.4552 Y-0.3402
N6485 X10.4544 Y-0.3229
N6490 X10.4541 Y-0.3104 Z6.8617
N6495 Y-0.2956
N6500 X10.4544 Y-0.282 Z6.8616
N6505 X10.4552 Y-0.2633
N6510 X10.4569 Y-0.2336
N6515 X10.4577 Y-0.2277 Z6.8615
N6520 X10.4585 Y-0.2238
N6525 X10.4596 Y-0.2194
N6530 X10.4609 Y-0.215 Z6.8614
N6535 X10.4625 Y-0.2108
N6540 X10.4645 Y-0.2065 Z6.8613
N6545 X10.4666 Y-0.2024 Z6.8612
N6550 X10.4689 Y-0.1985 Z6.8611
N6555 X10.4716 Y-0.1945 Z6.861
N6560 X10.4746 Y-0.1906 Z6.8609
N6565 X10.4774 Y-0.1873 Z6.8608
N6570 X10.4807 Y-0.1838 Z6.8607
N6575 X10.4844 Y-0.1805 Z6.8606
N6580 X10.4879 Y-0.1776 Z6.8604
N6585 X10.4917 Y-0.1748 Z6.8603
N6590 X10.4959 Y-0.1722 Z6.8602
N6595 X10.4998 Y-0.17 Z6.86
N6600 X10.5039 Y-0.168 Z6.8599
N6605 X10.5082 Y-0.1662 Z6.8597
N6610 X10.5127 Y-0.1647 Z6.8596
N6615 X10.5168 Y-0.1635 Z6.8594
N6620 X10.521 Y-0.1626 Z6.8593
N6625 X10.5245 Y-0.162 Z6.8591
N6630 X10.5274 Y-0.1617 Z6.859
N6635 X10.5321 Y-0.1615 Z6.8589
N6640 X10.5346 Z6.8588
N6645 X10.541 Y-0.1619 Z6.8585
N6650 X10.5452 Y-0.1625 Z6.8584
N6655 X10.5506 Y-0.1636 Z6.8582
N6660 X10.5542 Y-0.1646 Z6.8581
N6665 X10.5595 Y-0.1662 Z6.8579
N6670 X10.5629 Y-0.1675 Z6.8578
N6675 X10.5666 Y-0.169 Z6.8577
N6680 X10.5704 Y-0.1709 Z6.8575
N6685 X10.5742 Y-0.1731 Z6.8574
N6690 X10.5777 Y-0.1754 Z6.8573
N6695 X10.5803 Y-0.1773 Z6.8572
N6700 X10.5829 Y-0.1794 Z6.8571
N6705 X10.5856 Y-0.182 Z6.857
N6710 X10.5879 Y-0.1845
N6715 X10.5906 Y-0.1878 Z6.8569
N6720 X10.5934 Y-0.1917 Z6.8568
N6725 X10.5959 Y-0.1955 Z6.8567
N6730 X10.5981 Y-0.1995 Z6.8566
N6735 X10.6002 Y-0.2036
N6740 X10.6021 Y-0.2079 Z6.8565
N6745 X10.6037 Y-0.2124
N6750 X10.6053 Y-0.2171 Z6.8564
N6755 X10.6065 Y-0.2217
N6760 X10.6079 Y-0.2273 Z6.8563
N6765 X10.6091 Y-0.2336
N6770 X10.6101 Y-0.24
N6775 X10.6109 Y-0.2467 Z6.8562
N6780 X10.6115 Y-0.2549
N6785 X10.612 Y-0.2662
N6790 X10.6124 Y-0.2831
N6795 X10.6126 Y-0.3028
N6800 X10.6123 Y-0.3276
N6805 X10.6119 Y-0.3418
N6810 Y-0.3419
N6815 G0 Z7.3559
N6820 Z6.9523
N6825 G1 Z6.8462 F1.
N6830 X10.6114 Y-0.3516 F3.
N6835 X10.6104 Y-0.3635
N6840 X10.6097 Y-0.3706 Z6.8463
N6845 X10.6089 Y-0.3762
N6850 X10.6083 Y-0.3798
N6855 X10.6072 Y-0.3841
N6860 X10.6059 Y-0.3884 Z6.8464
N6865 X10.6044 Y-0.3925
N6870 X10.6025 Y-0.3968 Z6.8465
N6875 X10.6004 Y-0.4011 Z6.8466
N6880 X10.5982 Y-0.4048
N6885 X10.5955 Y-0.4088 Z6.8467
N6890 X10.5925 Y-0.4128 Z6.8468
N6895 X10.5896 Y-0.4162 Z6.8469
N6900 X10.5864 Y-0.4195 Z6.847
N6905 X10.5827 Y-0.4228 Z6.8471
N6910 X10.5791 Y-0.4258 Z6.8473
N6915 X10.5753 Y-0.4285 Z6.8474
N6920 X10.5713 Y-0.431 Z6.8475
N6925 X10.5672 Y-0.4333 Z6.8476
N6930 X10.563 Y-0.4353 Z6.8478
N6935 X10.5589 Y-0.437 Z6.8479
N6940 X10.5542 Y-0.4386 Z6.8481
N6945 X10.5499 Y-0.4398 Z6.8482
N6950 X10.546 Y-0.4407 Z6.8484
N6955 X10.5418 Y-0.4414 Z6.8485
N6960 X10.537 Y-0.4417 Z6.8487
N6965 X10.5331 Y-0.4418 Z6.8488
N6970 X10.5283 Y-0.4416 Z6.849
N6975 X10.5243 Y-0.4412 Z6.8491
N6980 X10.5199 Y-0.4404 Z6.8493
N6985 X10.5153 Y-0.4392 Z6.8495
N6990 X10.511 Y-0.4379 Z6.8496
N6995 X10.5069 Y-0.4364 Z6.8498
N7000 X10.5028 Y-0.4345 Z6.8499
N7005 X10.4988 Y-0.4326 Z6.8501
N7010 X10.495 Y-0.4304 Z6.8502
N7015 X10.491 Y-0.4278 Z6.8503
N7020 X10.4871 Y-0.4249 Z6.8505
N7025 X10.4835 Y-0.422 Z6.8506
N7030 X10.4803 Y-0.419 Z6.8507
N7035 X10.477 Y-0.4155 Z6.8508
N7040 X10.4738 Y-0.4117 Z6.851
N7045 X10.4709 Y-0.4078 Z6.8511
N7050 X10.4683 Y-0.4039
N7055 X10.466 Y-0.3999 Z6.8512
N7060 X10.4638 Y-0.3956 Z6.8513
N7065 X10.4619 Y-0.3912 Z6.8514
N7070 X10.4604 Y-0.387
N7075 X10.4591 Y-0.3826 Z6.8515
N7080 X10.4581 Y-0.378
N7085 X10.4571 Y-0.3718
N7090 X10.4568 Y-0.3696 Z6.8516
N7095 X10.4552 Y-0.3402
N7100 X10.4544 Y-0.3229
N7105 X10.4541 Y-0.3104 Z6.8517
N7110 Y-0.2956
N7115 X10.4544 Y-0.282 Z6.8516
N7120 X10.4552 Y-0.2633
N7125 X10.4569 Y-0.2336
N7130 X10.4577 Y-0.2277 Z6.8515
N7135 X10.4585 Y-0.2238
N7140 X10.4596 Y-0.2194
N7145 X10.4609 Y-0.215 Z6.8514
N7150 X10.4625 Y-0.2108
N7155 X10.4645 Y-0.2065 Z6.8513
N7160 X10.4666 Y-0.2024 Z6.8512
N7165 X10.4689 Y-0.1985 Z6.8511
N7170 X10.4716 Y-0.1945 Z6.851
N7175 X10.4746 Y-0.1906 Z6.8509
N7180 X10.4774 Y-0.1873 Z6.8508
N7185 X10.4807 Y-0.1838 Z6.8507
N7190 X10.4844 Y-0.1805 Z6.8506
N7195 X10.4879 Y-0.1776 Z6.8504
N7200 X10.4917 Y-0.1748 Z6.8503
N7205 X10.4959 Y-0.1722 Z6.8502
N7210 X10.4998 Y-0.17 Z6.85
N7215 X10.5039 Y-0.168 Z6.8499
N7220 X10.5082 Y-0.1662 Z6.8497
N7225 X10.5127 Y-0.1647 Z6.8496
N7230 X10.5168 Y-0.1635 Z6.8494
N7235 X10.521 Y-0.1626 Z6.8493
N7240 X10.5245 Y-0.162 Z6.8491
N7245 X10.5274 Y-0.1617 Z6.849
N7250 X10.5321 Y-0.1615 Z6.8489
N7255 X10.5346 Z6.8488
N7260 X10.541 Y-0.1619 Z6.8485
N7265 X10.5452 Y-0.1625 Z6.8484
N7270 X10.5506 Y-0.1636 Z6.8482
N7275 X10.5542 Y-0.1646 Z6.8481
N7280 X10.5595 Y-0.1662 Z6.8479
N7285 X10.5629 Y-0.1675 Z6.8478
N7290 X10.5666 Y-0.169 Z6.8477
N7295 X10.5704 Y-0.1709 Z6.8475
N7300 X10.5742 Y-0.1731 Z6.8474
N7305 X10.5777 Y-0.1754 Z6.8473
N7310 X10.5803 Y-0.1773 Z6.8472
N7315 X10.5829 Y-0.1794 Z6.8471
N7320 X10.5856 Y-0.182 Z6.847
N7325 X10.5879 Y-0.1845
N7330 X10.5906 Y-0.1878 Z6.8469
N7335 X10.5934 Y-0.1917 Z6.8468
N7340 X10.5959 Y-0.1955 Z6.8467
N7345 X10.5981 Y-0.1995 Z6.8466
N7350 X10.6002 Y-0.2036
N7355 X10.6021 Y-0.2079 Z6.8465
N7360 X10.6037 Y-0.2124
N7365 X10.6053 Y-0.2171 Z6.8464
N7370 X10.6065 Y-0.2217
N7375 X10.6079 Y-0.2273 Z6.8463
N7380 X10.6091 Y-0.2336
N7385 X10.6101 Y-0.24
N7390 X10.6109 Y-0.2467 Z6.8462
N7395 X10.6115 Y-0.2549
N7400 X10.612 Y-0.2662
N7405 X10.6124 Y-0.2831
N7410 X10.6126 Y-0.3028
N7415 X10.6123 Y-0.3276
N7420 X10.6119 Y-0.3418
N7425 Y-0.3419
N7430 G0 Z7.3559
N7435 X10.2921 Y-0.3322
N7440 Z6.9648
N7445 G1 Z6.8882 F1.
N7450 X10.2918 Y-0.3418 F3.
N7455 X10.2913 Y-0.3516 Z6.8883
N7460 X10.2904 Y-0.3635
N7465 X10.2897 Y-0.3706
N7470 X10.2889 Y-0.3762 Z6.8884
N7475 X10.2882 Y-0.3798
N7480 X10.2872 Y-0.3841
N7485 X10.2859 Y-0.3884 Z6.8885
N7490 X10.2844 Y-0.3925 Z6.8886
N7495 X10.2825 Y-0.3968
N7500 X10.2803 Y-0.4011 Z6.8887
N7505 X10.2781 Y-0.4048 Z6.8888
N7510 X10.2755 Y-0.4088 Z6.889
N7515 X10.2725 Y-0.4128 Z6.8891
N7520 X10.2696 Y-0.4162 Z6.8892
N7525 X10.2664 Y-0.4195 Z6.8893
N7530 X10.2627 Y-0.4228 Z6.8895
N7535 X10.259 Y-0.4258 Z6.8897
N7540 X10.2553 Y-0.4285 Z6.8898
N7545 X10.2513 Y-0.431 Z6.89
N7550 X10.2471 Y-0.4333 Z6.8902
N7555 X10.243 Y-0.4353 Z6.8904
N7560 X10.2389 Y-0.437 Z6.8905
N7565 X10.2342 Y-0.4386 Z6.8907
N7570 X10.2299 Y-0.4398 Z6.8909
N7575 X10.226 Y-0.4407 Z6.8911
N7580 X10.2218 Y-0.4413 Z6.8913
N7585 X10.217 Y-0.4417 Z6.8915
N7590 X10.2131 Y-0.4418 Z6.8917
N7595 X10.2083 Y-0.4416 Z6.892
N7600 X10.2043 Y-0.4412 Z6.8921
N7605 X10.1999 Y-0.4404 Z6.8923
N7610 X10.1953 Y-0.4393 Z6.8926
N7615 X10.191 Y-0.4379 Z6.8928
N7620 X10.1869 Y-0.4364 Z6.893
N7625 X10.1828 Y-0.4346 Z6.8931
N7630 X10.1788 Y-0.4326 Z6.8933
N7635 X10.175 Y-0.4304 Z6.8935
N7640 X10.171 Y-0.4278 Z6.8937
N7645 X10.1671 Y-0.425 Z6.8939
N7650 X10.1635 Y-0.422 Z6.8941
N7655 X10.1602 Y-0.419 Z6.8942
N7660 X10.157 Y-0.4155 Z6.8944
N7665 X10.1538 Y-0.4117 Z6.8945
N7670 X10.1509 Y-0.4078 Z6.8946
N7675 X10.1483 Y-0.4039 Z6.8948
N7680 X10.1459 Y-0.3999 Z6.8949
N7685 X10.1438 Y-0.3956 Z6.895
N7690 X10.1419 Y-0.3912 Z6.8951
N7695 X10.1403 Y-0.387
N7700 X10.1391 Y-0.3826 Z6.8952
N7705 X10.1381 Y-0.378
N7710 X10.1371 Y-0.3718 Z6.8953
N7715 X10.1368 Y-0.3696
N7720 X10.1352 Y-0.3404 Z6.8954
N7725 X10.1344 Y-0.3233
N7730 X10.1341 Y-0.3109
N7735 Y-0.2961
N7740 X10.1343 Y-0.2822
N7745 X10.1351 Y-0.2634
N7750 X10.1368 Y-0.2336 Z6.8953
N7755 X10.1377 Y-0.2277
N7760 X10.1384 Y-0.2238 Z6.8952
N7765 X10.1395 Y-0.2194
N7770 X10.1409 Y-0.215 Z6.8951
N7775 X10.1425 Y-0.2108 Z6.895
N7780 X10.1444 Y-0.2065 Z6.8949
N7785 X10.1466 Y-0.2024 Z6.8948
N7790 X10.1488 Y-0.1986 Z6.8947
N7795 X10.1516 Y-0.1945 Z6.8946
N7800 X10.1545 Y-0.1906 Z6.8945
N7805 X10.1573 Y-0.1873 Z6.8943
N7810 X10.1607 Y-0.1838 Z6.8942
N7815 X10.1644 Y-0.1805 Z6.894
N7820 X10.1678 Y-0.1777 Z6.8939
N7825 X10.1716 Y-0.1749 Z6.8937
N7830 X10.1758 Y-0.1722 Z6.8935
N7835 X10.1798 Y-0.17 Z6.8933
N7840 X10.1839 Y-0.168 Z6.8931
N7845 X10.1881 Y-0.1662 Z6.8929
N7850 X10.1926 Y-0.1647 Z6.8927
N7855 X10.1967 Y-0.1635 Z6.8925
N7860 X10.2009 Y-0.1626 Z6.8923
N7865 X10.2043 Y-0.162 Z6.8921
N7870 X10.2072 Y-0.1617 Z6.892
N7875 X10.2119 Y-0.1615 Z6.8918
N7880 X10.2145 Z6.8917
N7885 X10.221 Y-0.1619 Z6.8914
N7890 X10.2252 Y-0.1625 Z6.8912
N7895 X10.2306 Y-0.1636 Z6.8909
N7900 X10.2341 Y-0.1645 Z6.8907
N7905 X10.2393 Y-0.1662 Z6.8905
N7910 X10.2427 Y-0.1674 Z6.8904
N7915 X10.2465 Y-0.169 Z6.8902
N7920 X10.2504 Y-0.1709 Z6.89
N7925 X10.2542 Y-0.1731 Z6.8899
N7930 X10.2577 Y-0.1754 Z6.8897
N7935 X10.2603 Y-0.1773 Z6.8896
N7940 X10.2628 Y-0.1794 Z6.8895
N7945 X10.2655 Y-0.182 Z6.8894
N7950 X10.2678 Y-0.1845 Z6.8893
N7955 X10.2706 Y-0.1878 Z6.8892
N7960 X10.2733 Y-0.1917 Z6.889
N7965 X10.2758 Y-0.1955 Z6.8889
N7970 X10.2781 Y-0.1995 Z6.8888
N7975 X10.2801 Y-0.2036
N7980 X10.282 Y-0.2079 Z6.8887
N7985 X10.2837 Y-0.2124 Z6.8886
N7990 X10.2852 Y-0.2171 Z6.8885
N7995 X10.2865 Y-0.2217
N8000 X10.2878 Y-0.2273 Z6.8884
N8005 X10.2891 Y-0.2336
N8010 X10.2901 Y-0.24 Z6.8883
N8015 X10.2909 Y-0.2467
N8020 X10.2915 Y-0.2549
N8025 X10.292 Y-0.2662 Z6.8882
N8030 X10.2924 Y-0.2831
N8035 X10.2925 Y-0.3028
N8040 X10.2923 Y-0.3276
N8045 X10.2921 Y-0.3322
N8050 G0 Z7.3559
N8055 Z6.9648
N8060 G1 Z6.8782 F1.
N8065 X10.2918 Y-0.3418 F3.
N8070 X10.2913 Y-0.3516 Z6.8783
N8075 X10.2904 Y-0.3635
N8080 X10.2897 Y-0.3706
N8085 X10.2889 Y-0.3762 Z6.8784
N8090 X10.2882 Y-0.3798
N8095 X10.2872 Y-0.3841
N8100 X10.2859 Y-0.3884 Z6.8785
N8105 X10.2844 Y-0.3925 Z6.8786
N8110 X10.2825 Y-0.3968
N8115 X10.2803 Y-0.4011 Z6.8787
N8120 X10.2781 Y-0.4048 Z6.8788
N8125 X10.2755 Y-0.4088 Z6.879
N8130 X10.2725 Y-0.4128 Z6.8791
N8135 X10.2696 Y-0.4162 Z6.8792
N8140 X10.2664 Y-0.4195 Z6.8793
N8145 X10.2627 Y-0.4228 Z6.8795
N8150 X10.259 Y-0.4258 Z6.8797
N8155 X10.2553 Y-0.4285 Z6.8798
N8160 X10.2513 Y-0.431 Z6.88
N8165 X10.2471 Y-0.4333 Z6.8802
N8170 X10.243 Y-0.4353 Z6.8804
N8175 X10.2389 Y-0.437 Z6.8805
N8180 X10.2342 Y-0.4386 Z6.8807
N8185 X10.2299 Y-0.4398 Z6.8809
N8190 X10.226 Y-0.4407 Z6.8811
N8195 X10.2218 Y-0.4413 Z6.8813
N8200 X10.217 Y-0.4417 Z6.8815
N8205 X10.2131 Y-0.4418 Z6.8817
N8210 X10.2083 Y-0.4416 Z6.882
N8215 X10.2043 Y-0.4412 Z6.8821
N8220 X10.1999 Y-0.4404 Z6.8823
N8225 X10.1953 Y-0.4393 Z6.8826
N8230 X10.191 Y-0.4379 Z6.8828
N8235 X10.1869 Y-0.4364 Z6.883
N8240 X10.1828 Y-0.4346 Z6.8831
N8245 X10.1788 Y-0.4326 Z6.8833
N8250 X10.175 Y-0.4304 Z6.8835
N8255 X10.171 Y-0.4278 Z6.8837
N8260 X10.1671 Y-0.425 Z6.8839
N8265 X10.1635 Y-0.422 Z6.8841
N8270 X10.1602 Y-0.419 Z6.8842
N8275 X10.157 Y-0.4155 Z6.8844
N8280 X10.1538 Y-0.4117 Z6.8845
N8285 X10.1509 Y-0.4078 Z6.8846
N8290 X10.1483 Y-0.4039 Z6.8848
N8295 X10.1459 Y-0.3999 Z6.8849
N8300 X10.1438 Y-0.3956 Z6.885
N8305 X10.1419 Y-0.3912 Z6.8851
N8310 X10.1403 Y-0.387
N8315 X10.1391 Y-0.3826 Z6.8852
N8320 X10.1381 Y-0.378
N8325 X10.1371 Y-0.3718 Z6.8853
N8330 X10.1368 Y-0.3696
N8335 X10.1352 Y-0.3404 Z6.8854
N8340 X10.1344 Y-0.3233
N8345 X10.1341 Y-0.3109
N8350 Y-0.2961
N8355 X10.1343 Y-0.2822
N8360 X10.1351 Y-0.2634
N8365 X10.1368 Y-0.2336 Z6.8853
N8370 X10.1377 Y-0.2277
N8375 X10.1384 Y-0.2238 Z6.8852
N8380 X10.1395 Y-0.2194
N8385 X10.1409 Y-0.215 Z6.8851
N8390 X10.1425 Y-0.2108 Z6.885
N8395 X10.1444 Y-0.2065 Z6.8849
N8400 X10.1466 Y-0.2024 Z6.8848
N8405 X10.1488 Y-0.1986 Z6.8847
N8410 X10.1516 Y-0.1945 Z6.8846
N8415 X10.1545 Y-0.1906 Z6.8845
N8420 X10.1573 Y-0.1873 Z6.8843
N8425 X10.1607 Y-0.1838 Z6.8842
N8430 X10.1644 Y-0.1805 Z6.884
N8435 X10.1678 Y-0.1777 Z6.8839
N8440 X10.1716 Y-0.1749 Z6.8837
N8445 X10.1758 Y-0.1722 Z6.8835
N8450 X10.1798 Y-0.17 Z6.8833
N8455 X10.1839 Y-0.168 Z6.8831
N8460 X10.1881 Y-0.1662 Z6.8829
N8465 X10.1926 Y-0.1647 Z6.8827
N8470 X10.1967 Y-0.1635 Z6.8825
N8475 X10.2009 Y-0.1626 Z6.8823
N8480 X10.2043 Y-0.162 Z6.8821
N8485 X10.2072 Y-0.1617 Z6.882
N8490 X10.2119 Y-0.1615 Z6.8818
N8495 X10.2145 Z6.8817
N8500 X10.221 Y-0.1619 Z6.8814
N8505 X10.2252 Y-0.1625 Z6.8812
N8510 X10.2306 Y-0.1636 Z6.8809
N8515 X10.2341 Y-0.1645 Z6.8807
N8520 X10.2393 Y-0.1662 Z6.8805
N8525 X10.2427 Y-0.1674 Z6.8804
N8530 X10.2465 Y-0.169 Z6.8802
N8535 X10.2504 Y-0.1709 Z6.88
N8540 X10.2542 Y-0.1731 Z6.8799
N8545 X10.2577 Y-0.1754 Z6.8797
N8550 X10.2603 Y-0.1773 Z6.8796
N8555 X10.2628 Y-0.1794 Z6.8795
N8560 X10.2655 Y-0.182 Z6.8794
N8565 X10.2678 Y-0.1845 Z6.8793
N8570 X10.2706 Y-0.1878 Z6.8792
N8575 X10.2733 Y-0.1917 Z6.879
N8580 X10.2758 Y-0.1955 Z6.8789
N8585 X10.2781 Y-0.1995 Z6.8788
N8590 X10.2801 Y-0.2036
N8595 X10.282 Y-0.2079 Z6.8787
N8600 X10.2837 Y-0.2124 Z6.8786
N8605 X10.2852 Y-0.2171 Z6.8785
N8610 X10.2865 Y-0.2217
N8615 X10.2878 Y-0.2273 Z6.8784
N8620 X10.2891 Y-0.2336
N8625 X10.2901 Y-0.24 Z6.8783
N8630 X10.2909 Y-0.2467
N8635 X10.2915 Y-0.2549
N8640 X10.292 Y-0.2662 Z6.8782
N8645 X10.2924 Y-0.2831
N8650 X10.2925 Y-0.3028
N8655 X10.2923 Y-0.3276
N8660 X10.2921 Y-0.3322
N8665 G0 Z7.3559
N8670 Z6.9648
N8675 G1 Z6.8682 F1.
N8680 X10.2918 Y-0.3418 F3.
N8685 X10.2913 Y-0.3516 Z6.8683
N8690 X10.2904 Y-0.3635
N8695 X10.2897 Y-0.3706
N8700 X10.2889 Y-0.3762 Z6.8684
N8705 X10.2882 Y-0.3798
N8710 X10.2872 Y-0.3841
N8715 X10.2859 Y-0.3884 Z6.8685
N8720 X10.2844 Y-0.3925 Z6.8686
N8725 X10.2825 Y-0.3968
N8730 X10.2803 Y-0.4011 Z6.8687
N8735 X10.2781 Y-0.4048 Z6.8688
N8740 X10.2755 Y-0.4088 Z6.869
N8745 X10.2725 Y-0.4128 Z6.8691
N8750 X10.2696 Y-0.4162 Z6.8692
N8755 X10.2664 Y-0.4195 Z6.8693
N8760 X10.2627 Y-0.4228 Z6.8695
N8765 X10.259 Y-0.4258 Z6.8697
N8770 X10.2553 Y-0.4285 Z6.8698
N8775 X10.2513 Y-0.431 Z6.87
N8780 X10.2471 Y-0.4333 Z6.8702
N8785 X10.243 Y-0.4353 Z6.8704
N8790 X10.2389 Y-0.437 Z6.8705
N8795 X10.2342 Y-0.4386 Z6.8707
N8800 X10.2299 Y-0.4398 Z6.8709
N8805 X10.226 Y-0.4407 Z6.8711
N8810 X10.2218 Y-0.4413 Z6.8713
N8815 X10.217 Y-0.4417 Z6.8715
N8820 X10.2131 Y-0.4418 Z6.8717
N8825 X10.2083 Y-0.4416 Z6.872
N8830 X10.2043 Y-0.4412 Z6.8721
N8835 X10.1999 Y-0.4404 Z6.8723
N8840 X10.1953 Y-0.4393 Z6.8726
N8845 X10.191 Y-0.4379 Z6.8728
N8850 X10.1869 Y-0.4364 Z6.873
N8855 X10.1828 Y-0.4346 Z6.8731
N8860 X10.1788 Y-0.4326 Z6.8733
N8865 X10.175 Y-0.4304 Z6.8735
N8870 X10.171 Y-0.4278 Z6.8737
N8875 X10.1671 Y-0.425 Z6.8739
N8880 X10.1635 Y-0.422 Z6.8741
N8885 X10.1602 Y-0.419 Z6.8742
N8890 X10.157 Y-0.4155 Z6.8744
N8895 X10.1538 Y-0.4117 Z6.8745
N8900 X10.1509 Y-0.4078 Z6.8746
N8905 X10.1483 Y-0.4039 Z6.8748
N8910 X10.1459 Y-0.3999 Z6.8749
N8915 X10.1438 Y-0.3956 Z6.875
N8920 X10.1419 Y-0.3912 Z6.8751
N8925 X10.1403 Y-0.387
N8930 X10.1391 Y-0.3826 Z6.8752
N8935 X10.1381 Y-0.378
N8940 X10.1371 Y-0.3718 Z6.8753
N8945 X10.1368 Y-0.3696
N8950 X10.1352 Y-0.3404 Z6.8754
N8955 X10.1344 Y-0.3233
N8960 X10.1341 Y-0.3109
N8965 Y-0.2961
N8970 X10.1343 Y-0.2822
N8975 X10.1351 Y-0.2634
N8980 X10.1368 Y-0.2336 Z6.8753
N8985 X10.1377 Y-0.2277
N8990 X10.1384 Y-0.2238 Z6.8752
N8995 X10.1395 Y-0.2194
N9000 X10.1409 Y-0.215 Z6.8751
N9005 X10.1425 Y-0.2108 Z6.875
N9010 X10.1444 Y-0.2065 Z6.8749
N9015 X10.1466 Y-0.2024 Z6.8748
N9020 X10.1488 Y-0.1986 Z6.8747
N9025 X10.1516 Y-0.1945 Z6.8746
N9030 X10.1545 Y-0.1906 Z6.8745
N9035 X10.1573 Y-0.1873 Z6.8743
N9040 X10.1607 Y-0.1838 Z6.8742
N9045 X10.1644 Y-0.1805 Z6.874
N9050 X10.1678 Y-0.1777 Z6.8739
N9055 X10.1716 Y-0.1749 Z6.8737
N9060 X10.1758 Y-0.1722 Z6.8735
N9065 X10.1798 Y-0.17 Z6.8733
N9070 X10.1839 Y-0.168 Z6.8731
N9075 X10.1881 Y-0.1662 Z6.8729
N9080 X10.1926 Y-0.1647 Z6.8727
N9085 X10.1967 Y-0.1635 Z6.8725
N9090 X10.2009 Y-0.1626 Z6.8723
N9095 X10.2043 Y-0.162 Z6.8721
N9100 X10.2072 Y-0.1617 Z6.872
N9105 X10.2119 Y-0.1615 Z6.8718
N9110 X10.2145 Z6.8717
N9115 X10.221 Y-0.1619 Z6.8714
N9120 X10.2252 Y-0.1625 Z6.8712
N9125 X10.2306 Y-0.1636 Z6.8709
N9130 X10.2341 Y-0.1645 Z6.8707
N9135 X10.2393 Y-0.1662 Z6.8705
N9140 X10.2427 Y-0.1674 Z6.8704
N9145 X10.2465 Y-0.169 Z6.8702
N9150 X10.2504 Y-0.1709 Z6.87
N9155 X10.2542 Y-0.1731 Z6.8699
N9160 X10.2577 Y-0.1754 Z6.8697
N9165 X10.2603 Y-0.1773 Z6.8696
N9170 X10.2628 Y-0.1794 Z6.8695
N9175 X10.2655 Y-0.182 Z6.8694
N9180 X10.2678 Y-0.1845 Z6.8693
N9185 X10.2706 Y-0.1878 Z6.8692
N9190 X10.2733 Y-0.1917 Z6.869
N9195 X10.2758 Y-0.1955 Z6.8689
N9200 X10.2781 Y-0.1995 Z6.8688
N9205 X10.2801 Y-0.2036
N9210 X10.282 Y-0.2079 Z6.8687
N9215 X10.2837 Y-0.2124 Z6.8686
N9220 X10.2852 Y-0.2171 Z6.8685
N9225 X10.2865 Y-0.2217
N9230 X10.2878 Y-0.2273 Z6.8684
N9235 X10.2891 Y-0.2336
N9240 X10.2901 Y-0.24 Z6.8683
N9245 X10.2909 Y-0.2467
N9250 X10.2915 Y-0.2549
N9255 X10.292 Y-0.2662 Z6.8682
N9260 X10.2924 Y-0.2831
N9265 X10.2925 Y-0.3028
N9270 X10.2923 Y-0.3276
N9275 X10.2921 Y-0.3322
N9280 G0 Z7.3559
N9285 Y-0.3323
N9290 Z6.9648
N9295 G1 Z6.8582 F1.
N9300 X10.2918 Y-0.3418 F3.
N9305 X10.2913 Y-0.3516 Z6.8583
N9310 X10.2904 Y-0.3635
N9315 X10.2897 Y-0.3706
N9320 X10.2889 Y-0.3762 Z6.8584
N9325 X10.2882 Y-0.3798
N9330 X10.2872 Y-0.3841
N9335 X10.2859 Y-0.3884 Z6.8585
N9340 X10.2844 Y-0.3925 Z6.8586
N9345 X10.2825 Y-0.3968
N9350 X10.2803 Y-0.4011 Z6.8587
N9355 X10.2781 Y-0.4048 Z6.8588
N9360 X10.2755 Y-0.4088 Z6.859
N9365 X10.2725 Y-0.4128 Z6.8591
N9370 X10.2696 Y-0.4162 Z6.8592
N9375 X10.2664 Y-0.4195 Z6.8593
N9380 X10.2627 Y-0.4228 Z6.8595
N9385 X10.259 Y-0.4258 Z6.8597
N9390 X10.2553 Y-0.4285 Z6.8598
N9395 X10.2513 Y-0.431 Z6.86
N9400 X10.2471 Y-0.4333 Z6.8602
N9405 X10.243 Y-0.4353 Z6.8604
N9410 X10.2389 Y-0.437 Z6.8605
N9415 X10.2342 Y-0.4386 Z6.8607
N9420 X10.2299 Y-0.4398 Z6.8609
N9425 X10.226 Y-0.4407 Z6.8611
N9430 X10.2218 Y-0.4413 Z6.8613
N9435 X10.217 Y-0.4417 Z6.8615
N9440 X10.2131 Y-0.4418 Z6.8617
N9445 X10.2083 Y-0.4416 Z6.862
N9450 X10.2043 Y-0.4412 Z6.8621
N9455 X10.1999 Y-0.4404 Z6.8623
N9460 X10.1953 Y-0.4393 Z6.8626
N9465 X10.191 Y-0.4379 Z6.8628
N9470 X10.1869 Y-0.4364 Z6.863
N9475 X10.1828 Y-0.4346 Z6.8631
N9480 X10.1788 Y-0.4326 Z6.8633
N9485 X10.175 Y-0.4304 Z6.8635
N9490 X10.171 Y-0.4278 Z6.8637
N9495 X10.1671 Y-0.425 Z6.8639
N9500 X10.1635 Y-0.422 Z6.8641
N9505 X10.1602 Y-0.419 Z6.8642
N9510 X10.157 Y-0.4155 Z6.8644
N9515 X10.1538 Y-0.4117 Z6.8645
N9520 X10.1509 Y-0.4078 Z6.8646
N9525 X10.1483 Y-0.4039 Z6.8648
N9530 X10.1459 Y-0.3999 Z6.8649
N9535 X10.1438 Y-0.3956 Z6.865
N9540 X10.1419 Y-0.3912 Z6.8651
N9545 X10.1403 Y-0.387
N9550 X10.1391 Y-0.3826 Z6.8652
N9555 X10.1381 Y-0.378
N9560 X10.1371 Y-0.3718 Z6.8653
N9565 X10.1368 Y-0.3696
N9570 X10.1352 Y-0.3404 Z6.8654
N9575 X10.1344 Y-0.3233
N9580 X10.1341 Y-0.3109
N9585 Y-0.2961
N9590 X10.1343 Y-0.2822
N9595 X10.1351 Y-0.2634
N9600 X10.1368 Y-0.2336 Z6.8653
N9605 X10.1377 Y-0.2277
N9610 X10.1384 Y-0.2238 Z6.8652
N9615 X10.1395 Y-0.2194
N9620 X10.1409 Y-0.215 Z6.8651
N9625 X10.1425 Y-0.2108 Z6.865
N9630 X10.1444 Y-0.2065 Z6.8649
N9635 X10.1466 Y-0.2024 Z6.8648
N9640 X10.1488 Y-0.1986 Z6.8647
N9645 X10.1516 Y-0.1945 Z6.8646
N9650 X10.1545 Y-0.1906 Z6.8645
N9655 X10.1573 Y-0.1873 Z6.8643
N9660 X10.1607 Y-0.1838 Z6.8642
N9665 X10.1644 Y-0.1805 Z6.864
N9670 X10.1678 Y-0.1777 Z6.8639
N9675 X10.1716 Y-0.1749 Z6.8637
N9680 X10.1758 Y-0.1722 Z6.8635
N9685 X10.1798 Y-0.17 Z6.8633
N9690 X10.1839 Y-0.168 Z6.8631
N9695 X10.1881 Y-0.1662 Z6.8629
N9700 X10.1926 Y-0.1647 Z6.8627
N9705 X10.1967 Y-0.1635 Z6.8625
N9710 X10.2009 Y-0.1626 Z6.8623
N9715 X10.2043 Y-0.162 Z6.8621
N9720 X10.2072 Y-0.1617 Z6.862
N9725 X10.2119 Y-0.1615 Z6.8618
N9730 X10.2145 Z6.8617
N9735 X10.221 Y-0.1619 Z6.8614
N9740 X10.2252 Y-0.1625 Z6.8612
N9745 X10.2306 Y-0.1636 Z6.8609
N9750 X10.2341 Y-0.1645 Z6.8607
N9755 X10.2393 Y-0.1662 Z6.8605
N9760 X10.2427 Y-0.1674 Z6.8604
N9765 X10.2465 Y-0.169 Z6.8602
N9770 X10.2504 Y-0.1709 Z6.86
N9775 X10.2542 Y-0.1731 Z6.8599
N9780 X10.2577 Y-0.1754 Z6.8597
N9785 X10.2603 Y-0.1773 Z6.8596
N9790 X10.2628 Y-0.1794 Z6.8595
N9795 X10.2655 Y-0.182 Z6.8594
N9800 X10.2678 Y-0.1845 Z6.8593
N9805 X10.2706 Y-0.1878 Z6.8592
N9810 X10.2733 Y-0.1917 Z6.859
N9815 X10.2758 Y-0.1955 Z6.8589
N9820 X10.2781 Y-0.1995 Z6.8588
N9825 X10.2801 Y-0.2036
N9830 X10.282 Y-0.2079 Z6.8587
N9835 X10.2837 Y-0.2124 Z6.8586
N9840 X10.2852 Y-0.2171 Z6.8585
N9845 X10.2865 Y-0.2217
N9850 X10.2878 Y-0.2273 Z6.8584
N9855 X10.2891 Y-0.2336
N9860 X10.2901 Y-0.24 Z6.8583
N9865 X10.2909 Y-0.2467
N9870 X10.2915 Y-0.2549
N9875 X10.292 Y-0.2662 Z6.8582
N9880 X10.2924 Y-0.2831
N9885 X10.2925 Y-0.3028
N9890 X10.2923 Y-0.3276
N9895 X10.2921 Y-0.3323
N9900 G0 Z7.6059

N9905 M5
N9910 M9
N9915 G53 G0 Z0.
N9920 G53 G0 X0. Y0.
N9925 G49
N9930 G69
N9935 G0 A0. C0.
N9940 M99
