O1111 (EMTSERIALSUB-1111)
(T50 D=0.125 CR=0. TAPER=30DEG - CHAMFER MILL)
N10 G90 G94 G17 G49
N15 G20
N20 G53 G0 Z0.

(SERIAL ENGRAVE TIT)
N25 T50 M6
N30 S18000 M3
N35 G90 G94 G17
N40 G54.1 P2
N45 G68.2 X0. Y0. Z0. I107.642 J90. K180.
N50 G53.1 P2
N55 M8
N60 G0 X11.1521 Y-0.165
N65 G43 Z7.6059 H50
N70 G0 Z6.9392
N75 G1 Z6.8637 F1.
N80 Y-0.4383 F3.
N85 X11.159 Z6.8636
N90 X11.1723 Y-0.4265 Z6.8635
N95 X11.2312 Y-0.3746 Z6.8627
N100 Z6.8527 F1.
N105 X11.1723 Y-0.4265 Z6.8535 F3.
N110 X11.159 Y-0.4383 Z6.8536
N115 X11.1521 Z6.8537
N120 Y-0.165
N125 Z6.8437 F1.
N130 Y-0.4383 F3.
N135 X11.159 Z6.8436
N140 X11.1723 Y-0.4265 Z6.8435
N145 X11.2312 Y-0.3746 Z6.8427
N150 Z6.8327 F1.
N155 X11.1723 Y-0.4265 Z6.8335 F3.
N160 X11.159 Y-0.4383 Z6.8336
N165 X11.1521 Z6.8337
N170 Y-0.165
N175 G0 Z7.3559
N180 X10.9112 Y-0.3746
N185 Z6.9438
N190 G1 Z6.8681 F1.
N195 X10.8567 Y-0.4226 Z6.8693 F3.
N200 X10.8389 Y-0.4383 Z6.8698
N205 X10.8321 Z6.8699
N210 Y-0.165
N215 Z6.8599 F1.
N220 Y-0.4383 F3.
N225 X10.8389 Z6.8598
N230 X10.8567 Y-0.4226 Z6.8593
N235 X10.9112 Y-0.3746 Z6.8581
N240 Z6.8481 F1.
N245 X10.8567 Y-0.4226 Z6.8493 F3.
N250 X10.8389 Y-0.4383 Z6.8498
N255 X10.8321 Z6.8499
N260 Y-0.165
N265 Z6.8399 F1.
N270 Y-0.4383 F3.
N275 X10.8389 Z6.8398
N280 X10.8567 Y-0.4226 Z6.8393
N285 X10.9112 Y-0.3746 Z6.8381
N290 G0 Z7.3559
N295 X10.5911 Y-0.3746
N300 Z6.953
N305 G1 Z6.8769 F1.
N310 X10.5357 Y-0.4235 Z6.8787 F3.
N315 X10.5189 Y-0.4383 Z6.8793
N320 X10.512 Z6.8796
N325 Y-0.165
N330 Z6.8696 F1.
N335 Y-0.4383 F3.
N340 X10.5189 Z6.8693
N345 X10.5357 Y-0.4235 Z6.8687
N350 X10.5911 Y-0.3746 Z6.8669
N355 Z6.8569 F1.
N360 X10.5357 Y-0.4235 Z6.8587 F3.
N365 X10.5189 Y-0.4383 Z6.8593
N370 X10.512 Z6.8596
N375 Y-0.165
N380 Z6.8496 F1.
N385 Y-0.4383 F3.
N390 X10.5189 Z6.8493
N395 X10.5357 Y-0.4235 Z6.8487
N400 X10.5911 Y-0.3746 Z6.8469
N405 G0 Z7.3559
N410 X10.2711 Y-0.3746
N415 Z6.9657
N420 G1 Z6.8891 F1.
N425 X10.2128 Y-0.426 Z6.8917 F3.
N430 X10.1988 Y-0.4383 Z6.8924
N435 X10.192 Z6.8927
N440 Y-0.165
N445 Z6.8827 F1.
N450 Y-0.4383 F3.
N455 X10.1988 Z6.8824
N460 X10.2128 Y-0.426 Z6.8817
N465 X10.2711 Y-0.3746 Z6.8791
N470 Z6.8691 F1.
N475 X10.2128 Y-0.426 Z6.8717 F3.
N480 X10.1988 Y-0.4383 Z6.8724
N485 X10.192 Z6.8727
N490 Y-0.165
N495 Z6.8627 F1.
N500 Y-0.4383 F3.
N505 X10.1988 Z6.8624
N510 X10.2128 Y-0.426 Z6.8617
N515 X10.2711 Y-0.3746 Z6.8591
N520 G0 Z7.6059

N525 M5
N530 M9
N535 G53 G0 Z0.
N540 G53 G0 X0. Y0.
N545 G49
N550 G69
N555 G0 A0. C0.
N560 M99
