O1111 (EMTSERIALSUB-5555)
(T50 D=0.125 CR=0. TAPER=30DEG - CHAMFER MILL)
N10 G90 G94 G17 G49
N15 G20
N20 G53 G0 Z0.

(SERIAL ENGRAVE TIT)
N25 T50 M6
N30 S18000 M3
N35 G90 G94 G17
N40 G54.1 P2
N45 G68.2 X0. Y0. Z0. I107.642 J90. K180.
N50 G53.1 P2
N55 M8
N60 G0 X11.1098 Y-0.4383
N65 G43 Z7.6059 H50
N70 G0 Z6.9399
N75 G1 Z6.8643 F1.
N80 X11.2256 Z6.8628 F3.
N85 X11.2264
N90 X11.2298 Y-0.3449 Z6.8627
N95 X11.2228 Y-0.3447 Z6.8628
N100 X11.2162 Y-0.344 Z6.8629
N105 X11.2093 Y-0.343 Z6.863
N110 X11.2024 Y-0.3417
N115 X11.1961 Y-0.3402 Z6.8631
N120 X11.1899 Y-0.3386 Z6.8632
N125 X11.1836 Y-0.3367 Z6.8633
N130 X11.1771 Y-0.3344 Z6.8634
N135 X11.1706 Y-0.3318 Z6.8635
N140 X11.1641 Y-0.3289 Z6.8636
N145 X11.1576 Y-0.3257 Z6.8637
N150 X11.1512 Y-0.3221 Z6.8638
N155 X11.1462 Y-0.3189
N160 X11.1416 Y-0.3157 Z6.8639
N165 X11.1371 Y-0.3121
N170 X11.1326 Y-0.3081 Z6.864
N175 X11.1291 Y-0.3047 Z6.8641
N180 X11.1261 Y-0.3014
N185 X11.1232 Y-0.2979
N190 X11.1204 Y-0.294 Z6.8642
N195 X11.1181 Y-0.2904
N200 X11.1161 Y-0.287
N205 X11.1143 Y-0.2833 Z6.8643
N210 X11.1128 Y-0.28
N215 X11.1116 Y-0.2766
N220 X11.1104 Y-0.2728
N225 X11.1095 Y-0.2688
N230 X11.1089 Y-0.2651
N235 X11.1085 Y-0.2613
N240 X11.1082 Y-0.2549
N245 X11.1084 Y-0.2496
N250 X11.1087 Y-0.246
N255 X11.1092 Y-0.2421
N260 X11.1101 Y-0.2382
N265 X11.1111 Y-0.2344
N270 X11.1124 Y-0.2307
N275 X11.1142 Y-0.2266
N280 X11.1164 Y-0.2222 Z6.8642
N285 X11.1188 Y-0.2181
N290 X11.1213 Y-0.2144
N295 X11.1244 Y-0.2103 Z6.8641
N300 X11.128 Y-0.2062
N305 X11.1316 Y-0.2024 Z6.864
N310 X11.1354 Y-0.1989
N315 X11.1398 Y-0.1952 Z6.8639
N320 X11.144 Y-0.1921
N325 X11.1483 Y-0.1892 Z6.8638
N330 X11.1527 Y-0.1865 Z6.8637
N335 X11.1582 Y-0.1834
N340 X11.1641 Y-0.1804 Z6.8636
N345 X11.1701 Y-0.1777 Z6.8635
N350 X11.1763 Y-0.1752 Z6.8634
N355 X11.1826 Y-0.173 Z6.8633
N360 X11.189 Y-0.171 Z6.8632
N365 X11.1955 Y-0.1694 Z6.8631
N370 X11.2014 Y-0.168
N375 X11.2073 Y-0.167 Z6.863
N380 X11.2134 Y-0.1661 Z6.8629
N385 X11.2191 Y-0.1655
N390 X11.2248 Y-0.1651 Z6.8628
N395 X11.2328 Y-0.165 Z6.8627
N400 X11.235
N405 Z6.8527 F1.
N410 X11.2328 F3.
N415 X11.2248 Y-0.1651 Z6.8528
N420 X11.2191 Y-0.1655 Z6.8529
N425 X11.2134 Y-0.1661
N430 X11.2073 Y-0.167 Z6.853
N435 X11.2014 Y-0.168 Z6.8531
N440 X11.1955 Y-0.1694
N445 X11.189 Y-0.171 Z6.8532
N450 X11.1826 Y-0.173 Z6.8533
N455 X11.1763 Y-0.1752 Z6.8534
N460 X11.1701 Y-0.1777 Z6.8535
N465 X11.1641 Y-0.1804 Z6.8536
N470 X11.1582 Y-0.1834 Z6.8537
N475 X11.1527 Y-0.1865
N480 X11.1483 Y-0.1892 Z6.8538
N485 X11.144 Y-0.1921 Z6.8539
N490 X11.1398 Y-0.1952
N495 X11.1354 Y-0.1989 Z6.854
N500 X11.1316 Y-0.2024
N505 X11.128 Y-0.2062 Z6.8541
N510 X11.1244 Y-0.2103
N515 X11.1213 Y-0.2144 Z6.8542
N520 X11.1188 Y-0.2181
N525 X11.1164 Y-0.2222
N530 X11.1142 Y-0.2266 Z6.8543
N535 X11.1124 Y-0.2307
N540 X11.1111 Y-0.2344
N545 X11.1101 Y-0.2382
N550 X11.1092 Y-0.2421
N555 X11.1087 Y-0.246
N560 X11.1084 Y-0.2496
N565 X11.1082 Y-0.2549
N570 X11.1085 Y-0.2613
N575 X11.1089 Y-0.2651
N580 X11.1095 Y-0.2688
N585 X11.1104 Y-0.2728
N590 X11.1116 Y-0.2766
N595 X11.1128 Y-0.28
N600 X11.1143 Y-0.2833
N605 X11.1161 Y-0.287 Z6.8542
N610 X11.1181 Y-0.2904
N615 X11.1204 Y-0.294
N620 X11.1232 Y-0.2979 Z6.8541
N625 X11.1261 Y-0.3014
N630 X11.1291 Y-0.3047
N635 X11.1326 Y-0.3081 Z6.854
N640 X11.1371 Y-0.3121 Z6.8539
N645 X11.1416 Y-0.3157
N650 X11.1462 Y-0.3189 Z6.8538
N655 X11.1512 Y-0.3221
N660 X11.1576 Y-0.3257 Z6.8537
N665 X11.1641 Y-0.3289 Z6.8536
N670 X11.1706 Y-0.3318 Z6.8535
N675 X11.1771 Y-0.3344 Z6.8534
N680 X11.1836 Y-0.3367 Z6.8533
N685 X11.1899 Y-0.3386 Z6.8532
N690 X11.1961 Y-0.3402 Z6.8531
N695 X11.2024 Y-0.3417 Z6.853
N700 X11.2093 Y-0.343
N705 X11.2162 Y-0.344 Z6.8529
N710 X11.2228 Y-0.3447 Z6.8528
N715 X11.2298 Y-0.3449 Z6.8527
N720 X11.2264 Y-0.4383 Z6.8528
N725 X11.2256
N730 X11.1098 Z6.8543
N735 Z6.8443 F1.
N740 X11.2256 Z6.8428 F3.
N745 X11.2264
N750 X11.2298 Y-0.3449 Z6.8427
N755 X11.2228 Y-0.3447 Z6.8428
N760 X11.2162 Y-0.344 Z6.8429
N765 X11.2093 Y-0.343 Z6.843
N770 X11.2024 Y-0.3417
N775 X11.1961 Y-0.3402 Z6.8431
N780 X11.1899 Y-0.3386 Z6.8432
N785 X11.1836 Y-0.3367 Z6.8433
N790 X11.1771 Y-0.3344 Z6.8434
N795 X11.1706 Y-0.3318 Z6.8435
N800 X11.1641 Y-0.3289 Z6.8436
N805 X11.1576 Y-0.3257 Z6.8437
N810 X11.1512 Y-0.3221 Z6.8438
N815 X11.1462 Y-0.3189
N820 X11.1416 Y-0.3157 Z6.8439
N825 X11.1371 Y-0.3121
N830 X11.1326 Y-0.3081 Z6.844
N835 X11.1291 Y-0.3047 Z6.8441
N840 X11.1261 Y-0.3014
N845 X11.1232 Y-0.2979
N850 X11.1204 Y-0.294 Z6.8442
N855 X11.1181 Y-0.2904
N860 X11.1161 Y-0.287
N865 X11.1143 Y-0.2833 Z6.8443
N870 X11.1128 Y-0.28
N875 X11.1116 Y-0.2766
N880 X11.1104 Y-0.2728
N885 X11.1095 Y-0.2688
N890 X11.1089 Y-0.2651
N895 X11.1085 Y-0.2613
N900 X11.1082 Y-0.2549
N905 X11.1084 Y-0.2496
N910 X11.1087 Y-0.246
N915 X11.1092 Y-0.2421
N920 X11.1101 Y-0.2382
N925 X11.1111 Y-0.2344
N930 X11.1124 Y-0.2307
N935 X11.1142 Y-0.2266
N940 X11.1164 Y-0.2222 Z6.8442
N945 X11.1188 Y-0.2181
N950 X11.1213 Y-0.2144
N955 X11.1244 Y-0.2103 Z6.8441
N960 X11.128 Y-0.2062
N965 X11.1316 Y-0.2024 Z6.844
N970 X11.1354 Y-0.1989
N975 X11.1398 Y-0.1952 Z6.8439
N980 X11.144 Y-0.1921
N985 X11.1483 Y-0.1892 Z6.8438
N990 X11.1527 Y-0.1865 Z6.8437
N995 X11.1582 Y-0.1834
N1000 X11.1641 Y-0.1804 Z6.8436
N1005 X11.1701 Y-0.1777 Z6.8435
N1010 X11.1763 Y-0.1752 Z6.8434
N1015 X11.1826 Y-0.173 Z6.8433
N1020 X11.189 Y-0.171 Z6.8432
N1025 X11.1955 Y-0.1694 Z6.8431
N1030 X11.2014 Y-0.168
N1035 X11.2073 Y-0.167 Z6.843
N1040 X11.2134 Y-0.1661 Z6.8429
N1045 X11.2191 Y-0.1655
N1050 X11.2248 Y-0.1651 Z6.8428
N1055 X11.2328 Y-0.165 Z6.8427
N1060 X11.235
N1065 Z6.8327 F1.
N1070 X11.2328 F3.
N1075 X11.2248 Y-0.1651 Z6.8328
N1080 X11.2191 Y-0.1655 Z6.8329
N1085 X11.2134 Y-0.1661
N1090 X11.2073 Y-0.167 Z6.833
N1095 X11.2014 Y-0.168 Z6.8331
N1100 X11.1955 Y-0.1694
N1105 X11.189 Y-0.171 Z6.8332
N1110 X11.1826 Y-0.173 Z6.8333
N1115 X11.1763 Y-0.1752 Z6.8334
N1120 X11.1701 Y-0.1777 Z6.8335
N1125 X11.1641 Y-0.1804 Z6.8336
N1130 X11.1582 Y-0.1834 Z6.8337
N1135 X11.1527 Y-0.1865
N1140 X11.1483 Y-0.1892 Z6.8338
N1145 X11.144 Y-0.1921 Z6.8339
N1150 X11.1398 Y-0.1952
N1155 X11.1354 Y-0.1989 Z6.834
N1160 X11.1316 Y-0.2024
N1165 X11.128 Y-0.2062 Z6.8341
N1170 X11.1244 Y-0.2103
N1175 X11.1213 Y-0.2144 Z6.8342
N1180 X11.1188 Y-0.2181
N1185 X11.1164 Y-0.2222
N1190 X11.1142 Y-0.2266 Z6.8343
N1195 X11.1124 Y-0.2307
N1200 X11.1111 Y-0.2344
N1205 X11.1101 Y-0.2382
N1210 X11.1092 Y-0.2421
N1215 X11.1087 Y-0.246
N1220 X11.1084 Y-0.2496
N1225 X11.1082 Y-0.2549
N1230 X11.1085 Y-0.2613
N1235 X11.1089 Y-0.2651
N1240 X11.1095 Y-0.2688
N1245 X11.1104 Y-0.2728
N1250 X11.1116 Y-0.2766
N1255 X11.1128 Y-0.28
N1260 X11.1143 Y-0.2833
N1265 X11.1161 Y-0.287 Z6.8342
N1270 X11.1181 Y-0.2904
N1275 X11.1204 Y-0.294
N1280 X11.1232 Y-0.2979 Z6.8341
N1285 X11.1261 Y-0.3014
N1290 X11.1291 Y-0.3047
N1295 X11.1326 Y-0.3081 Z6.834
N1300 X11.1371 Y-0.3121 Z6.8339
N1305 X11.1416 Y-0.3157
N1310 X11.1462 Y-0.3189 Z6.8338
N1315 X11.1512 Y-0.3221
N1320 X11.1576 Y-0.3257 Z6.8337
N1325 X11.1641 Y-0.3289 Z6.8336
N1330 X11.1706 Y-0.3318 Z6.8335
N1335 X11.1771 Y-0.3344 Z6.8334
N1340 X11.1836 Y-0.3367 Z6.8333
N1345 X11.1899 Y-0.3386 Z6.8332
N1350 X11.1961 Y-0.3402 Z6.8331
N1355 X11.2024 Y-0.3417 Z6.833
N1360 X11.2093 Y-0.343
N1365 X11.2162 Y-0.344 Z6.8329
N1370 X11.2228 Y-0.3447 Z6.8328
N1375 X11.2298 Y-0.3449 Z6.8327
N1380 X11.2264 Y-0.4383 Z6.8328
N1385 X11.2256
N1390 X11.1098 Z6.8343
N1395 G0 Z7.3559
N1400 X10.7898 Y-0.4383
N1405 Z6.9469
N1410 G1 Z6.871 F1.
N1415 X10.9004 Z6.8683 F3.
N1420 X10.9064 Z6.8682
N1425 X10.9098 Y-0.3449 Z6.8681
N1430 X10.9028 Y-0.3447 Z6.8682
N1435 X10.8961 Y-0.344 Z6.8684
N1440 X10.8892 Y-0.343 Z6.8685
N1445 X10.8825 Y-0.3417 Z6.8687
N1450 X10.8761 Y-0.3403 Z6.8688
N1455 X10.8699 Y-0.3386 Z6.869
N1460 X10.8636 Y-0.3367 Z6.8691
N1465 X10.8571 Y-0.3344 Z6.8693
N1470 X10.8505 Y-0.3318 Z6.8695
N1475 X10.844 Y-0.3289 Z6.8696
N1480 X10.8375 Y-0.3257 Z6.8698
N1485 X10.8312 Y-0.3221 Z6.8699
N1490 X10.8262 Y-0.3189 Z6.8701
N1495 X10.8215 Y-0.3157 Z6.8702
N1500 X10.817 Y-0.3121 Z6.8703
N1505 X10.8126 Y-0.3081 Z6.8704
N1510 X10.8091 Y-0.3047 Z6.8705
N1515 X10.8061 Y-0.3014 Z6.8706
N1520 X10.8032 Y-0.2979
N1525 X10.8004 Y-0.294 Z6.8707
N1530 X10.7981 Y-0.2905 Z6.8708
N1535 X10.7961 Y-0.287
N1540 X10.7943 Y-0.2834 Z6.8709
N1545 X10.7928 Y-0.28
N1550 X10.7915 Y-0.2766
N1555 X10.7904 Y-0.2728 Z6.871
N1560 X10.7895 Y-0.2689
N1565 X10.7889 Y-0.2652
N1570 X10.7884 Y-0.2613
N1575 X10.7881 Y-0.255
N1580 X10.7883 Y-0.2501
N1585 X10.7886 Y-0.2461
N1590 X10.7892 Y-0.2422
N1595 X10.79 Y-0.2383
N1600 X10.7911 Y-0.2344 Z6.8709
N1605 X10.7924 Y-0.2307
N1610 X10.7942 Y-0.2266
N1615 X10.7964 Y-0.2222 Z6.8708
N1620 X10.7988 Y-0.2182
N1625 X10.8012 Y-0.2144 Z6.8707
N1630 X10.8044 Y-0.2103 Z6.8706
N1635 X10.8079 Y-0.2062 Z6.8705
N1640 X10.8115 Y-0.2024 Z6.8704
N1645 X10.8154 Y-0.1989 Z6.8703
N1650 X10.8198 Y-0.1953 Z6.8702
N1655 X10.8239 Y-0.1921 Z6.8701
N1660 X10.8282 Y-0.1892 Z6.87
N1665 X10.8326 Y-0.1865 Z6.8699
N1670 X10.8381 Y-0.1834 Z6.8698
N1675 X10.8441 Y-0.1804 Z6.8696
N1680 X10.8501 Y-0.1777 Z6.8695
N1685 X10.8562 Y-0.1752 Z6.8693
N1690 X10.8625 Y-0.173 Z6.8692
N1695 X10.8689 Y-0.1711 Z6.869
N1700 X10.8754 Y-0.1694 Z6.8689
N1705 X10.8813 Y-0.168 Z6.8687
N1710 X10.8872 Y-0.167 Z6.8686
N1715 X10.8933 Y-0.1661 Z6.8684
N1720 X10.899 Y-0.1655 Z6.8683
N1725 X10.9047 Y-0.1651 Z6.8682
N1730 X10.9127 Y-0.165 Z6.868
N1735 X10.9149
N1740 Z6.858 F1.
N1745 X10.9127 F3.
N1750 X10.9047 Y-0.1651 Z6.8582
N1755 X10.899 Y-0.1655 Z6.8583
N1760 X10.8933 Y-0.1661 Z6.8584
N1765 X10.8872 Y-0.167 Z6.8586
N1770 X10.8813 Y-0.168 Z6.8587
N1775 X10.8754 Y-0.1694 Z6.8589
N1780 X10.8689 Y-0.1711 Z6.859
N1785 X10.8625 Y-0.173 Z6.8592
N1790 X10.8562 Y-0.1752 Z6.8593
N1795 X10.8501 Y-0.1777 Z6.8595
N1800 X10.8441 Y-0.1804 Z6.8596
N1805 X10.8381 Y-0.1834 Z6.8598
N1810 X10.8326 Y-0.1865 Z6.8599
N1815 X10.8282 Y-0.1892 Z6.86
N1820 X10.8239 Y-0.1921 Z6.8601
N1825 X10.8198 Y-0.1953 Z6.8602
N1830 X10.8154 Y-0.1989 Z6.8603
N1835 X10.8115 Y-0.2024 Z6.8604
N1840 X10.8079 Y-0.2062 Z6.8605
N1845 X10.8044 Y-0.2103 Z6.8606
N1850 X10.8012 Y-0.2144 Z6.8607
N1855 X10.7988 Y-0.2182 Z6.8608
N1860 X10.7964 Y-0.2222
N1865 X10.7942 Y-0.2266 Z6.8609
N1870 X10.7924 Y-0.2307
N1875 X10.7911 Y-0.2344
N1880 X10.79 Y-0.2383 Z6.861
N1885 X10.7892 Y-0.2422
N1890 X10.7886 Y-0.2461
N1895 X10.7883 Y-0.2501
N1900 X10.7881 Y-0.255
N1905 X10.7884 Y-0.2613
N1910 X10.7889 Y-0.2652
N1915 X10.7895 Y-0.2689
N1920 X10.7904 Y-0.2728
N1925 X10.7915 Y-0.2766 Z6.8609
N1930 X10.7928 Y-0.28
N1935 X10.7943 Y-0.2834
N1940 X10.7961 Y-0.287 Z6.8608
N1945 X10.7981 Y-0.2905
N1950 X10.8004 Y-0.294 Z6.8607
N1955 X10.8032 Y-0.2979 Z6.8606
N1960 X10.8061 Y-0.3014
N1965 X10.8091 Y-0.3047 Z6.8605
N1970 X10.8126 Y-0.3081 Z6.8604
N1975 X10.817 Y-0.3121 Z6.8603
N1980 X10.8215 Y-0.3157 Z6.8602
N1985 X10.8262 Y-0.3189 Z6.8601
N1990 X10.8312 Y-0.3221 Z6.8599
N1995 X10.8375 Y-0.3257 Z6.8598
N2000 X10.844 Y-0.3289 Z6.8596
N2005 X10.8505 Y-0.3318 Z6.8595
N2010 X10.8571 Y-0.3344 Z6.8593
N2015 X10.8636 Y-0.3367 Z6.8591
N2020 X10.8699 Y-0.3386 Z6.859
N2025 X10.8761 Y-0.3403 Z6.8588
N2030 X10.8825 Y-0.3417 Z6.8587
N2035 X10.8892 Y-0.343 Z6.8585
N2040 X10.8961 Y-0.344 Z6.8584
N2045 X10.9028 Y-0.3447 Z6.8582
N2050 X10.9098 Y-0.3449 Z6.8581
N2055 X10.9064 Y-0.4383 Z6.8582
N2060 X10.9004 Z6.8583
N2065 X10.7898 Z6.861
N2070 Z6.851 F1.
N2075 X10.9004 Z6.8483 F3.
N2080 X10.9064 Z6.8482
N2085 X10.9098 Y-0.3449 Z6.8481
N2090 X10.9028 Y-0.3447 Z6.8482
N2095 X10.8961 Y-0.344 Z6.8484
N2100 X10.8892 Y-0.343 Z6.8485
N2105 X10.8825 Y-0.3417 Z6.8487
N2110 X10.8761 Y-0.3403 Z6.8488
N2115 X10.8699 Y-0.3386 Z6.849
N2120 X10.8636 Y-0.3367 Z6.8491
N2125 X10.8571 Y-0.3344 Z6.8493
N2130 X10.8505 Y-0.3318 Z6.8495
N2135 X10.844 Y-0.3289 Z6.8496
N2140 X10.8375 Y-0.3257 Z6.8498
N2145 X10.8312 Y-0.3221 Z6.8499
N2150 X10.8262 Y-0.3189 Z6.8501
N2155 X10.8215 Y-0.3157 Z6.8502
N2160 X10.817 Y-0.3121 Z6.8503
N2165 X10.8126 Y-0.3081 Z6.8504
N2170 X10.8091 Y-0.3047 Z6.8505
N2175 X10.8061 Y-0.3014 Z6.8506
N2180 X10.8032 Y-0.2979
N2185 X10.8004 Y-0.294 Z6.8507
N2190 X10.7981 Y-0.2905 Z6.8508
N2195 X10.7961 Y-0.287
N2200 X10.7943 Y-0.2834 Z6.8509
N2205 X10.7928 Y-0.28
N2210 X10.7915 Y-0.2766
N2215 X10.7904 Y-0.2728 Z6.851
N2220 X10.7895 Y-0.2689
N2225 X10.7889 Y-0.2652
N2230 X10.7884 Y-0.2613
N2235 X10.7881 Y-0.255
N2240 X10.7883 Y-0.2501
N2245 X10.7886 Y-0.2461
N2250 X10.7892 Y-0.2422
N2255 X10.79 Y-0.2383
N2260 X10.7911 Y-0.2344 Z6.8509
N2265 X10.7924 Y-0.2307
N2270 X10.7942 Y-0.2266
N2275 X10.7964 Y-0.2222 Z6.8508
N2280 X10.7988 Y-0.2182
N2285 X10.8012 Y-0.2144 Z6.8507
N2290 X10.8044 Y-0.2103 Z6.8506
N2295 X10.8079 Y-0.2062 Z6.8505
N2300 X10.8115 Y-0.2024 Z6.8504
N2305 X10.8154 Y-0.1989 Z6.8503
N2310 X10.8198 Y-0.1953 Z6.8502
N2315 X10.8239 Y-0.1921 Z6.8501
N2320 X10.8282 Y-0.1892 Z6.85
N2325 X10.8326 Y-0.1865 Z6.8499
N2330 X10.8381 Y-0.1834 Z6.8498
N2335 X10.8441 Y-0.1804 Z6.8496
N2340 X10.8501 Y-0.1777 Z6.8495
N2345 X10.8562 Y-0.1752 Z6.8493
N2350 X10.8625 Y-0.173 Z6.8492
N2355 X10.8689 Y-0.1711 Z6.849
N2360 X10.8754 Y-0.1694 Z6.8489
N2365 X10.8813 Y-0.168 Z6.8487
N2370 X10.8872 Y-0.167 Z6.8486
N2375 X10.8933 Y-0.1661 Z6.8484
N2380 X10.899 Y-0.1655 Z6.8483
N2385 X10.9047 Y-0.1651 Z6.8482
N2390 X10.9127 Y-0.165 Z6.848
N2395 X10.9149
N2400 Z6.838 F1.
N2405 X10.9127 F3.
N2410 X10.9047 Y-0.1651 Z6.8382
N2415 X10.899 Y-0.1655 Z6.8383
N2420 X10.8933 Y-0.1661 Z6.8384
N2425 X10.8872 Y-0.167 Z6.8386
N2430 X10.8813 Y-0.168 Z6.8387
N2435 X10.8754 Y-0.1694 Z6.8389
N2440 X10.8689 Y-0.1711 Z6.839
N2445 X10.8625 Y-0.173 Z6.8392
N2450 X10.8562 Y-0.1752 Z6.8393
N2455 X10.8501 Y-0.1777 Z6.8395
N2460 X10.8441 Y-0.1804 Z6.8396
N2465 X10.8381 Y-0.1834 Z6.8398
N2470 X10.8326 Y-0.1865 Z6.8399
N2475 X10.8282 Y-0.1892 Z6.84
N2480 X10.8239 Y-0.1921 Z6.8401
N2485 X10.8198 Y-0.1953 Z6.8402
N2490 X10.8154 Y-0.1989 Z6.8403
N2495 X10.8115 Y-0.2024 Z6.8404
N2500 X10.8079 Y-0.2062 Z6.8405
N2505 X10.8044 Y-0.2103 Z6.8406
N2510 X10.8012 Y-0.2144 Z6.8407
N2515 X10.7988 Y-0.2182 Z6.8408
N2520 X10.7964 Y-0.2222
N2525 X10.7942 Y-0.2266 Z6.8409
N2530 X10.7924 Y-0.2307
N2535 X10.7911 Y-0.2344
N2540 X10.79 Y-0.2383 Z6.841
N2545 X10.7892 Y-0.2422
N2550 X10.7886 Y-0.2461
N2555 X10.7883 Y-0.2501
N2560 X10.7881 Y-0.255
N2565 X10.7884 Y-0.2613
N2570 X10.7889 Y-0.2652
N2575 X10.7895 Y-0.2689
N2580 X10.7904 Y-0.2728
N2585 X10.7915 Y-0.2766 Z6.8409
N2590 X10.7928 Y-0.28
N2595 X10.7943 Y-0.2834
N2600 X10.7961 Y-0.287 Z6.8408
N2605 X10.7981 Y-0.2905
N2610 X10.8004 Y-0.294 Z6.8407
N2615 X10.8032 Y-0.2979 Z6.8406
N2620 X10.8061 Y-0.3014
N2625 X10.8091 Y-0.3047 Z6.8405
N2630 X10.8126 Y-0.3081 Z6.8404
N2635 X10.817 Y-0.3121 Z6.8403
N2640 X10.8215 Y-0.3157 Z6.8402
N2645 X10.8262 Y-0.3189 Z6.8401
N2650 X10.8312 Y-0.3221 Z6.8399
N2655 X10.8375 Y-0.3257 Z6.8398
N2660 X10.844 Y-0.3289 Z6.8396
N2665 X10.8505 Y-0.3318 Z6.8395
N2670 X10.8571 Y-0.3344 Z6.8393
N2675 X10.8636 Y-0.3367 Z6.8391
N2680 X10.8699 Y-0.3386 Z6.839
N2685 X10.8761 Y-0.3403 Z6.8388
N2690 X10.8825 Y-0.3417 Z6.8387
N2695 X10.8892 Y-0.343 Z6.8385
N2700 X10.8961 Y-0.344 Z6.8384
N2705 X10.9028 Y-0.3447 Z6.8382
N2710 X10.9098 Y-0.3449 Z6.8381
N2715 X10.9064 Y-0.4383 Z6.8382
N2720 X10.9004 Z6.8383
N2725 X10.7898 Z6.841
N2730 G0 Z7.3559
N2735 X10.4698 Y-0.4383
N2740 Z6.9574
N2745 G1 Z6.8811 F1.
N2750 X10.5753 Z6.8774 F3.
N2755 X10.5863 Z6.877
N2760 X10.5897 Y-0.3449 Z6.8769
N2765 X10.5828 Y-0.3447 Z6.8771
N2770 X10.5761 Y-0.344 Z6.8773
N2775 X10.5692 Y-0.343 Z6.8776
N2780 X10.5625 Y-0.3417 Z6.8778
N2785 X10.5561 Y-0.3403 Z6.878
N2790 X10.5499 Y-0.3386 Z6.8782
N2795 X10.5437 Y-0.3367 Z6.8784
N2800 X10.5371 Y-0.3344 Z6.8787
N2805 X10.5306 Y-0.3319 Z6.8789
N2810 X10.524 Y-0.329 Z6.8792
N2815 X10.5175 Y-0.3257 Z6.8794
N2820 X10.5112 Y-0.3221 Z6.8796
N2825 X10.5062 Y-0.3189 Z6.8798
N2830 X10.5016 Y-0.3157 Z6.88
N2835 X10.497 Y-0.3121 Z6.8801
N2840 X10.4925 Y-0.3081 Z6.8803
N2845 X10.489 Y-0.3047 Z6.8804
N2850 X10.4861 Y-0.3014 Z6.8805
N2855 X10.4832 Y-0.2979 Z6.8806
N2860 X10.4804 Y-0.2941 Z6.8807
N2865 X10.4781 Y-0.2905 Z6.8808
N2870 X10.4761 Y-0.287 Z6.8809
N2875 X10.4743 Y-0.2834
N2880 X10.4728 Y-0.2801 Z6.881
N2885 X10.4715 Y-0.2766
N2890 X10.4704 Y-0.2728 Z6.8811
N2895 X10.4695 Y-0.2689
N2900 X10.4688 Y-0.2652
N2905 X10.4684 Y-0.2614
N2910 X10.4681 Y-0.2552 Z6.8812
N2915 X10.4682 Y-0.2505
N2920 X10.4686 Y-0.2462 Z6.8811
N2925 X10.4692 Y-0.2422
N2930 X10.47 Y-0.2383
N2935 X10.471 Y-0.2344
N2940 X10.4723 Y-0.2308 Z6.881
N2945 X10.4741 Y-0.2266 Z6.8809
N2950 X10.4763 Y-0.2222
N2955 X10.4787 Y-0.2182 Z6.8808
N2960 X10.4812 Y-0.2144 Z6.8807
N2965 X10.4844 Y-0.2103 Z6.8806
N2970 X10.4879 Y-0.2062 Z6.8804
N2975 X10.4915 Y-0.2024 Z6.8803
N2980 X10.4953 Y-0.1989 Z6.8802
N2985 X10.4997 Y-0.1953 Z6.88
N2990 X10.5038 Y-0.1922 Z6.8799
N2995 X10.5081 Y-0.1892 Z6.8797
N3000 X10.5126 Y-0.1865 Z6.8796
N3005 X10.518 Y-0.1834 Z6.8794
N3010 X10.524 Y-0.1804 Z6.8792
N3015 X10.53 Y-0.1777 Z6.8789
N3020 X10.5361 Y-0.1752 Z6.8787
N3025 X10.5424 Y-0.173 Z6.8785
N3030 X10.5489 Y-0.1711 Z6.8783
N3035 X10.5553 Y-0.1694 Z6.878
N3040 X10.5613 Y-0.168 Z6.8778
N3045 X10.5672 Y-0.167 Z6.8776
N3050 X10.5732 Y-0.1661 Z6.8774
N3055 X10.5789 Y-0.1655 Z6.8773
N3060 X10.5846 Y-0.1651 Z6.8771
N3065 X10.5925 Y-0.165 Z6.8768
N3070 X10.5949 Z6.8767
N3075 Z6.8667 F1.
N3080 X10.5925 Z6.8668 F3.
N3085 X10.5846 Y-0.1651 Z6.8671
N3090 X10.5789 Y-0.1655 Z6.8673
N3095 X10.5732 Y-0.1661 Z6.8674
N3100 X10.5672 Y-0.167 Z6.8676
N3105 X10.5613 Y-0.168 Z6.8678
N3110 X10.5553 Y-0.1694 Z6.868
N3115 X10.5489 Y-0.1711 Z6.8683
N3120 X10.5424 Y-0.173 Z6.8685
N3125 X10.5361 Y-0.1752 Z6.8687
N3130 X10.53 Y-0.1777 Z6.8689
N3135 X10.524 Y-0.1804 Z6.8692
N3140 X10.518 Y-0.1834 Z6.8694
N3145 X10.5126 Y-0.1865 Z6.8696
N3150 X10.5081 Y-0.1892 Z6.8697
N3155 X10.5038 Y-0.1922 Z6.8699
N3160 X10.4997 Y-0.1953 Z6.87
N3165 X10.4953 Y-0.1989 Z6.8702
N3170 X10.4915 Y-0.2024 Z6.8703
N3175 X10.4879 Y-0.2062 Z6.8704
N3180 X10.4844 Y-0.2103 Z6.8706
N3185 X10.4812 Y-0.2144 Z6.8707
N3190 X10.4787 Y-0.2182 Z6.8708
N3195 X10.4763 Y-0.2222 Z6.8709
N3200 X10.4741 Y-0.2266
N3205 X10.4723 Y-0.2308 Z6.871
N3210 X10.471 Y-0.2344 Z6.8711
N3215 X10.47 Y-0.2383
N3220 X10.4692 Y-0.2422
N3225 X10.4686 Y-0.2462
N3230 X10.4682 Y-0.2505 Z6.8712
N3235 X10.4681 Y-0.2552
N3240 X10.4684 Y-0.2614 Z6.8711
N3245 X10.4688 Y-0.2652
N3250 X10.4695 Y-0.2689
N3255 X10.4704 Y-0.2728
N3260 X10.4715 Y-0.2766 Z6.871
N3265 X10.4728 Y-0.2801
N3270 X10.4743 Y-0.2834 Z6.8709
N3275 X10.4761 Y-0.287
N3280 X10.4781 Y-0.2905 Z6.8708
N3285 X10.4804 Y-0.2941 Z6.8707
N3290 X10.4832 Y-0.2979 Z6.8706
N3295 X10.4861 Y-0.3014 Z6.8705
N3300 X10.489 Y-0.3047 Z6.8704
N3305 X10.4925 Y-0.3081 Z6.8703
N3310 X10.497 Y-0.3121 Z6.8701
N3315 X10.5016 Y-0.3157 Z6.87
N3320 X10.5062 Y-0.3189 Z6.8698
N3325 X10.5112 Y-0.3221 Z6.8696
N3330 X10.5175 Y-0.3257 Z6.8694
N3335 X10.524 Y-0.329 Z6.8692
N3340 X10.5306 Y-0.3319 Z6.8689
N3345 X10.5371 Y-0.3344 Z6.8687
N3350 X10.5437 Y-0.3367 Z6.8684
N3355 X10.5499 Y-0.3386 Z6.8682
N3360 X10.5561 Y-0.3403 Z6.868
N3365 X10.5625 Y-0.3417 Z6.8678
N3370 X10.5692 Y-0.343 Z6.8676
N3375 X10.5761 Y-0.344 Z6.8673
N3380 X10.5828 Y-0.3447 Z6.8671
N3385 X10.5897 Y-0.3449 Z6.8669
N3390 X10.5863 Y-0.4383 Z6.867
N3395 X10.5753 Z6.8674
N3400 X10.4698 Z6.8711
N3405 Z6.8611 F1.
N3410 X10.5753 Z6.8574 F3.
N3415 X10.5863 Z6.857
N3420 X10.5897 Y-0.3449 Z6.8569
N3425 X10.5828 Y-0.3447 Z6.8571
N3430 X10.5761 Y-0.344 Z6.8573
N3435 X10.5692 Y-0.343 Z6.8576
N3440 X10.5625 Y-0.3417 Z6.8578
N3445 X10.5561 Y-0.3403 Z6.858
N3450 X10.5499 Y-0.3386 Z6.8582
N3455 X10.5437 Y-0.3367 Z6.8584
N3460 X10.5371 Y-0.3344 Z6.8587
N3465 X10.5306 Y-0.3319 Z6.8589
N3470 X10.524 Y-0.329 Z6.8592
N3475 X10.5175 Y-0.3257 Z6.8594
N3480 X10.5112 Y-0.3221 Z6.8596
N3485 X10.5062 Y-0.3189 Z6.8598
N3490 X10.5016 Y-0.3157 Z6.86
N3495 X10.497 Y-0.3121 Z6.8601
N3500 X10.4925 Y-0.3081 Z6.8603
N3505 X10.489 Y-0.3047 Z6.8604
N3510 X10.4861 Y-0.3014 Z6.8605
N3515 X10.4832 Y-0.2979 Z6.8606
N3520 X10.4804 Y-0.2941 Z6.8607
N3525 X10.4781 Y-0.2905 Z6.8608
N3530 X10.4761 Y-0.287 Z6.8609
N3535 X10.4743 Y-0.2834
N3540 X10.4728 Y-0.2801 Z6.861
N3545 X10.4715 Y-0.2766
N3550 X10.4704 Y-0.2728 Z6.8611
N3555 X10.4695 Y-0.2689
N3560 X10.4688 Y-0.2652
N3565 X10.4684 Y-0.2614
N3570 X10.4681 Y-0.2552 Z6.8612
N3575 X10.4682 Y-0.2505
N3580 X10.4686 Y-0.2462 Z6.8611
N3585 X10.4692 Y-0.2422
N3590 X10.47 Y-0.2383
N3595 X10.471 Y-0.2344
N3600 X10.4723 Y-0.2308 Z6.861
N3605 X10.4741 Y-0.2266 Z6.8609
N3610 X10.4763 Y-0.2222
N3615 X10.4787 Y-0.2182 Z6.8608
N3620 X10.4812 Y-0.2144 Z6.8607
N3625 X10.4844 Y-0.2103 Z6.8606
N3630 X10.4879 Y-0.2062 Z6.8604
N3635 X10.4915 Y-0.2024 Z6.8603
N3640 X10.4953 Y-0.1989 Z6.8602
N3645 X10.4997 Y-0.1953 Z6.86
N3650 X10.5038 Y-0.1922 Z6.8599
N3655 X10.5081 Y-0.1892 Z6.8597
N3660 X10.5126 Y-0.1865 Z6.8596
N3665 X10.518 Y-0.1834 Z6.8594
N3670 X10.524 Y-0.1804 Z6.8592
N3675 X10.53 Y-0.1777 Z6.8589
N3680 X10.5361 Y-0.1752 Z6.8587
N3685 X10.5424 Y-0.173 Z6.8585
N3690 X10.5489 Y-0.1711 Z6.8583
N3695 X10.5553 Y-0.1694 Z6.858
N3700 X10.5613 Y-0.168 Z6.8578
N3705 X10.5672 Y-0.167 Z6.8576
N3710 X10.5732 Y-0.1661 Z6.8574
N3715 X10.5789 Y-0.1655 Z6.8573
N3720 X10.5846 Y-0.1651 Z6.8571
N3725 X10.5925 Y-0.165 Z6.8568
N3730 X10.5949 Z6.8567
N3735 Z6.8467 F1.
N3740 X10.5925 Z6.8468 F3.
N3745 X10.5846 Y-0.1651 Z6.8471
N3750 X10.5789 Y-0.1655 Z6.8473
N3755 X10.5732 Y-0.1661 Z6.8474
N3760 X10.5672 Y-0.167 Z6.8476
N3765 X10.5613 Y-0.168 Z6.8478
N3770 X10.5553 Y-0.1694 Z6.848
N3775 X10.5489 Y-0.1711 Z6.8483
N3780 X10.5424 Y-0.173 Z6.8485
N3785 X10.5361 Y-0.1752 Z6.8487
N3790 X10.53 Y-0.1777 Z6.8489
N3795 X10.524 Y-0.1804 Z6.8492
N3800 X10.518 Y-0.1834 Z6.8494
N3805 X10.5126 Y-0.1865 Z6.8496
N3810 X10.5081 Y-0.1892 Z6.8497
N3815 X10.5038 Y-0.1922 Z6.8499
N3820 X10.4997 Y-0.1953 Z6.85
N3825 X10.4953 Y-0.1989 Z6.8502
N3830 X10.4915 Y-0.2024 Z6.8503
N3835 X10.4879 Y-0.2062 Z6.8504
N3840 X10.4844 Y-0.2103 Z6.8506
N3845 X10.4812 Y-0.2144 Z6.8507
N3850 X10.4787 Y-0.2182 Z6.8508
N3855 X10.4763 Y-0.2222 Z6.8509
N3860 X10.4741 Y-0.2266
N3865 X10.4723 Y-0.2308 Z6.851
N3870 X10.471 Y-0.2344 Z6.8511
N3875 X10.47 Y-0.2383
N3880 X10.4692 Y-0.2422
N3885 X10.4686 Y-0.2462
N3890 X10.4682 Y-0.2505 Z6.8512
N3895 X10.4681 Y-0.2552
N3900 X10.4684 Y-0.2614 Z6.8511
N3905 X10.4688 Y-0.2652
N3910 X10.4695 Y-0.2689
N3915 X10.4704 Y-0.2728
N3920 X10.4715 Y-0.2766 Z6.851
N3925 X10.4728 Y-0.2801
N3930 X10.4743 Y-0.2834 Z6.8509
N3935 X10.4761 Y-0.287
N3940 X10.4781 Y-0.2905 Z6.8508
N3945 X10.4804 Y-0.2941 Z6.8507
N3950 X10.4832 Y-0.2979 Z6.8506
N3955 X10.4861 Y-0.3014 Z6.8505
N3960 X10.489 Y-0.3047 Z6.8504
N3965 X10.4925 Y-0.3081 Z6.8503
N3970 X10.497 Y-0.3121 Z6.8501
N3975 X10.5016 Y-0.3157 Z6.85
N3980 X10.5062 Y-0.3189 Z6.8498
N3985 X10.5112 Y-0.3221 Z6.8496
N3990 X10.5175 Y-0.3257 Z6.8494
N3995 X10.524 Y-0.329 Z6.8492
N4000 X10.5306 Y-0.3319 Z6.8489
N4005 X10.5371 Y-0.3344 Z6.8487
N4010 X10.5437 Y-0.3367 Z6.8484
N4015 X10.5499 Y-0.3386 Z6.8482
N4020 X10.5561 Y-0.3403 Z6.848
N4025 X10.5625 Y-0.3417 Z6.8478
N4030 X10.5692 Y-0.343 Z6.8476
N4035 X10.5761 Y-0.344 Z6.8473
N4040 X10.5828 Y-0.3447 Z6.8471
N4045 X10.5897 Y-0.3449 Z6.8469
N4050 X10.5863 Y-0.4383 Z6.847
N4055 X10.5753 Z6.8474
N4060 X10.4698 Z6.8511
N4065 G0 Z7.3559
N4070 X10.1497 Y-0.4383
N4075 Z6.9714
N4080 G1 Z6.8947 F1.
N4085 X10.2503 Z6.89 F3.
N4090 X10.2663 Z6.8893
N4095 X10.2697 Y-0.3449 Z6.8892
N4100 X10.2628 Y-0.3447 Z6.8895
N4105 X10.2561 Y-0.344 Z6.8898
N4110 X10.2493 Y-0.343 Z6.8901
N4115 X10.2425 Y-0.3417 Z6.8904
N4120 X10.2361 Y-0.3403 Z6.8907
N4125 X10.2298 Y-0.3386 Z6.8909
N4130 X10.2236 Y-0.3367 Z6.8912
N4135 X10.2171 Y-0.3344 Z6.8915
N4140 X10.2105 Y-0.3319 Z6.8918
N4145 X10.204 Y-0.329 Z6.8922
N4150 X10.1975 Y-0.3257 Z6.8925
N4155 X10.1911 Y-0.3221 Z6.8928
N4160 X10.1862 Y-0.319 Z6.893
N4165 X10.1815 Y-0.3157 Z6.8932
N4170 X10.177 Y-0.3121 Z6.8934
N4175 X10.1725 Y-0.3082 Z6.8936
N4180 X10.169 Y-0.3047 Z6.8938
N4185 X10.166 Y-0.3014 Z6.8939
N4190 X10.1631 Y-0.2979 Z6.8941
N4195 X10.1603 Y-0.2941 Z6.8942
N4200 X10.1581 Y-0.2906 Z6.8943
N4205 X10.1561 Y-0.2871 Z6.8944
N4210 X10.1543 Y-0.2835 Z6.8945
N4215 X10.1528 Y-0.2801 Z6.8946
N4220 X10.1515 Y-0.2767
N4225 X10.1503 Y-0.2728 Z6.8947
N4230 X10.1494 Y-0.2689
N4235 X10.1488 Y-0.2652
N4240 X10.1484 Y-0.2614 Z6.8948
N4245 X10.1481 Y-0.2553
N4250 X10.1482 Y-0.2508
N4255 X10.1485 Y-0.2463
N4260 X10.1491 Y-0.2422 Z6.8947
N4265 X10.1499 Y-0.2383
N4270 X10.151 Y-0.2344 Z6.8946
N4275 X10.1523 Y-0.2308
N4280 X10.1541 Y-0.2266 Z6.8945
N4285 X10.1563 Y-0.2223 Z6.8944
N4290 X10.1587 Y-0.2182 Z6.8943
N4295 X10.1612 Y-0.2144 Z6.8942
N4300 X10.1643 Y-0.2103 Z6.894
N4305 X10.1678 Y-0.2062 Z6.8938
N4310 X10.1714 Y-0.2025 Z6.8937
N4315 X10.1752 Y-0.1989 Z6.8935
N4320 X10.1796 Y-0.1953 Z6.8933
N4325 X10.1838 Y-0.1922 Z6.8931
N4330 X10.188 Y-0.1893 Z6.8929
N4335 X10.1925 Y-0.1865 Z6.8927
N4340 X10.198 Y-0.1834 Z6.8924
N4345 X10.2039 Y-0.1804 Z6.8922
N4350 X10.2099 Y-0.1777 Z6.8919
N4355 X10.2161 Y-0.1753 Z6.8916
N4360 X10.2223 Y-0.1731 Z6.8913
N4365 X10.2288 Y-0.1711 Z6.891
N4370 X10.2353 Y-0.1694 Z6.8907
N4375 X10.2412 Y-0.1681 Z6.8904
N4380 X10.2471 Y-0.167 Z6.8902
N4385 X10.2532 Y-0.1661 Z6.8899
N4390 X10.2588 Y-0.1655 Z6.8897
N4395 X10.2646 Y-0.1651 Z6.8894
N4400 X10.2724 Y-0.165 Z6.8891
N4405 X10.2748 Z6.889
N4410 Z6.879 F1.
N4415 X10.2724 Z6.8791 F3.
N4420 X10.2646 Y-0.1651 Z6.8794
N4425 X10.2588 Y-0.1655 Z6.8797
N4430 X10.2532 Y-0.1661 Z6.8799
N4435 X10.2471 Y-0.167 Z6.8802
N4440 X10.2412 Y-0.1681 Z6.8804
N4445 X10.2353 Y-0.1694 Z6.8807
N4450 X10.2288 Y-0.1711 Z6.881
N4455 X10.2223 Y-0.1731 Z6.8813
N4460 X10.2161 Y-0.1753 Z6.8816
N4465 X10.2099 Y-0.1777 Z6.8819
N4470 X10.2039 Y-0.1804 Z6.8822
N4475 X10.198 Y-0.1834 Z6.8824
N4480 X10.1925 Y-0.1865 Z6.8827
N4485 X10.188 Y-0.1893 Z6.8829
N4490 X10.1838 Y-0.1922 Z6.8831
N4495 X10.1796 Y-0.1953 Z6.8833
N4500 X10.1752 Y-0.1989 Z6.8835
N4505 X10.1714 Y-0.2025 Z6.8837
N4510 X10.1678 Y-0.2062 Z6.8838
N4515 X10.1643 Y-0.2103 Z6.884
N4520 X10.1612 Y-0.2144 Z6.8842
N4525 X10.1587 Y-0.2182 Z6.8843
N4530 X10.1563 Y-0.2223 Z6.8844
N4535 X10.1541 Y-0.2266 Z6.8845
N4540 X10.1523 Y-0.2308 Z6.8846
N4545 X10.151 Y-0.2344
N4550 X10.1499 Y-0.2383 Z6.8847
N4555 X10.1491 Y-0.2422
N4560 X10.1485 Y-0.2463 Z6.8848
N4565 X10.1482 Y-0.2508
N4570 X10.1481 Y-0.2553
N4575 X10.1484 Y-0.2614
N4580 X10.1488 Y-0.2652 Z6.8847
N4585 X10.1494 Y-0.2689
N4590 X10.1503 Y-0.2728
N4595 X10.1515 Y-0.2767 Z6.8846
N4600 X10.1528 Y-0.2801
N4605 X10.1543 Y-0.2835 Z6.8845
N4610 X10.1561 Y-0.2871 Z6.8844
N4615 X10.1581 Y-0.2906 Z6.8843
N4620 X10.1603 Y-0.2941 Z6.8842
N4625 X10.1631 Y-0.2979 Z6.8841
N4630 X10.166 Y-0.3014 Z6.8839
N4635 X10.169 Y-0.3047 Z6.8838
N4640 X10.1725 Y-0.3082 Z6.8836
N4645 X10.177 Y-0.3121 Z6.8834
N4650 X10.1815 Y-0.3157 Z6.8832
N4655 X10.1862 Y-0.319 Z6.883
N4660 X10.1911 Y-0.3221 Z6.8828
N4665 X10.1975 Y-0.3257 Z6.8825
N4670 X10.204 Y-0.329 Z6.8822
N4675 X10.2105 Y-0.3319 Z6.8818
N4680 X10.2171 Y-0.3344 Z6.8815
N4685 X10.2236 Y-0.3367 Z6.8812
N4690 X10.2298 Y-0.3386 Z6.8809
N4695 X10.2361 Y-0.3403 Z6.8807
N4700 X10.2425 Y-0.3417 Z6.8804
N4705 X10.2493 Y-0.343 Z6.8801
N4710 X10.2561 Y-0.344 Z6.8798
N4715 X10.2628 Y-0.3447 Z6.8795
N4720 X10.2697 Y-0.3449 Z6.8792
N4725 X10.2663 Y-0.4383 Z6.8793
N4730 X10.2503 Z6.88
N4735 X10.1497 Z6.8847
N4740 Z6.8747 F1.
N4745 X10.2503 Z6.87 F3.
N4750 X10.2663 Z6.8693
N4755 X10.2697 Y-0.3449 Z6.8692
N4760 X10.2628 Y-0.3447 Z6.8695
N4765 X10.2561 Y-0.344 Z6.8698
N4770 X10.2493 Y-0.343 Z6.8701
N4775 X10.2425 Y-0.3417 Z6.8704
N4780 X10.2361 Y-0.3403 Z6.8707
N4785 X10.2298 Y-0.3386 Z6.8709
N4790 X10.2236 Y-0.3367 Z6.8712
N4795 X10.2171 Y-0.3344 Z6.8715
N4800 X10.2105 Y-0.3319 Z6.8718
N4805 X10.204 Y-0.329 Z6.8722
N4810 X10.1975 Y-0.3257 Z6.8725
N4815 X10.1911 Y-0.3221 Z6.8728
N4820 X10.1862 Y-0.319 Z6.873
N4825 X10.1815 Y-0.3157 Z6.8732
N4830 X10.177 Y-0.3121 Z6.8734
N4835 X10.1725 Y-0.3082 Z6.8736
N4840 X10.169 Y-0.3047 Z6.8738
N4845 X10.166 Y-0.3014 Z6.8739
N4850 X10.1631 Y-0.2979 Z6.8741
N4855 X10.1603 Y-0.2941 Z6.8742
N4860 X10.1581 Y-0.2906 Z6.8743
N4865 X10.1561 Y-0.2871 Z6.8744
N4870 X10.1543 Y-0.2835 Z6.8745
N4875 X10.1528 Y-0.2801 Z6.8746
N4880 X10.1515 Y-0.2767
N4885 X10.1503 Y-0.2728 Z6.8747
N4890 X10.1494 Y-0.2689
N4895 X10.1488 Y-0.2652
N4900 X10.1484 Y-0.2614 Z6.8748
N4905 X10.1481 Y-0.2553
N4910 X10.1482 Y-0.2508
N4915 X10.1485 Y-0.2463
N4920 X10.1491 Y-0.2422 Z6.8747
N4925 X10.1499 Y-0.2383
N4930 X10.151 Y-0.2344 Z6.8746
N4935 X10.1523 Y-0.2308
N4940 X10.1541 Y-0.2266 Z6.8745
N4945 X10.1563 Y-0.2223 Z6.8744
N4950 X10.1587 Y-0.2182 Z6.8743
N4955 X10.1612 Y-0.2144 Z6.8742
N4960 X10.1643 Y-0.2103 Z6.874
N4965 X10.1678 Y-0.2062 Z6.8738
N4970 X10.1714 Y-0.2025 Z6.8737
N4975 X10.1752 Y-0.1989 Z6.8735
N4980 X10.1796 Y-0.1953 Z6.8733
N4985 X10.1838 Y-0.1922 Z6.8731
N4990 X10.188 Y-0.1893 Z6.8729
N4995 X10.1925 Y-0.1865 Z6.8727
N5000 X10.198 Y-0.1834 Z6.8724
N5005 X10.2039 Y-0.1804 Z6.8722
N5010 X10.2099 Y-0.1777 Z6.8719
N5015 X10.2161 Y-0.1753 Z6.8716
N5020 X10.2223 Y-0.1731 Z6.8713
N5025 X10.2288 Y-0.1711 Z6.871
N5030 X10.2353 Y-0.1694 Z6.8707
N5035 X10.2412 Y-0.1681 Z6.8704
N5040 X10.2471 Y-0.167 Z6.8702
N5045 X10.2532 Y-0.1661 Z6.8699
N5050 X10.2588 Y-0.1655 Z6.8697
N5055 X10.2646 Y-0.1651 Z6.8694
N5060 X10.2724 Y-0.165 Z6.8691
N5065 X10.2748 Z6.869
N5070 Z6.859 F1.
N5075 X10.2724 Z6.8591 F3.
N5080 X10.2646 Y-0.1651 Z6.8594
N5085 X10.2588 Y-0.1655 Z6.8597
N5090 X10.2532 Y-0.1661 Z6.8599
N5095 X10.2471 Y-0.167 Z6.8602
N5100 X10.2412 Y-0.1681 Z6.8604
N5105 X10.2353 Y-0.1694 Z6.8607
N5110 X10.2288 Y-0.1711 Z6.861
N5115 X10.2223 Y-0.1731 Z6.8613
N5120 X10.2161 Y-0.1753 Z6.8616
N5125 X10.2099 Y-0.1777 Z6.8619
N5130 X10.2039 Y-0.1804 Z6.8622
N5135 X10.198 Y-0.1834 Z6.8624
N5140 X10.1925 Y-0.1865 Z6.8627
N5145 X10.188 Y-0.1893 Z6.8629
N5150 X10.1838 Y-0.1922 Z6.8631
N5155 X10.1796 Y-0.1953 Z6.8633
N5160 X10.1752 Y-0.1989 Z6.8635
N5165 X10.1714 Y-0.2025 Z6.8637
N5170 X10.1678 Y-0.2062 Z6.8638
N5175 X10.1643 Y-0.2103 Z6.864
N5180 X10.1612 Y-0.2144 Z6.8642
N5185 X10.1587 Y-0.2182 Z6.8643
N5190 X10.1563 Y-0.2223 Z6.8644
N5195 X10.1541 Y-0.2266 Z6.8645
N5200 X10.1523 Y-0.2308 Z6.8646
N5205 X10.151 Y-0.2344
N5210 X10.1499 Y-0.2383 Z6.8647
N5215 X10.1491 Y-0.2422
N5220 X10.1485 Y-0.2463 Z6.8648
N5225 X10.1482 Y-0.2508
N5230 X10.1481 Y-0.2553
N5235 X10.1484 Y-0.2614
N5240 X10.1488 Y-0.2652 Z6.8647
N5245 X10.1494 Y-0.2689
N5250 X10.1503 Y-0.2728
N5255 X10.1515 Y-0.2767 Z6.8646
N5260 X10.1528 Y-0.2801
N5265 X10.1543 Y-0.2835 Z6.8645
N5270 X10.1561 Y-0.2871 Z6.8644
N5275 X10.1581 Y-0.2906 Z6.8643
N5280 X10.1603 Y-0.2941 Z6.8642
N5285 X10.1631 Y-0.2979 Z6.8641
N5290 X10.166 Y-0.3014 Z6.8639
N5295 X10.169 Y-0.3047 Z6.8638
N5300 X10.1725 Y-0.3082 Z6.8636
N5305 X10.177 Y-0.3121 Z6.8634
N5310 X10.1815 Y-0.3157 Z6.8632
N5315 X10.1862 Y-0.319 Z6.863
N5320 X10.1911 Y-0.3221 Z6.8628
N5325 X10.1975 Y-0.3257 Z6.8625
N5330 X10.204 Y-0.329 Z6.8622
N5335 X10.2105 Y-0.3319 Z6.8618
N5340 X10.2171 Y-0.3344 Z6.8615
N5345 X10.2236 Y-0.3367 Z6.8612
N5350 X10.2298 Y-0.3386 Z6.8609
N5355 X10.2361 Y-0.3403 Z6.8607
N5360 X10.2425 Y-0.3417 Z6.8604
N5365 X10.2493 Y-0.343 Z6.8601
N5370 X10.2561 Y-0.344 Z6.8598
N5375 X10.2628 Y-0.3447 Z6.8595
N5380 X10.2697 Y-0.3449 Z6.8592
N5385 X10.2663 Y-0.4383 Z6.8593
N5390 X10.2503 Z6.86
N5395 X10.1497 Z6.8647
N5400 G0 Z7.6059

N5405 M5
N5410 M9
N5415 G53 G0 Z0.
N5420 G53 G0 X0. Y0.
N5425 G49
N5430 G69
N5435 G0 A0. C0.
N5440 M99
