O1111 (EMTSERIALSUB-8888)
(T50 D=0.125 CR=0. TAPER=30DEG - CHAMFER MILL)
N10 G90 G94 G17 G49
N15 G20
N20 G53 G0 Z0.

(SERIAL ENGRAVE TIT)
N25 T50 M6
N30 S18000 M3
N35 G90 G94 G17
N40 G54.1 P2
N45 G68.2 X0. Y0. Z0. I107.642 J90. K180.
N50 G53.1 P2
N55 M8
N60 G0 X11.2094 Y-0.3406
N65 G43 Z7.6059 H50
N70 G0 Z6.9384
N75 G1 Z6.863 F1.
N80 X11.1309 Y-0.293 Z6.864 F3.
N85 X11.1257 Y-0.2899 Z6.8641
N90 X11.123 Y-0.2881
N95 X11.1206 Y-0.2863 Z6.8642
N100 X11.1178 Y-0.2839
N105 X11.1149 Y-0.2812 Z6.8643
N110 X11.1123 Y-0.2785
N115 X11.1097 Y-0.2755
N120 X11.1071 Y-0.2722 Z6.8644
N125 X11.1047 Y-0.2686
N130 X11.1024 Y-0.2648
N135 X11.1006 Y-0.2611 Z6.8645
N140 X11.099 Y-0.2574
N145 X11.0976 Y-0.2534
N150 X11.0965 Y-0.2495
N155 X11.0956 Y-0.2456
N160 X11.0949 Y-0.2413 Z6.8646
N165 X11.0942 Y-0.2344
N170 X11.0946 Y-0.229
N175 X11.0952 Y-0.2253 Z6.8645
N180 X11.096 Y-0.2211
N185 X11.0971 Y-0.217
N190 X11.0983 Y-0.2133
N195 X11.0999 Y-0.2094
N200 X11.1019 Y-0.2053 Z6.8644
N205 X11.1038 Y-0.2019
N210 X11.1058 Y-0.1986
N215 X11.1085 Y-0.1949 Z6.8643
N220 X11.1115 Y-0.1912
N225 X11.1148 Y-0.1876
N230 X11.1183 Y-0.1843 Z6.8642
N235 X11.122 Y-0.1813
N240 X11.126 Y-0.1786 Z6.8641
N245 X11.13 Y-0.1761 Z6.864
N250 X11.1343 Y-0.1738
N255 X11.1386 Y-0.1717 Z6.8639
N260 X11.1429 Y-0.17
N265 X11.1474 Y-0.1686 Z6.8638
N270 X11.1521 Y-0.1673 Z6.8637
N275 X11.1569 Y-0.1664
N280 X11.1612 Y-0.1657 Z6.8636
N285 X11.1653 Y-0.1653
N290 X11.1712 Y-0.165 Z6.8635
N295 X11.1747 Z6.8634
N300 X11.1797 Y-0.1653
N305 X11.1841 Y-0.1657 Z6.8633
N310 X11.1891 Y-0.1664 Z6.8632
N315 X11.1941 Y-0.1674
N320 X11.1991 Y-0.1688 Z6.8631
N325 X11.204 Y-0.1704 Z6.863
N330 X11.2086 Y-0.1723
N335 X11.2131 Y-0.1745 Z6.8629
N340 X11.2174 Y-0.1769
N345 X11.2212 Y-0.1792 Z6.8628
N350 X11.225 Y-0.1819
N355 X11.2287 Y-0.1849
N360 X11.2322 Y-0.1882 Z6.8627
N365 X11.2352 Y-0.1914
N370 X11.2379 Y-0.1947
N375 X11.2404 Y-0.1981 Z6.8626
N380 X11.2426 Y-0.2015
N385 X11.2447 Y-0.2051
N390 X11.2465 Y-0.2087
N395 X11.248 Y-0.2123
N400 X11.2494 Y-0.2164 Z6.8625
N405 X11.2507 Y-0.2211
N410 X11.2515 Y-0.2246
N415 X11.252 Y-0.2278
N420 X11.2526 Y-0.2333
N425 Y-0.2346
N430 X11.2519 Y-0.242
N435 X11.2511 Y-0.2465
N440 X11.2501 Y-0.2505
N445 X11.2489 Y-0.2544 Z6.8626
N450 X11.2477 Y-0.2577
N455 X11.246 Y-0.2615
N460 X11.244 Y-0.2655
N465 X11.2416 Y-0.2693
N470 X11.2391 Y-0.273 Z6.8627
N475 X11.2363 Y-0.2765
N480 X11.2332 Y-0.2799
N485 X11.23 Y-0.283
N490 X11.2266 Y-0.2859 Z6.8628
N495 X11.2229 Y-0.2886
N500 X11.2177 Y-0.2919 Z6.8629
N505 X11.1375 Y-0.3406 Z6.8639
N510 X11.1331 Y-0.3428 Z6.864
N515 X11.131 Y-0.3442
N520 X11.129 Y-0.3455 Z6.8641
N525 X11.1267 Y-0.3473
N530 X11.1245 Y-0.3495
N535 X11.1223 Y-0.3518 Z6.8642
N540 X11.1202 Y-0.3544
N545 X11.1181 Y-0.3572
N550 X11.1162 Y-0.3602
N555 X11.1145 Y-0.3633 Z6.8643
N560 X11.113 Y-0.3666
N565 X11.1116 Y-0.37
N570 X11.1105 Y-0.3734
N575 X11.1096 Y-0.3769
N580 X11.1089 Y-0.3806
N585 X11.1082 Y-0.3864
N590 Y-0.3874
N595 X11.1089 Y-0.3925
N600 X11.1094 Y-0.3957
N605 X11.1103 Y-0.3991
N610 X11.1114 Y-0.4027
N615 X11.1127 Y-0.4062
N620 X11.1143 Y-0.4097
N625 X11.116 Y-0.4129 Z6.8642
N630 X11.1179 Y-0.4159
N635 X11.1202 Y-0.419
N640 X11.1229 Y-0.4221 Z6.8641
N645 X11.1256 Y-0.4249
N650 X11.1284 Y-0.4274
N655 X11.1316 Y-0.4298 Z6.864
N660 X11.1347 Y-0.4319
N665 X11.1386 Y-0.4341 Z6.8639
N670 X11.1428 Y-0.436
N675 X11.1473 Y-0.4377 Z6.8638
N680 X11.1516 Y-0.4391 Z6.8637
N685 X11.156 Y-0.4402
N690 X11.1606 Y-0.441 Z6.8636
N695 X11.165 Y-0.4415
N700 X11.1703 Y-0.4418 Z6.8635
N705 X11.1743 Z6.8634
N710 X11.1792 Y-0.4416
N715 X11.1835 Y-0.4413 Z6.8633
N720 X11.1883 Y-0.4405 Z6.8632
N725 X11.193 Y-0.4395
N730 X11.1978 Y-0.4382 Z6.8631
N735 X11.2024 Y-0.4365
N740 X11.2061 Y-0.435 Z6.863
N745 X11.2096 Y-0.4332
N750 X11.213 Y-0.4312 Z6.8629
N755 X11.2161 Y-0.4291
N760 X11.219 Y-0.4269
N765 X11.222 Y-0.4243 Z6.8628
N770 X11.2248 Y-0.4215
N775 X11.2272 Y-0.4187
N780 X11.2295 Y-0.4156 Z6.8627
N785 X11.2317 Y-0.4121
N790 X11.2335 Y-0.4087
N795 X11.2351 Y-0.4051
N800 X11.2362 Y-0.4019
N805 X11.2371 Y-0.3985
N810 X11.2377 Y-0.3954
N815 X11.2381 Y-0.3925
N820 X11.2383 Y-0.388
N825 Y-0.3855
N830 X11.2379 Y-0.3808
N835 X11.2374 Y-0.3774
N840 X11.2367 Y-0.3742
N845 X11.2357 Y-0.371
N850 X11.2345 Y-0.368
N855 X11.2331 Y-0.3648
N860 X11.2315 Y-0.3618
N865 X11.2298 Y-0.359
N870 X11.2278 Y-0.3562 Z6.8628
N875 X11.2255 Y-0.3533
N880 X11.223 Y-0.3505
N885 X11.2205 Y-0.3481
N890 X11.2179 Y-0.346 Z6.8629
N895 X11.2152 Y-0.344
N900 X11.2116 Y-0.3419
N905 X11.2094 Y-0.3406 Z6.863
N910 G0 Z7.3559
N915 X11.2093
N920 Z6.9384
N925 G1 Z6.853 F1.
N930 X11.1309 Y-0.293 Z6.854 F3.
N935 X11.1257 Y-0.2899 Z6.8541
N940 X11.123 Y-0.2881
N945 X11.1206 Y-0.2863 Z6.8542
N950 X11.1178 Y-0.2839
N955 X11.1149 Y-0.2812 Z6.8543
N960 X11.1123 Y-0.2785
N965 X11.1097 Y-0.2755
N970 X11.1071 Y-0.2722 Z6.8544
N975 X11.1047 Y-0.2686
N980 X11.1024 Y-0.2648
N985 X11.1006 Y-0.2611 Z6.8545
N990 X11.099 Y-0.2574
N995 X11.0976 Y-0.2534
N1000 X11.0965 Y-0.2495
N1005 X11.0956 Y-0.2456
N1010 X11.0949 Y-0.2413 Z6.8546
N1015 X11.0942 Y-0.2344
N1020 X11.0946 Y-0.229
N1025 X11.0952 Y-0.2253 Z6.8545
N1030 X11.096 Y-0.2211
N1035 X11.0971 Y-0.217
N1040 X11.0983 Y-0.2133
N1045 X11.0999 Y-0.2094
N1050 X11.1019 Y-0.2053 Z6.8544
N1055 X11.1038 Y-0.2019
N1060 X11.1058 Y-0.1986
N1065 X11.1085 Y-0.1949 Z6.8543
N1070 X11.1115 Y-0.1912
N1075 X11.1148 Y-0.1876
N1080 X11.1183 Y-0.1843 Z6.8542
N1085 X11.122 Y-0.1813
N1090 X11.126 Y-0.1786 Z6.8541
N1095 X11.13 Y-0.1761 Z6.854
N1100 X11.1343 Y-0.1738
N1105 X11.1386 Y-0.1717 Z6.8539
N1110 X11.1429 Y-0.17
N1115 X11.1474 Y-0.1686 Z6.8538
N1120 X11.1521 Y-0.1673 Z6.8537
N1125 X11.1569 Y-0.1664
N1130 X11.1612 Y-0.1657 Z6.8536
N1135 X11.1653 Y-0.1653
N1140 X11.1712 Y-0.165 Z6.8535
N1145 X11.1747 Z6.8534
N1150 X11.1797 Y-0.1653
N1155 X11.1841 Y-0.1657 Z6.8533
N1160 X11.1891 Y-0.1664 Z6.8532
N1165 X11.1941 Y-0.1674
N1170 X11.1991 Y-0.1688 Z6.8531
N1175 X11.204 Y-0.1704 Z6.853
N1180 X11.2086 Y-0.1723
N1185 X11.2131 Y-0.1745 Z6.8529
N1190 X11.2174 Y-0.1769
N1195 X11.2212 Y-0.1792 Z6.8528
N1200 X11.225 Y-0.1819
N1205 X11.2287 Y-0.1849
N1210 X11.2322 Y-0.1882 Z6.8527
N1215 X11.2352 Y-0.1914
N1220 X11.2379 Y-0.1947
N1225 X11.2404 Y-0.1981 Z6.8526
N1230 X11.2426 Y-0.2015
N1235 X11.2447 Y-0.2051
N1240 X11.2465 Y-0.2087
N1245 X11.248 Y-0.2123
N1250 X11.2494 Y-0.2164 Z6.8525
N1255 X11.2507 Y-0.2211
N1260 X11.2515 Y-0.2246
N1265 X11.252 Y-0.2278
N1270 X11.2526 Y-0.2333
N1275 Y-0.2346
N1280 X11.2519 Y-0.242
N1285 X11.2511 Y-0.2465
N1290 X11.2501 Y-0.2505
N1295 X11.2489 Y-0.2544 Z6.8526
N1300 X11.2477 Y-0.2577
N1305 X11.246 Y-0.2615
N1310 X11.244 Y-0.2655
N1315 X11.2416 Y-0.2693
N1320 X11.2391 Y-0.273 Z6.8527
N1325 X11.2363 Y-0.2765
N1330 X11.2332 Y-0.2799
N1335 X11.23 Y-0.283
N1340 X11.2266 Y-0.2859 Z6.8528
N1345 X11.2229 Y-0.2886
N1350 X11.2177 Y-0.2919 Z6.8529
N1355 X11.1375 Y-0.3406 Z6.8539
N1360 X11.1331 Y-0.3428 Z6.854
N1365 X11.131 Y-0.3442
N1370 X11.129 Y-0.3455 Z6.8541
N1375 X11.1267 Y-0.3473
N1380 X11.1245 Y-0.3495
N1385 X11.1223 Y-0.3518 Z6.8542
N1390 X11.1202 Y-0.3544
N1395 X11.1181 Y-0.3572
N1400 X11.1162 Y-0.3602
N1405 X11.1145 Y-0.3633 Z6.8543
N1410 X11.113 Y-0.3666
N1415 X11.1116 Y-0.37
N1420 X11.1105 Y-0.3734
N1425 X11.1096 Y-0.3769
N1430 X11.1089 Y-0.3806
N1435 X11.1082 Y-0.3864
N1440 Y-0.3874
N1445 X11.1089 Y-0.3925
N1450 X11.1094 Y-0.3957
N1455 X11.1103 Y-0.3991
N1460 X11.1114 Y-0.4027
N1465 X11.1127 Y-0.4062
N1470 X11.1143 Y-0.4097
N1475 X11.116 Y-0.4129 Z6.8542
N1480 X11.1179 Y-0.4159
N1485 X11.1202 Y-0.419
N1490 X11.1229 Y-0.4221 Z6.8541
N1495 X11.1256 Y-0.4249
N1500 X11.1284 Y-0.4274
N1505 X11.1316 Y-0.4298 Z6.854
N1510 X11.1347 Y-0.4319
N1515 X11.1386 Y-0.4341 Z6.8539
N1520 X11.1428 Y-0.436
N1525 X11.1473 Y-0.4377 Z6.8538
N1530 X11.1516 Y-0.4391 Z6.8537
N1535 X11.156 Y-0.4402
N1540 X11.1606 Y-0.441 Z6.8536
N1545 X11.165 Y-0.4415
N1550 X11.1703 Y-0.4418 Z6.8535
N1555 X11.1743 Z6.8534
N1560 X11.1792 Y-0.4416
N1565 X11.1835 Y-0.4413 Z6.8533
N1570 X11.1883 Y-0.4405 Z6.8532
N1575 X11.193 Y-0.4395
N1580 X11.1978 Y-0.4382 Z6.8531
N1585 X11.2024 Y-0.4365
N1590 X11.2061 Y-0.435 Z6.853
N1595 X11.2096 Y-0.4332
N1600 X11.213 Y-0.4312 Z6.8529
N1605 X11.2161 Y-0.4291
N1610 X11.219 Y-0.4269
N1615 X11.222 Y-0.4243 Z6.8528
N1620 X11.2248 Y-0.4215
N1625 X11.2272 Y-0.4187
N1630 X11.2295 Y-0.4156 Z6.8527
N1635 X11.2317 Y-0.4121
N1640 X11.2335 Y-0.4087
N1645 X11.2351 Y-0.4051
N1650 X11.2362 Y-0.4019
N1655 X11.2371 Y-0.3985
N1660 X11.2377 Y-0.3954
N1665 X11.2381 Y-0.3925
N1670 X11.2383 Y-0.388
N1675 Y-0.3855
N1680 X11.2379 Y-0.3808
N1685 X11.2374 Y-0.3774
N1690 X11.2367 Y-0.3742
N1695 X11.2357 Y-0.371
N1700 X11.2345 Y-0.368
N1705 X11.2331 Y-0.3648
N1710 X11.2315 Y-0.3618
N1715 X11.2298 Y-0.359
N1720 X11.2278 Y-0.3562 Z6.8528
N1725 X11.2255 Y-0.3533
N1730 X11.223 Y-0.3505
N1735 X11.2205 Y-0.3481
N1740 X11.2179 Y-0.346 Z6.8529
N1745 X11.2152 Y-0.344
N1750 X11.2116 Y-0.3419
N1755 X11.2094 Y-0.3406 Z6.853
N1760 X11.2093
N1765 G0 Z7.3559
N1770 X11.2092 Y-0.3405
N1775 Z6.9384
N1780 G1 Z6.843 F1.
N1785 X11.1309 Y-0.293 Z6.844 F3.
N1790 X11.1257 Y-0.2899 Z6.8441
N1795 X11.123 Y-0.2881
N1800 X11.1206 Y-0.2863 Z6.8442
N1805 X11.1178 Y-0.2839
N1810 X11.1149 Y-0.2812 Z6.8443
N1815 X11.1123 Y-0.2785
N1820 X11.1097 Y-0.2755
N1825 X11.1071 Y-0.2722 Z6.8444
N1830 X11.1047 Y-0.2686
N1835 X11.1024 Y-0.2648
N1840 X11.1006 Y-0.2611 Z6.8445
N1845 X11.099 Y-0.2574
N1850 X11.0976 Y-0.2534
N1855 X11.0965 Y-0.2495
N1860 X11.0956 Y-0.2456
N1865 X11.0949 Y-0.2413 Z6.8446
N1870 X11.0942 Y-0.2344
N1875 X11.0946 Y-0.229
N1880 X11.0952 Y-0.2253 Z6.8445
N1885 X11.096 Y-0.2211
N1890 X11.0971 Y-0.217
N1895 X11.0983 Y-0.2133
N1900 X11.0999 Y-0.2094
N1905 X11.1019 Y-0.2053 Z6.8444
N1910 X11.1038 Y-0.2019
N1915 X11.1058 Y-0.1986
N1920 X11.1085 Y-0.1949 Z6.8443
N1925 X11.1115 Y-0.1912
N1930 X11.1148 Y-0.1876
N1935 X11.1183 Y-0.1843 Z6.8442
N1940 X11.122 Y-0.1813
N1945 X11.126 Y-0.1786 Z6.8441
N1950 X11.13 Y-0.1761 Z6.844
N1955 X11.1343 Y-0.1738
N1960 X11.1386 Y-0.1717 Z6.8439
N1965 X11.1429 Y-0.17
N1970 X11.1474 Y-0.1686 Z6.8438
N1975 X11.1521 Y-0.1673 Z6.8437
N1980 X11.1569 Y-0.1664
N1985 X11.1612 Y-0.1657 Z6.8436
N1990 X11.1653 Y-0.1653
N1995 X11.1712 Y-0.165 Z6.8435
N2000 X11.1747 Z6.8434
N2005 X11.1797 Y-0.1653
N2010 X11.1841 Y-0.1657 Z6.8433
N2015 X11.1891 Y-0.1664 Z6.8432
N2020 X11.1941 Y-0.1674
N2025 X11.1991 Y-0.1688 Z6.8431
N2030 X11.204 Y-0.1704 Z6.843
N2035 X11.2086 Y-0.1723
N2040 X11.2131 Y-0.1745 Z6.8429
N2045 X11.2174 Y-0.1769
N2050 X11.2212 Y-0.1792 Z6.8428
N2055 X11.225 Y-0.1819
N2060 X11.2287 Y-0.1849
N2065 X11.2322 Y-0.1882 Z6.8427
N2070 X11.2352 Y-0.1914
N2075 X11.2379 Y-0.1947
N2080 X11.2404 Y-0.1981 Z6.8426
N2085 X11.2426 Y-0.2015
N2090 X11.2447 Y-0.2051
N2095 X11.2465 Y-0.2087
N2100 X11.248 Y-0.2123
N2105 X11.2494 Y-0.2164 Z6.8425
N2110 X11.2507 Y-0.2211
N2115 X11.2515 Y-0.2246
N2120 X11.252 Y-0.2278
N2125 X11.2526 Y-0.2333
N2130 Y-0.2346
N2135 X11.2519 Y-0.242
N2140 X11.2511 Y-0.2465
N2145 X11.2501 Y-0.2505
N2150 X11.2489 Y-0.2544 Z6.8426
N2155 X11.2477 Y-0.2577
N2160 X11.246 Y-0.2615
N2165 X11.244 Y-0.2655
N2170 X11.2416 Y-0.2693
N2175 X11.2391 Y-0.273 Z6.8427
N2180 X11.2363 Y-0.2765
N2185 X11.2332 Y-0.2799
N2190 X11.23 Y-0.283
N2195 X11.2266 Y-0.2859 Z6.8428
N2200 X11.2229 Y-0.2886
N2205 X11.2177 Y-0.2919 Z6.8429
N2210 X11.1375 Y-0.3406 Z6.8439
N2215 X11.1331 Y-0.3428 Z6.844
N2220 X11.131 Y-0.3442
N2225 X11.129 Y-0.3455 Z6.8441
N2230 X11.1267 Y-0.3473
N2235 X11.1245 Y-0.3495
N2240 X11.1223 Y-0.3518 Z6.8442
N2245 X11.1202 Y-0.3544
N2250 X11.1181 Y-0.3572
N2255 X11.1162 Y-0.3602
N2260 X11.1145 Y-0.3633 Z6.8443
N2265 X11.113 Y-0.3666
N2270 X11.1116 Y-0.37
N2275 X11.1105 Y-0.3734
N2280 X11.1096 Y-0.3769
N2285 X11.1089 Y-0.3806
N2290 X11.1082 Y-0.3864
N2295 Y-0.3874
N2300 X11.1089 Y-0.3925
N2305 X11.1094 Y-0.3957
N2310 X11.1103 Y-0.3991
N2315 X11.1114 Y-0.4027
N2320 X11.1127 Y-0.4062
N2325 X11.1143 Y-0.4097
N2330 X11.116 Y-0.4129 Z6.8442
N2335 X11.1179 Y-0.4159
N2340 X11.1202 Y-0.419
N2345 X11.1229 Y-0.4221 Z6.8441
N2350 X11.1256 Y-0.4249
N2355 X11.1284 Y-0.4274
N2360 X11.1316 Y-0.4298 Z6.844
N2365 X11.1347 Y-0.4319
N2370 X11.1386 Y-0.4341 Z6.8439
N2375 X11.1428 Y-0.436
N2380 X11.1473 Y-0.4377 Z6.8438
N2385 X11.1516 Y-0.4391 Z6.8437
N2390 X11.156 Y-0.4402
N2395 X11.1606 Y-0.441 Z6.8436
N2400 X11.165 Y-0.4415
N2405 X11.1703 Y-0.4418 Z6.8435
N2410 X11.1743 Z6.8434
N2415 X11.1792 Y-0.4416
N2420 X11.1835 Y-0.4413 Z6.8433
N2425 X11.1883 Y-0.4405 Z6.8432
N2430 X11.193 Y-0.4395
N2435 X11.1978 Y-0.4382 Z6.8431
N2440 X11.2024 Y-0.4365
N2445 X11.2061 Y-0.435 Z6.843
N2450 X11.2096 Y-0.4332
N2455 X11.213 Y-0.4312 Z6.8429
N2460 X11.2161 Y-0.4291
N2465 X11.219 Y-0.4269
N2470 X11.222 Y-0.4243 Z6.8428
N2475 X11.2248 Y-0.4215
N2480 X11.2272 Y-0.4187
N2485 X11.2295 Y-0.4156 Z6.8427
N2490 X11.2317 Y-0.4121
N2495 X11.2335 Y-0.4087
N2500 X11.2351 Y-0.4051
N2505 X11.2362 Y-0.4019
N2510 X11.2371 Y-0.3985
N2515 X11.2377 Y-0.3954
N2520 X11.2381 Y-0.3925
N2525 X11.2383 Y-0.388
N2530 Y-0.3855
N2535 X11.2379 Y-0.3808
N2540 X11.2374 Y-0.3774
N2545 X11.2367 Y-0.3742
N2550 X11.2357 Y-0.371
N2555 X11.2345 Y-0.368
N2560 X11.2331 Y-0.3648
N2565 X11.2315 Y-0.3618
N2570 X11.2298 Y-0.359
N2575 X11.2278 Y-0.3562 Z6.8428
N2580 X11.2255 Y-0.3533
N2585 X11.223 Y-0.3505
N2590 X11.2205 Y-0.3481
N2595 X11.2179 Y-0.346 Z6.8429
N2600 X11.2152 Y-0.344
N2605 X11.2116 Y-0.3419
N2610 X11.2094 Y-0.3406 Z6.843
N2615 X11.2092 Y-0.3405
N2620 G0 Z7.3559
N2625 X11.2091
N2630 Z6.9384
N2635 G1 Z6.833 F1.
N2640 X11.1309 Y-0.293 Z6.834 F3.
N2645 X11.1257 Y-0.2899 Z6.8341
N2650 X11.123 Y-0.2881
N2655 X11.1206 Y-0.2863 Z6.8342
N2660 X11.1178 Y-0.2839
N2665 X11.1149 Y-0.2812 Z6.8343
N2670 X11.1123 Y-0.2785
N2675 X11.1097 Y-0.2755
N2680 X11.1071 Y-0.2722 Z6.8344
N2685 X11.1047 Y-0.2686
N2690 X11.1024 Y-0.2648
N2695 X11.1006 Y-0.2611 Z6.8345
N2700 X11.099 Y-0.2574
N2705 X11.0976 Y-0.2534
N2710 X11.0965 Y-0.2495
N2715 X11.0956 Y-0.2456
N2720 X11.0949 Y-0.2413 Z6.8346
N2725 X11.0942 Y-0.2344
N2730 X11.0946 Y-0.229
N2735 X11.0952 Y-0.2253 Z6.8345
N2740 X11.096 Y-0.2211
N2745 X11.0971 Y-0.217
N2750 X11.0983 Y-0.2133
N2755 X11.0999 Y-0.2094
N2760 X11.1019 Y-0.2053 Z6.8344
N2765 X11.1038 Y-0.2019
N2770 X11.1058 Y-0.1986
N2775 X11.1085 Y-0.1949 Z6.8343
N2780 X11.1115 Y-0.1912
N2785 X11.1148 Y-0.1876
N2790 X11.1183 Y-0.1843 Z6.8342
N2795 X11.122 Y-0.1813
N2800 X11.126 Y-0.1786 Z6.8341
N2805 X11.13 Y-0.1761 Z6.834
N2810 X11.1343 Y-0.1738
N2815 X11.1386 Y-0.1717 Z6.8339
N2820 X11.1429 Y-0.17
N2825 X11.1474 Y-0.1686 Z6.8338
N2830 X11.1521 Y-0.1673 Z6.8337
N2835 X11.1569 Y-0.1664
N2840 X11.1612 Y-0.1657 Z6.8336
N2845 X11.1653 Y-0.1653
N2850 X11.1712 Y-0.165 Z6.8335
N2855 X11.1747 Z6.8334
N2860 X11.1797 Y-0.1653
N2865 X11.1841 Y-0.1657 Z6.8333
N2870 X11.1891 Y-0.1664 Z6.8332
N2875 X11.1941 Y-0.1674
N2880 X11.1991 Y-0.1688 Z6.8331
N2885 X11.204 Y-0.1704 Z6.833
N2890 X11.2086 Y-0.1723
N2895 X11.2131 Y-0.1745 Z6.8329
N2900 X11.2174 Y-0.1769
N2905 X11.2212 Y-0.1792 Z6.8328
N2910 X11.225 Y-0.1819
N2915 X11.2287 Y-0.1849
N2920 X11.2322 Y-0.1882 Z6.8327
N2925 X11.2352 Y-0.1914
N2930 X11.2379 Y-0.1947
N2935 X11.2404 Y-0.1981 Z6.8326
N2940 X11.2426 Y-0.2015
N2945 X11.2447 Y-0.2051
N2950 X11.2465 Y-0.2087
N2955 X11.248 Y-0.2123
N2960 X11.2494 Y-0.2164 Z6.8325
N2965 X11.2507 Y-0.2211
N2970 X11.2515 Y-0.2246
N2975 X11.252 Y-0.2278
N2980 X11.2526 Y-0.2333
N2985 Y-0.2346
N2990 X11.2519 Y-0.242
N2995 X11.2511 Y-0.2465
N3000 X11.2501 Y-0.2505
N3005 X11.2489 Y-0.2544 Z6.8326
N3010 X11.2477 Y-0.2577
N3015 X11.246 Y-0.2615
N3020 X11.244 Y-0.2655
N3025 X11.2416 Y-0.2693
N3030 X11.2391 Y-0.273 Z6.8327
N3035 X11.2363 Y-0.2765
N3040 X11.2332 Y-0.2799
N3045 X11.23 Y-0.283
N3050 X11.2266 Y-0.2859 Z6.8328
N3055 X11.2229 Y-0.2886
N3060 X11.2177 Y-0.2919 Z6.8329
N3065 X11.1375 Y-0.3406 Z6.8339
N3070 X11.1331 Y-0.3428 Z6.834
N3075 X11.131 Y-0.3442
N3080 X11.129 Y-0.3455 Z6.8341
N3085 X11.1267 Y-0.3473
N3090 X11.1245 Y-0.3495
N3095 X11.1223 Y-0.3518 Z6.8342
N3100 X11.1202 Y-0.3544
N3105 X11.1181 Y-0.3572
N3110 X11.1162 Y-0.3602
N3115 X11.1145 Y-0.3633 Z6.8343
N3120 X11.113 Y-0.3666
N3125 X11.1116 Y-0.37
N3130 X11.1105 Y-0.3734
N3135 X11.1096 Y-0.3769
N3140 X11.1089 Y-0.3806
N3145 X11.1082 Y-0.3864
N3150 Y-0.3874
N3155 X11.1089 Y-0.3925
N3160 X11.1094 Y-0.3957
N3165 X11.1103 Y-0.3991
N3170 X11.1114 Y-0.4027
N3175 X11.1127 Y-0.4062
N3180 X11.1143 Y-0.4097
N3185 X11.116 Y-0.4129 Z6.8342
N3190 X11.1179 Y-0.4159
N3195 X11.1202 Y-0.419
N3200 X11.1229 Y-0.4221 Z6.8341
N3205 X11.1256 Y-0.4249
N3210 X11.1284 Y-0.4274
N3215 X11.1316 Y-0.4298 Z6.834
N3220 X11.1347 Y-0.4319
N3225 X11.1386 Y-0.4341 Z6.8339
N3230 X11.1428 Y-0.436
N3235 X11.1473 Y-0.4377 Z6.8338
N3240 X11.1516 Y-0.4391 Z6.8337
N3245 X11.156 Y-0.4402
N3250 X11.1606 Y-0.441 Z6.8336
N3255 X11.165 Y-0.4415
N3260 X11.1703 Y-0.4418 Z6.8335
N3265 X11.1743 Z6.8334
N3270 X11.1792 Y-0.4416
N3275 X11.1835 Y-0.4413 Z6.8333
N3280 X11.1883 Y-0.4405 Z6.8332
N3285 X11.193 Y-0.4395
N3290 X11.1978 Y-0.4382 Z6.8331
N3295 X11.2024 Y-0.4365
N3300 X11.2061 Y-0.435 Z6.833
N3305 X11.2096 Y-0.4332
N3310 X11.213 Y-0.4312 Z6.8329
N3315 X11.2161 Y-0.4291
N3320 X11.219 Y-0.4269
N3325 X11.222 Y-0.4243 Z6.8328
N3330 X11.2248 Y-0.4215
N3335 X11.2272 Y-0.4187
N3340 X11.2295 Y-0.4156 Z6.8327
N3345 X11.2317 Y-0.4121
N3350 X11.2335 Y-0.4087
N3355 X11.2351 Y-0.4051
N3360 X11.2362 Y-0.4019
N3365 X11.2371 Y-0.3985
N3370 X11.2377 Y-0.3954
N3375 X11.2381 Y-0.3925
N3380 X11.2383 Y-0.388
N3385 Y-0.3855
N3390 X11.2379 Y-0.3808
N3395 X11.2374 Y-0.3774
N3400 X11.2367 Y-0.3742
N3405 X11.2357 Y-0.371
N3410 X11.2345 Y-0.368
N3415 X11.2331 Y-0.3648
N3420 X11.2315 Y-0.3618
N3425 X11.2298 Y-0.359
N3430 X11.2278 Y-0.3562 Z6.8328
N3435 X11.2255 Y-0.3533
N3440 X11.223 Y-0.3505
N3445 X11.2205 Y-0.3481
N3450 X11.2179 Y-0.346 Z6.8329
N3455 X11.2152 Y-0.344
N3460 X11.2116 Y-0.3419
N3465 X11.2094 Y-0.3406 Z6.833
N3470 X11.2091 Y-0.3405
N3475 G0 Z7.3559
N3480 X10.929 Y-0.2538
N3485 Z6.9434
N3490 G1 Z6.8677 F1.
N3495 X10.9289 Y-0.2544 F3.
N3500 X10.9276 Y-0.2577
N3505 X10.926 Y-0.2615
N3510 X10.9239 Y-0.2655 Z6.8678
N3515 X10.9216 Y-0.2693
N3520 X10.9191 Y-0.273 Z6.8679
N3525 X10.9163 Y-0.2765 Z6.868
N3530 X10.9132 Y-0.2799
N3535 X10.9099 Y-0.283 Z6.8681
N3540 X10.9065 Y-0.2859 Z6.8682
N3545 X10.9029 Y-0.2886
N3550 X10.8977 Y-0.2919 Z6.8683
N3555 X10.8174 Y-0.3406 Z6.8703
N3560 X10.8132 Y-0.3428 Z6.8704
N3565 X10.811 Y-0.3441
N3570 X10.809 Y-0.3455 Z6.8705
N3575 X10.8067 Y-0.3473 Z6.8706
N3580 X10.8045 Y-0.3494
N3585 X10.8023 Y-0.3517 Z6.8707
N3590 X10.8002 Y-0.3543
N3595 X10.7981 Y-0.3571 Z6.8708
N3600 X10.7962 Y-0.3601
N3605 X10.7945 Y-0.3633 Z6.8709
N3610 X10.7929 Y-0.3665
N3615 X10.7916 Y-0.3699
N3620 X10.7905 Y-0.3734 Z6.871
N3625 X10.7896 Y-0.3768
N3630 X10.7889 Y-0.3805
N3635 X10.7882 Y-0.3863
N3640 Y-0.3874
N3645 X10.7888 Y-0.3924
N3650 X10.7894 Y-0.3956
N3655 X10.7902 Y-0.3991
N3660 X10.7913 Y-0.4026 Z6.8709
N3665 X10.7927 Y-0.4062
N3670 X10.7943 Y-0.4097
N3675 X10.796 Y-0.4129 Z6.8708
N3680 X10.7979 Y-0.4159
N3685 X10.8001 Y-0.419 Z6.8707
N3690 X10.8028 Y-0.4221
N3695 X10.8056 Y-0.4249 Z6.8706
N3700 X10.8084 Y-0.4274 Z6.8705
N3705 X10.8115 Y-0.4298 Z6.8704
N3710 X10.8147 Y-0.4319
N3715 X10.8185 Y-0.434 Z6.8703
N3720 X10.8227 Y-0.436 Z6.8702
N3725 X10.8273 Y-0.4377 Z6.87
N3730 X10.8315 Y-0.4391 Z6.8699
N3735 X10.836 Y-0.4402 Z6.8698
N3740 X10.8406 Y-0.441 Z6.8697
N3745 X10.845 Y-0.4415 Z6.8696
N3750 X10.8502 Y-0.4418 Z6.8695
N3755 X10.8542 Z6.8694
N3760 X10.8591 Y-0.4416 Z6.8693
N3765 X10.8635 Y-0.4413 Z6.8691
N3770 X10.8683 Y-0.4405 Z6.869
N3775 X10.873 Y-0.4395 Z6.8689
N3780 X10.8777 Y-0.4382 Z6.8688
N3785 X10.8824 Y-0.4365 Z6.8687
N3790 X10.886 Y-0.435 Z6.8686
N3795 X10.8895 Y-0.4332 Z6.8685
N3800 X10.8929 Y-0.4312 Z6.8684
N3805 X10.8961 Y-0.4291
N3810 X10.899 Y-0.4269 Z6.8683
N3815 X10.9019 Y-0.4244
N3820 X10.9047 Y-0.4215 Z6.8682
N3825 X10.9072 Y-0.4187 Z6.8681
N3830 X10.9095 Y-0.4156
N3835 X10.9116 Y-0.4122
N3840 X10.9135 Y-0.4087 Z6.868
N3845 X10.9151 Y-0.4051
N3850 X10.9162 Y-0.4019
N3855 X10.9171 Y-0.3985 Z6.8679
N3860 X10.9177 Y-0.3954
N3865 X10.918 Y-0.3925
N3870 X10.9183 Y-0.388
N3875 X10.9182 Y-0.3855
N3880 X10.9179 Y-0.3808
N3885 X10.9174 Y-0.3774
N3890 X10.9166 Y-0.3742
N3895 X10.9156 Y-0.371 Z6.868
N3900 X10.9145 Y-0.368
N3905 X10.913 Y-0.3649
N3910 X10.9114 Y-0.3618 Z6.8681
N3915 X10.9097 Y-0.359
N3920 X10.9078 Y-0.3562
N3925 X10.9054 Y-0.3533 Z6.8682
N3930 X10.903 Y-0.3506
N3935 X10.9005 Y-0.3481 Z6.8683
N3940 X10.8979 Y-0.346
N3945 X10.8952 Y-0.344 Z6.8684
N3950 X10.8917 Y-0.3419 Z6.8685
N3955 X10.8894 Y-0.3406
N3960 X10.8108 Y-0.293 Z6.8705
N3965 X10.8057 Y-0.2899 Z6.8706
N3970 X10.8031 Y-0.2882
N3975 X10.8007 Y-0.2864 Z6.8707
N3980 X10.7978 Y-0.284 Z6.8708
N3985 X10.7949 Y-0.2812
N3990 X10.7923 Y-0.2785 Z6.8709
N3995 X10.7897 Y-0.2755 Z6.871
N4000 X10.7871 Y-0.2722
N4005 X10.7847 Y-0.2686 Z6.8711
N4010 X10.7824 Y-0.2648 Z6.8712
N4015 X10.7805 Y-0.2611
N4020 X10.7789 Y-0.2574
N4025 X10.7776 Y-0.2534 Z6.8713
N4030 X10.7765 Y-0.2495
N4035 X10.7756 Y-0.2456
N4040 X10.7749 Y-0.2413
N4045 X10.7741 Y-0.2344 Z6.8714
N4050 X10.7746 Y-0.2291
N4055 X10.7751 Y-0.2254 Z6.8713
N4060 X10.776 Y-0.2211
N4065 X10.7771 Y-0.2171
N4070 X10.7783 Y-0.2133
N4075 X10.7799 Y-0.2094 Z6.8712
N4080 X10.7818 Y-0.2054
N4085 X10.7837 Y-0.2019 Z6.8711
N4090 X10.7857 Y-0.1987
N4095 X10.7884 Y-0.1949 Z6.871
N4100 X10.7915 Y-0.1912 Z6.8709
N4105 X10.7947 Y-0.1876
N4110 X10.7982 Y-0.1844 Z6.8708
N4115 X10.802 Y-0.1813 Z6.8707
N4120 X10.8059 Y-0.1786 Z6.8706
N4125 X10.81 Y-0.1761 Z6.8705
N4130 X10.8143 Y-0.1738 Z6.8704
N4135 X10.8186 Y-0.1717 Z6.8703
N4140 X10.8229 Y-0.17 Z6.8702
N4145 X10.8273 Y-0.1686 Z6.87
N4150 X10.832 Y-0.1673 Z6.8699
N4155 X10.8368 Y-0.1664 Z6.8698
N4160 X10.8411 Y-0.1657 Z6.8697
N4165 X10.8452 Y-0.1653 Z6.8696
N4170 X10.8511 Y-0.165 Z6.8695
N4175 X10.8546 Z6.8694
N4180 X10.8596 Y-0.1653 Z6.8692
N4185 X10.864 Y-0.1656 Z6.8691
N4190 X10.8691 Y-0.1664 Z6.869
N4195 X10.8741 Y-0.1674 Z6.8689
N4200 X10.879 Y-0.1688 Z6.8688
N4205 X10.8839 Y-0.1704 Z6.8686
N4210 X10.8886 Y-0.1723 Z6.8685
N4215 X10.8931 Y-0.1745 Z6.8684
N4220 X10.8974 Y-0.1769
N4225 X10.9011 Y-0.1792 Z6.8683
N4230 X10.9049 Y-0.1819 Z6.8682
N4235 X10.9086 Y-0.1849 Z6.8681
N4240 X10.9121 Y-0.1882 Z6.868
N4245 X10.9151 Y-0.1914
N4250 X10.9178 Y-0.1947 Z6.8679
N4255 X10.9203 Y-0.198
N4260 X10.9226 Y-0.2015 Z6.8678
N4265 X10.9246 Y-0.2051
N4270 X10.9264 Y-0.2086 Z6.8677
N4275 X10.928 Y-0.2123
N4280 X10.9294 Y-0.2164
N4285 X10.9306 Y-0.2211 Z6.8676
N4290 X10.9314 Y-0.2246
N4295 X10.9319 Y-0.2278
N4300 X10.9325 Y-0.2333
N4305 X10.9326 Y-0.2346
N4310 X10.9318 Y-0.242
N4315 X10.931 Y-0.2465
N4320 X10.93 Y-0.2505 Z6.8677
N4325 X10.929 Y-0.2538
N4330 G0 Z7.3559
N4335 Z6.9434
N4340 G1 Z6.8577 F1.
N4345 X10.9289 Y-0.2544 F3.
N4350 X10.9276 Y-0.2577
N4355 X10.926 Y-0.2615
N4360 X10.9239 Y-0.2655 Z6.8578
N4365 X10.9216 Y-0.2693
N4370 X10.9191 Y-0.273 Z6.8579
N4375 X10.9163 Y-0.2765 Z6.858
N4380 X10.9132 Y-0.2799
N4385 X10.9099 Y-0.283 Z6.8581
N4390 X10.9065 Y-0.2859 Z6.8582
N4395 X10.9029 Y-0.2886
N4400 X10.8977 Y-0.2919 Z6.8583
N4405 X10.8174 Y-0.3406 Z6.8603
N4410 X10.8132 Y-0.3428 Z6.8604
N4415 X10.811 Y-0.3441
N4420 X10.809 Y-0.3455 Z6.8605
N4425 X10.8067 Y-0.3473 Z6.8606
N4430 X10.8045 Y-0.3494
N4435 X10.8023 Y-0.3517 Z6.8607
N4440 X10.8002 Y-0.3543
N4445 X10.7981 Y-0.3571 Z6.8608
N4450 X10.7962 Y-0.3601
N4455 X10.7945 Y-0.3633 Z6.8609
N4460 X10.7929 Y-0.3665
N4465 X10.7916 Y-0.3699
N4470 X10.7905 Y-0.3734 Z6.861
N4475 X10.7896 Y-0.3768
N4480 X10.7889 Y-0.3805
N4485 X10.7882 Y-0.3863
N4490 Y-0.3874
N4495 X10.7888 Y-0.3924
N4500 X10.7894 Y-0.3956
N4505 X10.7902 Y-0.3991
N4510 X10.7913 Y-0.4026 Z6.8609
N4515 X10.7927 Y-0.4062
N4520 X10.7943 Y-0.4097
N4525 X10.796 Y-0.4129 Z6.8608
N4530 X10.7979 Y-0.4159
N4535 X10.8001 Y-0.419 Z6.8607
N4540 X10.8028 Y-0.4221
N4545 X10.8056 Y-0.4249 Z6.8606
N4550 X10.8084 Y-0.4274 Z6.8605
N4555 X10.8115 Y-0.4298 Z6.8604
N4560 X10.8147 Y-0.4319
N4565 X10.8185 Y-0.434 Z6.8603
N4570 X10.8227 Y-0.436 Z6.8602
N4575 X10.8273 Y-0.4377 Z6.86
N4580 X10.8315 Y-0.4391 Z6.8599
N4585 X10.836 Y-0.4402 Z6.8598
N4590 X10.8406 Y-0.441 Z6.8597
N4595 X10.845 Y-0.4415 Z6.8596
N4600 X10.8502 Y-0.4418 Z6.8595
N4605 X10.8542 Z6.8594
N4610 X10.8591 Y-0.4416 Z6.8593
N4615 X10.8635 Y-0.4413 Z6.8591
N4620 X10.8683 Y-0.4405 Z6.859
N4625 X10.873 Y-0.4395 Z6.8589
N4630 X10.8777 Y-0.4382 Z6.8588
N4635 X10.8824 Y-0.4365 Z6.8587
N4640 X10.886 Y-0.435 Z6.8586
N4645 X10.8895 Y-0.4332 Z6.8585
N4650 X10.8929 Y-0.4312 Z6.8584
N4655 X10.8961 Y-0.4291
N4660 X10.899 Y-0.4269 Z6.8583
N4665 X10.9019 Y-0.4244
N4670 X10.9047 Y-0.4215 Z6.8582
N4675 X10.9072 Y-0.4187 Z6.8581
N4680 X10.9095 Y-0.4156
N4685 X10.9116 Y-0.4122
N4690 X10.9135 Y-0.4087 Z6.858
N4695 X10.9151 Y-0.4051
N4700 X10.9162 Y-0.4019
N4705 X10.9171 Y-0.3985 Z6.8579
N4710 X10.9177 Y-0.3954
N4715 X10.918 Y-0.3925
N4720 X10.9183 Y-0.388
N4725 X10.9182 Y-0.3855
N4730 X10.9179 Y-0.3808
N4735 X10.9174 Y-0.3774
N4740 X10.9166 Y-0.3742
N4745 X10.9156 Y-0.371 Z6.858
N4750 X10.9145 Y-0.368
N4755 X10.913 Y-0.3649
N4760 X10.9114 Y-0.3618 Z6.8581
N4765 X10.9097 Y-0.359
N4770 X10.9078 Y-0.3562
N4775 X10.9054 Y-0.3533 Z6.8582
N4780 X10.903 Y-0.3506
N4785 X10.9005 Y-0.3481 Z6.8583
N4790 X10.8979 Y-0.346
N4795 X10.8952 Y-0.344 Z6.8584
N4800 X10.8917 Y-0.3419 Z6.8585
N4805 X10.8894 Y-0.3406
N4810 X10.8108 Y-0.293 Z6.8605
N4815 X10.8057 Y-0.2899 Z6.8606
N4820 X10.8031 Y-0.2882
N4825 X10.8007 Y-0.2864 Z6.8607
N4830 X10.7978 Y-0.284 Z6.8608
N4835 X10.7949 Y-0.2812
N4840 X10.7923 Y-0.2785 Z6.8609
N4845 X10.7897 Y-0.2755 Z6.861
N4850 X10.7871 Y-0.2722
N4855 X10.7847 Y-0.2686 Z6.8611
N4860 X10.7824 Y-0.2648 Z6.8612
N4865 X10.7805 Y-0.2611
N4870 X10.7789 Y-0.2574
N4875 X10.7776 Y-0.2534 Z6.8613
N4880 X10.7765 Y-0.2495
N4885 X10.7756 Y-0.2456
N4890 X10.7749 Y-0.2413
N4895 X10.7741 Y-0.2344 Z6.8614
N4900 X10.7746 Y-0.2291
N4905 X10.7751 Y-0.2254 Z6.8613
N4910 X10.776 Y-0.2211
N4915 X10.7771 Y-0.2171
N4920 X10.7783 Y-0.2133
N4925 X10.7799 Y-0.2094 Z6.8612
N4930 X10.7818 Y-0.2054
N4935 X10.7837 Y-0.2019 Z6.8611
N4940 X10.7857 Y-0.1987
N4945 X10.7884 Y-0.1949 Z6.861
N4950 X10.7915 Y-0.1912 Z6.8609
N4955 X10.7947 Y-0.1876
N4960 X10.7982 Y-0.1844 Z6.8608
N4965 X10.802 Y-0.1813 Z6.8607
N4970 X10.8059 Y-0.1786 Z6.8606
N4975 X10.81 Y-0.1761 Z6.8605
N4980 X10.8143 Y-0.1738 Z6.8604
N4985 X10.8186 Y-0.1717 Z6.8603
N4990 X10.8229 Y-0.17 Z6.8602
N4995 X10.8273 Y-0.1686 Z6.86
N5000 X10.832 Y-0.1673 Z6.8599
N5005 X10.8368 Y-0.1664 Z6.8598
N5010 X10.8411 Y-0.1657 Z6.8597
N5015 X10.8452 Y-0.1653 Z6.8596
N5020 X10.8511 Y-0.165 Z6.8595
N5025 X10.8546 Z6.8594
N5030 X10.8596 Y-0.1653 Z6.8592
N5035 X10.864 Y-0.1656 Z6.8591
N5040 X10.8691 Y-0.1664 Z6.859
N5045 X10.8741 Y-0.1674 Z6.8589
N5050 X10.879 Y-0.1688 Z6.8588
N5055 X10.8839 Y-0.1704 Z6.8586
N5060 X10.8886 Y-0.1723 Z6.8585
N5065 X10.8931 Y-0.1745 Z6.8584
N5070 X10.8974 Y-0.1769
N5075 X10.9011 Y-0.1792 Z6.8583
N5080 X10.9049 Y-0.1819 Z6.8582
N5085 X10.9086 Y-0.1849 Z6.8581
N5090 X10.9121 Y-0.1882 Z6.858
N5095 X10.9151 Y-0.1914
N5100 X10.9178 Y-0.1947 Z6.8579
N5105 X10.9203 Y-0.198
N5110 X10.9226 Y-0.2015 Z6.8578
N5115 X10.9246 Y-0.2051
N5120 X10.9264 Y-0.2086 Z6.8577
N5125 X10.928 Y-0.2123
N5130 X10.9294 Y-0.2164
N5135 X10.9306 Y-0.2211 Z6.8576
N5140 X10.9314 Y-0.2246
N5145 X10.9319 Y-0.2278
N5150 X10.9325 Y-0.2333
N5155 X10.9326 Y-0.2346
N5160 X10.9318 Y-0.242
N5165 X10.931 Y-0.2465
N5170 X10.93 Y-0.2505 Z6.8577
N5175 X10.929 Y-0.2538
N5180 G0 Z7.3559
N5185 Y-0.2539
N5190 Z6.9434
N5195 G1 Z6.8477 F1.
N5200 X10.9289 Y-0.2544 F3.
N5205 X10.9276 Y-0.2577
N5210 X10.926 Y-0.2615
N5215 X10.9239 Y-0.2655 Z6.8478
N5220 X10.9216 Y-0.2693
N5225 X10.9191 Y-0.273 Z6.8479
N5230 X10.9163 Y-0.2765 Z6.848
N5235 X10.9132 Y-0.2799
N5240 X10.9099 Y-0.283 Z6.8481
N5245 X10.9065 Y-0.2859 Z6.8482
N5250 X10.9029 Y-0.2886
N5255 X10.8977 Y-0.2919 Z6.8483
N5260 X10.8174 Y-0.3406 Z6.8503
N5265 X10.8132 Y-0.3428 Z6.8504
N5270 X10.811 Y-0.3441
N5275 X10.809 Y-0.3455 Z6.8505
N5280 X10.8067 Y-0.3473 Z6.8506
N5285 X10.8045 Y-0.3494
N5290 X10.8023 Y-0.3517 Z6.8507
N5295 X10.8002 Y-0.3543
N5300 X10.7981 Y-0.3571 Z6.8508
N5305 X10.7962 Y-0.3601
N5310 X10.7945 Y-0.3633 Z6.8509
N5315 X10.7929 Y-0.3665
N5320 X10.7916 Y-0.3699
N5325 X10.7905 Y-0.3734 Z6.851
N5330 X10.7896 Y-0.3768
N5335 X10.7889 Y-0.3805
N5340 X10.7882 Y-0.3863
N5345 Y-0.3874
N5350 X10.7888 Y-0.3924
N5355 X10.7894 Y-0.3956
N5360 X10.7902 Y-0.3991
N5365 X10.7913 Y-0.4026 Z6.8509
N5370 X10.7927 Y-0.4062
N5375 X10.7943 Y-0.4097
N5380 X10.796 Y-0.4129 Z6.8508
N5385 X10.7979 Y-0.4159
N5390 X10.8001 Y-0.419 Z6.8507
N5395 X10.8028 Y-0.4221
N5400 X10.8056 Y-0.4249 Z6.8506
N5405 X10.8084 Y-0.4274 Z6.8505
N5410 X10.8115 Y-0.4298 Z6.8504
N5415 X10.8147 Y-0.4319
N5420 X10.8185 Y-0.434 Z6.8503
N5425 X10.8227 Y-0.436 Z6.8502
N5430 X10.8273 Y-0.4377 Z6.85
N5435 X10.8315 Y-0.4391 Z6.8499
N5440 X10.836 Y-0.4402 Z6.8498
N5445 X10.8406 Y-0.441 Z6.8497
N5450 X10.845 Y-0.4415 Z6.8496
N5455 X10.8502 Y-0.4418 Z6.8495
N5460 X10.8542 Z6.8494
N5465 X10.8591 Y-0.4416 Z6.8493
N5470 X10.8635 Y-0.4413 Z6.8491
N5475 X10.8683 Y-0.4405 Z6.849
N5480 X10.873 Y-0.4395 Z6.8489
N5485 X10.8777 Y-0.4382 Z6.8488
N5490 X10.8824 Y-0.4365 Z6.8487
N5495 X10.886 Y-0.435 Z6.8486
N5500 X10.8895 Y-0.4332 Z6.8485
N5505 X10.8929 Y-0.4312 Z6.8484
N5510 X10.8961 Y-0.4291
N5515 X10.899 Y-0.4269 Z6.8483
N5520 X10.9019 Y-0.4244
N5525 X10.9047 Y-0.4215 Z6.8482
N5530 X10.9072 Y-0.4187 Z6.8481
N5535 X10.9095 Y-0.4156
N5540 X10.9116 Y-0.4122
N5545 X10.9135 Y-0.4087 Z6.848
N5550 X10.9151 Y-0.4051
N5555 X10.9162 Y-0.4019
N5560 X10.9171 Y-0.3985 Z6.8479
N5565 X10.9177 Y-0.3954
N5570 X10.918 Y-0.3925
N5575 X10.9183 Y-0.388
N5580 X10.9182 Y-0.3855
N5585 X10.9179 Y-0.3808
N5590 X10.9174 Y-0.3774
N5595 X10.9166 Y-0.3742
N5600 X10.9156 Y-0.371 Z6.848
N5605 X10.9145 Y-0.368
N5610 X10.913 Y-0.3649
N5615 X10.9114 Y-0.3618 Z6.8481
N5620 X10.9097 Y-0.359
N5625 X10.9078 Y-0.3562
N5630 X10.9054 Y-0.3533 Z6.8482
N5635 X10.903 Y-0.3506
N5640 X10.9005 Y-0.3481 Z6.8483
N5645 X10.8979 Y-0.346
N5650 X10.8952 Y-0.344 Z6.8484
N5655 X10.8917 Y-0.3419 Z6.8485
N5660 X10.8894 Y-0.3406
N5665 X10.8108 Y-0.293 Z6.8505
N5670 X10.8057 Y-0.2899 Z6.8506
N5675 X10.8031 Y-0.2882
N5680 X10.8007 Y-0.2864 Z6.8507
N5685 X10.7978 Y-0.284 Z6.8508
N5690 X10.7949 Y-0.2812
N5695 X10.7923 Y-0.2785 Z6.8509
N5700 X10.7897 Y-0.2755 Z6.851
N5705 X10.7871 Y-0.2722
N5710 X10.7847 Y-0.2686 Z6.8511
N5715 X10.7824 Y-0.2648 Z6.8512
N5720 X10.7805 Y-0.2611
N5725 X10.7789 Y-0.2574
N5730 X10.7776 Y-0.2534 Z6.8513
N5735 X10.7765 Y-0.2495
N5740 X10.7756 Y-0.2456
N5745 X10.7749 Y-0.2413
N5750 X10.7741 Y-0.2344 Z6.8514
N5755 X10.7746 Y-0.2291
N5760 X10.7751 Y-0.2254 Z6.8513
N5765 X10.776 Y-0.2211
N5770 X10.7771 Y-0.2171
N5775 X10.7783 Y-0.2133
N5780 X10.7799 Y-0.2094 Z6.8512
N5785 X10.7818 Y-0.2054
N5790 X10.7837 Y-0.2019 Z6.8511
N5795 X10.7857 Y-0.1987
N5800 X10.7884 Y-0.1949 Z6.851
N5805 X10.7915 Y-0.1912 Z6.8509
N5810 X10.7947 Y-0.1876
N5815 X10.7982 Y-0.1844 Z6.8508
N5820 X10.802 Y-0.1813 Z6.8507
N5825 X10.8059 Y-0.1786 Z6.8506
N5830 X10.81 Y-0.1761 Z6.8505
N5835 X10.8143 Y-0.1738 Z6.8504
N5840 X10.8186 Y-0.1717 Z6.8503
N5845 X10.8229 Y-0.17 Z6.8502
N5850 X10.8273 Y-0.1686 Z6.85
N5855 X10.832 Y-0.1673 Z6.8499
N5860 X10.8368 Y-0.1664 Z6.8498
N5865 X10.8411 Y-0.1657 Z6.8497
N5870 X10.8452 Y-0.1653 Z6.8496
N5875 X10.8511 Y-0.165 Z6.8495
N5880 X10.8546 Z6.8494
N5885 X10.8596 Y-0.1653 Z6.8492
N5890 X10.864 Y-0.1656 Z6.8491
N5895 X10.8691 Y-0.1664 Z6.849
N5900 X10.8741 Y-0.1674 Z6.8489
N5905 X10.879 Y-0.1688 Z6.8488
N5910 X10.8839 Y-0.1704 Z6.8486
N5915 X10.8886 Y-0.1723 Z6.8485
N5920 X10.8931 Y-0.1745 Z6.8484
N5925 X10.8974 Y-0.1769
N5930 X10.9011 Y-0.1792 Z6.8483
N5935 X10.9049 Y-0.1819 Z6.8482
N5940 X10.9086 Y-0.1849 Z6.8481
N5945 X10.9121 Y-0.1882 Z6.848
N5950 X10.9151 Y-0.1914
N5955 X10.9178 Y-0.1947 Z6.8479
N5960 X10.9203 Y-0.198
N5965 X10.9226 Y-0.2015 Z6.8478
N5970 X10.9246 Y-0.2051
N5975 X10.9264 Y-0.2086 Z6.8477
N5980 X10.928 Y-0.2123
N5985 X10.9294 Y-0.2164
N5990 X10.9306 Y-0.2211 Z6.8476
N5995 X10.9314 Y-0.2246
N6000 X10.9319 Y-0.2278
N6005 X10.9325 Y-0.2333
N6010 X10.9326 Y-0.2346
N6015 X10.9318 Y-0.242
N6020 X10.931 Y-0.2465
N6025 X10.93 Y-0.2505 Z6.8477
N6030 X10.929 Y-0.2539
N6035 G0 Z7.3559
N6040 Y-0.254
N6045 Z6.9434
N6050 G1 Z6.8377 F1.
N6055 X10.9289 Y-0.2544 F3.
N6060 X10.9276 Y-0.2577
N6065 X10.926 Y-0.2615
N6070 X10.9239 Y-0.2655 Z6.8378
N6075 X10.9216 Y-0.2693
N6080 X10.9191 Y-0.273 Z6.8379
N6085 X10.9163 Y-0.2765 Z6.838
N6090 X10.9132 Y-0.2799
N6095 X10.9099 Y-0.283 Z6.8381
N6100 X10.9065 Y-0.2859 Z6.8382
N6105 X10.9029 Y-0.2886
N6110 X10.8977 Y-0.2919 Z6.8383
N6115 X10.8174 Y-0.3406 Z6.8403
N6120 X10.8132 Y-0.3428 Z6.8404
N6125 X10.811 Y-0.3441
N6130 X10.809 Y-0.3455 Z6.8405
N6135 X10.8067 Y-0.3473 Z6.8406
N6140 X10.8045 Y-0.3494
N6145 X10.8023 Y-0.3517 Z6.8407
N6150 X10.8002 Y-0.3543
N6155 X10.7981 Y-0.3571 Z6.8408
N6160 X10.7962 Y-0.3601
N6165 X10.7945 Y-0.3633 Z6.8409
N6170 X10.7929 Y-0.3665
N6175 X10.7916 Y-0.3699
N6180 X10.7905 Y-0.3734 Z6.841
N6185 X10.7896 Y-0.3768
N6190 X10.7889 Y-0.3805
N6195 X10.7882 Y-0.3863
N6200 Y-0.3874
N6205 X10.7888 Y-0.3924
N6210 X10.7894 Y-0.3956
N6215 X10.7902 Y-0.3991
N6220 X10.7913 Y-0.4026 Z6.8409
N6225 X10.7927 Y-0.4062
N6230 X10.7943 Y-0.4097
N6235 X10.796 Y-0.4129 Z6.8408
N6240 X10.7979 Y-0.4159
N6245 X10.8001 Y-0.419 Z6.8407
N6250 X10.8028 Y-0.4221
N6255 X10.8056 Y-0.4249 Z6.8406
N6260 X10.8084 Y-0.4274 Z6.8405
N6265 X10.8115 Y-0.4298 Z6.8404
N6270 X10.8147 Y-0.4319
N6275 X10.8185 Y-0.434 Z6.8403
N6280 X10.8227 Y-0.436 Z6.8402
N6285 X10.8273 Y-0.4377 Z6.84
N6290 X10.8315 Y-0.4391 Z6.8399
N6295 X10.836 Y-0.4402 Z6.8398
N6300 X10.8406 Y-0.441 Z6.8397
N6305 X10.845 Y-0.4415 Z6.8396
N6310 X10.8502 Y-0.4418 Z6.8395
N6315 X10.8542 Z6.8394
N6320 X10.8591 Y-0.4416 Z6.8393
N6325 X10.8635 Y-0.4413 Z6.8391
N6330 X10.8683 Y-0.4405 Z6.839
N6335 X10.873 Y-0.4395 Z6.8389
N6340 X10.8777 Y-0.4382 Z6.8388
N6345 X10.8824 Y-0.4365 Z6.8387
N6350 X10.886 Y-0.435 Z6.8386
N6355 X10.8895 Y-0.4332 Z6.8385
N6360 X10.8929 Y-0.4312 Z6.8384
N6365 X10.8961 Y-0.4291
N6370 X10.899 Y-0.4269 Z6.8383
N6375 X10.9019 Y-0.4244
N6380 X10.9047 Y-0.4215 Z6.8382
N6385 X10.9072 Y-0.4187 Z6.8381
N6390 X10.9095 Y-0.4156
N6395 X10.9116 Y-0.4122
N6400 X10.9135 Y-0.4087 Z6.838
N6405 X10.9151 Y-0.4051
N6410 X10.9162 Y-0.4019
N6415 X10.9171 Y-0.3985 Z6.8379
N6420 X10.9177 Y-0.3954
N6425 X10.918 Y-0.3925
N6430 X10.9183 Y-0.388
N6435 X10.9182 Y-0.3855
N6440 X10.9179 Y-0.3808
N6445 X10.9174 Y-0.3774
N6450 X10.9166 Y-0.3742
N6455 X10.9156 Y-0.371 Z6.838
N6460 X10.9145 Y-0.368
N6465 X10.913 Y-0.3649
N6470 X10.9114 Y-0.3618 Z6.8381
N6475 X10.9097 Y-0.359
N6480 X10.9078 Y-0.3562
N6485 X10.9054 Y-0.3533 Z6.8382
N6490 X10.903 Y-0.3506
N6495 X10.9005 Y-0.3481 Z6.8383
N6500 X10.8979 Y-0.346
N6505 X10.8952 Y-0.344 Z6.8384
N6510 X10.8917 Y-0.3419 Z6.8385
N6515 X10.8894 Y-0.3406
N6520 X10.8108 Y-0.293 Z6.8405
N6525 X10.8057 Y-0.2899 Z6.8406
N6530 X10.8031 Y-0.2882
N6535 X10.8007 Y-0.2864 Z6.8407
N6540 X10.7978 Y-0.284 Z6.8408
N6545 X10.7949 Y-0.2812
N6550 X10.7923 Y-0.2785 Z6.8409
N6555 X10.7897 Y-0.2755 Z6.841
N6560 X10.7871 Y-0.2722
N6565 X10.7847 Y-0.2686 Z6.8411
N6570 X10.7824 Y-0.2648 Z6.8412
N6575 X10.7805 Y-0.2611
N6580 X10.7789 Y-0.2574
N6585 X10.7776 Y-0.2534 Z6.8413
N6590 X10.7765 Y-0.2495
N6595 X10.7756 Y-0.2456
N6600 X10.7749 Y-0.2413
N6605 X10.7741 Y-0.2344 Z6.8414
N6610 X10.7746 Y-0.2291
N6615 X10.7751 Y-0.2254 Z6.8413
N6620 X10.776 Y-0.2211
N6625 X10.7771 Y-0.2171
N6630 X10.7783 Y-0.2133
N6635 X10.7799 Y-0.2094 Z6.8412
N6640 X10.7818 Y-0.2054
N6645 X10.7837 Y-0.2019 Z6.8411
N6650 X10.7857 Y-0.1987
N6655 X10.7884 Y-0.1949 Z6.841
N6660 X10.7915 Y-0.1912 Z6.8409
N6665 X10.7947 Y-0.1876
N6670 X10.7982 Y-0.1844 Z6.8408
N6675 X10.802 Y-0.1813 Z6.8407
N6680 X10.8059 Y-0.1786 Z6.8406
N6685 X10.81 Y-0.1761 Z6.8405
N6690 X10.8143 Y-0.1738 Z6.8404
N6695 X10.8186 Y-0.1717 Z6.8403
N6700 X10.8229 Y-0.17 Z6.8402
N6705 X10.8273 Y-0.1686 Z6.84
N6710 X10.832 Y-0.1673 Z6.8399
N6715 X10.8368 Y-0.1664 Z6.8398
N6720 X10.8411 Y-0.1657 Z6.8397
N6725 X10.8452 Y-0.1653 Z6.8396
N6730 X10.8511 Y-0.165 Z6.8395
N6735 X10.8546 Z6.8394
N6740 X10.8596 Y-0.1653 Z6.8392
N6745 X10.864 Y-0.1656 Z6.8391
N6750 X10.8691 Y-0.1664 Z6.839
N6755 X10.8741 Y-0.1674 Z6.8389
N6760 X10.879 Y-0.1688 Z6.8388
N6765 X10.8839 Y-0.1704 Z6.8386
N6770 X10.8886 Y-0.1723 Z6.8385
N6775 X10.8931 Y-0.1745 Z6.8384
N6780 X10.8974 Y-0.1769
N6785 X10.9011 Y-0.1792 Z6.8383
N6790 X10.9049 Y-0.1819 Z6.8382
N6795 X10.9086 Y-0.1849 Z6.8381
N6800 X10.9121 Y-0.1882 Z6.838
N6805 X10.9151 Y-0.1914
N6810 X10.9178 Y-0.1947 Z6.8379
N6815 X10.9203 Y-0.198
N6820 X10.9226 Y-0.2015 Z6.8378
N6825 X10.9246 Y-0.2051
N6830 X10.9264 Y-0.2086 Z6.8377
N6835 X10.928 Y-0.2123
N6840 X10.9294 Y-0.2164
N6845 X10.9306 Y-0.2211 Z6.8376
N6850 X10.9314 Y-0.2246
N6855 X10.9319 Y-0.2278
N6860 X10.9325 Y-0.2333
N6865 X10.9326 Y-0.2346
N6870 X10.9318 Y-0.242
N6875 X10.931 Y-0.2465
N6880 X10.93 Y-0.2505 Z6.8377
N6885 X10.929 Y-0.254
N6890 G0 Z7.3559
N6895 X10.6126 Y-0.2346
N6900 Z6.9523
N6905 G1 Z6.8762 F1.
N6910 X10.6118 Y-0.242 F3.
N6915 X10.611 Y-0.2465
N6920 X10.61 Y-0.2505 Z6.8763
N6925 X10.6088 Y-0.2544
N6930 X10.6076 Y-0.2577
N6935 X10.606 Y-0.2615 Z6.8764
N6940 X10.6039 Y-0.2655 Z6.8765
N6945 X10.6016 Y-0.2693
N6950 X10.599 Y-0.273 Z6.8766
N6955 X10.5963 Y-0.2765 Z6.8767
N6960 X10.5932 Y-0.2799 Z6.8768
N6965 X10.5899 Y-0.283 Z6.8769
N6970 X10.5865 Y-0.2859 Z6.877
N6975 X10.5828 Y-0.2886 Z6.8771
N6980 X10.5777 Y-0.2918 Z6.8773
N6985 X10.5081 Y-0.3341 Z6.8797
N6990 X10.4973 Y-0.3407 Z6.8801
N6995 X10.4931 Y-0.3428 Z6.8803
N7000 X10.491 Y-0.3441
N7005 X10.489 Y-0.3454 Z6.8804
N7010 X10.4867 Y-0.3473 Z6.8805
N7015 X10.4845 Y-0.3494 Z6.8806
N7020 X10.4823 Y-0.3517
N7025 X10.4802 Y-0.3543 Z6.8807
N7030 X10.4781 Y-0.3571 Z6.8808
N7035 X10.4762 Y-0.3601 Z6.8809
N7040 X10.4745 Y-0.3632
N7045 X10.4729 Y-0.3665 Z6.881
N7050 X10.4716 Y-0.3699
N7055 X10.4704 Y-0.3733 Z6.8811
N7060 X10.4695 Y-0.3768
N7065 X10.4688 Y-0.3805
N7070 X10.4682 Y-0.3862 Z6.8812
N7075 X10.4681 Y-0.3873
N7080 X10.4688 Y-0.3924 Z6.8811
N7085 X10.4694 Y-0.3956
N7090 X10.4702 Y-0.3991
N7095 X10.4713 Y-0.4026 Z6.881
N7100 X10.4726 Y-0.4062
N7105 X10.4742 Y-0.4096 Z6.8809
N7110 X10.4759 Y-0.4129
N7115 X10.4778 Y-0.4159 Z6.8808
N7120 X10.4801 Y-0.419 Z6.8807
N7125 X10.4828 Y-0.4221 Z6.8806
N7130 X10.4855 Y-0.4249 Z6.8805
N7135 X10.4883 Y-0.4274 Z6.8804
N7140 X10.4914 Y-0.4298 Z6.8803
N7145 X10.4946 Y-0.4318 Z6.8802
N7150 X10.4985 Y-0.434 Z6.8801
N7155 X10.5027 Y-0.436 Z6.8799
N7160 X10.5072 Y-0.4377 Z6.8798
N7165 X10.5115 Y-0.4391 Z6.8796
N7170 X10.5159 Y-0.4402 Z6.8794
N7175 X10.5205 Y-0.441 Z6.8793
N7180 X10.5249 Y-0.4415 Z6.8791
N7185 X10.5302 Y-0.4418 Z6.8789
N7190 X10.5341 Z6.8788
N7195 X10.539 Y-0.4416 Z6.8786
N7200 X10.5434 Y-0.4413 Z6.8785
N7205 X10.5482 Y-0.4405 Z6.8783
N7210 X10.5529 Y-0.4395 Z6.8781
N7215 X10.5577 Y-0.4382 Z6.8779
N7220 X10.5623 Y-0.4365 Z6.8778
N7225 X10.5659 Y-0.435 Z6.8777
N7230 X10.5695 Y-0.4332 Z6.8776
N7235 X10.5729 Y-0.4312 Z6.8775
N7240 X10.576 Y-0.4291 Z6.8773
N7245 X10.5789 Y-0.4269
N7250 X10.5819 Y-0.4244 Z6.8772
N7255 X10.5846 Y-0.4216 Z6.8771
N7260 X10.5871 Y-0.4187 Z6.877
N7265 X10.5895 Y-0.4156 Z6.8769
N7270 X10.5916 Y-0.4122 Z6.8768
N7275 X10.5934 Y-0.4087
N7280 X10.595 Y-0.4051 Z6.8767
N7285 X10.5961 Y-0.4019
N7290 X10.597 Y-0.3985
N7295 X10.5976 Y-0.3954
N7300 X10.598 Y-0.3925 Z6.8766
N7305 X10.5983 Y-0.388
N7310 X10.5982 Y-0.3855
N7315 X10.5979 Y-0.3808
N7320 X10.5973 Y-0.3774 Z6.8767
N7325 X10.5966 Y-0.3742
N7330 X10.5956 Y-0.371
N7335 X10.5944 Y-0.368 Z6.8768
N7340 X10.593 Y-0.3649
N7345 X10.5914 Y-0.3618 Z6.8769
N7350 X10.5897 Y-0.359
N7355 X10.5877 Y-0.3562 Z6.877
N7360 X10.5854 Y-0.3533
N7365 X10.5829 Y-0.3506 Z6.8771
N7370 X10.5804 Y-0.3481 Z6.8772
N7375 X10.5779 Y-0.346 Z6.8773
N7380 X10.5751 Y-0.344 Z6.8774
N7385 X10.5716 Y-0.3419 Z6.8775
N7390 X10.5693 Y-0.3406 Z6.8776
N7395 X10.4908 Y-0.293 Z6.8803
N7400 X10.4857 Y-0.29 Z6.8805
N7405 X10.4832 Y-0.2883 Z6.8806
N7410 X10.4807 Y-0.2865 Z6.8807
N7415 X10.4779 Y-0.2841 Z6.8808
N7420 X10.475 Y-0.2813 Z6.8809
N7425 X10.4724 Y-0.2786 Z6.881
N7430 X10.4697 Y-0.2756 Z6.8811
N7435 X10.4671 Y-0.2722 Z6.8812
N7440 X10.4646 Y-0.2686 Z6.8813
N7445 X10.4624 Y-0.2648 Z6.8814
N7450 X10.4605 Y-0.2611
N7455 X10.4589 Y-0.2574 Z6.8815
N7460 X10.4575 Y-0.2534
N7465 X10.4564 Y-0.2495 Z6.8816
N7470 X10.4555 Y-0.2457
N7475 X10.4548 Y-0.2413
N7480 X10.4541 Y-0.2344 Z6.8817
N7485 X10.4546 Y-0.2291 Z6.8816
N7490 X10.4551 Y-0.2254
N7495 X10.4559 Y-0.2211
N7500 X10.457 Y-0.2171
N7505 X10.4582 Y-0.2133 Z6.8815
N7510 X10.4598 Y-0.2094
N7515 X10.4618 Y-0.2054 Z6.8814
N7520 X10.4636 Y-0.202 Z6.8813
N7525 X10.4657 Y-0.1987 Z6.8812
N7530 X10.4684 Y-0.1949 Z6.8811
N7535 X10.4714 Y-0.1912 Z6.881
N7540 X10.4747 Y-0.1876 Z6.8809
N7545 X10.4782 Y-0.1844 Z6.8808
N7550 X10.482 Y-0.1813 Z6.8807
N7555 X10.4858 Y-0.1786 Z6.8805
N7560 X10.4899 Y-0.1761 Z6.8804
N7565 X10.4942 Y-0.1738 Z6.8802
N7570 X10.4985 Y-0.1718 Z6.8801
N7575 X10.5028 Y-0.1701 Z6.8799
N7580 X10.5072 Y-0.1686 Z6.8798
N7585 X10.5119 Y-0.1674 Z6.8796
N7590 X10.5167 Y-0.1664 Z6.8794
N7595 X10.521 Y-0.1657 Z6.8793
N7600 X10.5252 Y-0.1653 Z6.8791
N7605 X10.531 Y-0.1651 Z6.8789
N7610 X10.5345 Y-0.165 Z6.8788
N7615 X10.5395 Y-0.1653 Z6.8786
N7620 X10.544 Y-0.1656 Z6.8784
N7625 X10.5491 Y-0.1664 Z6.8783
N7630 X10.554 Y-0.1674 Z6.8781
N7635 X10.559 Y-0.1688 Z6.8779
N7640 X10.5638 Y-0.1704 Z6.8777
N7645 X10.5686 Y-0.1723 Z6.8776
N7650 X10.573 Y-0.1745 Z6.8774
N7655 X10.5773 Y-0.1769 Z6.8773
N7660 X10.5811 Y-0.1792 Z6.8772
N7665 X10.5849 Y-0.1819 Z6.8771
N7670 X10.5886 Y-0.1849 Z6.8769
N7675 X10.5921 Y-0.1882 Z6.8768
N7680 X10.5951 Y-0.1914 Z6.8767
N7685 X10.5978 Y-0.1947 Z6.8766
N7690 X10.6003 Y-0.198
N7695 X10.6025 Y-0.2015 Z6.8765
N7700 X10.6046 Y-0.2051 Z6.8764
N7705 X10.6064 Y-0.2086
N7710 X10.6079 Y-0.2123 Z6.8763
N7715 X10.6093 Y-0.2164
N7720 X10.6106 Y-0.2211 Z6.8762
N7725 X10.6114 Y-0.2246
N7730 X10.6119 Y-0.2278
N7735 X10.6125 Y-0.2333
N7740 X10.6126 Y-0.2346
N7745 G0 Z7.3559
N7750 Y-0.2347
N7755 Z6.9523
N7760 G1 Z6.8662 F1.
N7765 X10.6118 Y-0.242 F3.
N7770 X10.611 Y-0.2465
N7775 X10.61 Y-0.2505 Z6.8663
N7780 X10.6088 Y-0.2544
N7785 X10.6076 Y-0.2577
N7790 X10.606 Y-0.2615 Z6.8664
N7795 X10.6039 Y-0.2655 Z6.8665
N7800 X10.6016 Y-0.2693
N7805 X10.599 Y-0.273 Z6.8666
N7810 X10.5963 Y-0.2765 Z6.8667
N7815 X10.5932 Y-0.2799 Z6.8668
N7820 X10.5899 Y-0.283 Z6.8669
N7825 X10.5865 Y-0.2859 Z6.867
N7830 X10.5828 Y-0.2886 Z6.8671
N7835 X10.5777 Y-0.2918 Z6.8673
N7840 X10.5081 Y-0.3341 Z6.8697
N7845 X10.4973 Y-0.3407 Z6.8701
N7850 X10.4931 Y-0.3428 Z6.8703
N7855 X10.491 Y-0.3441
N7860 X10.489 Y-0.3454 Z6.8704
N7865 X10.4867 Y-0.3473 Z6.8705
N7870 X10.4845 Y-0.3494 Z6.8706
N7875 X10.4823 Y-0.3517
N7880 X10.4802 Y-0.3543 Z6.8707
N7885 X10.4781 Y-0.3571 Z6.8708
N7890 X10.4762 Y-0.3601 Z6.8709
N7895 X10.4745 Y-0.3632
N7900 X10.4729 Y-0.3665 Z6.871
N7905 X10.4716 Y-0.3699
N7910 X10.4704 Y-0.3733 Z6.8711
N7915 X10.4695 Y-0.3768
N7920 X10.4688 Y-0.3805
N7925 X10.4682 Y-0.3862 Z6.8712
N7930 X10.4681 Y-0.3873
N7935 X10.4688 Y-0.3924 Z6.8711
N7940 X10.4694 Y-0.3956
N7945 X10.4702 Y-0.3991
N7950 X10.4713 Y-0.4026 Z6.871
N7955 X10.4726 Y-0.4062
N7960 X10.4742 Y-0.4096 Z6.8709
N7965 X10.4759 Y-0.4129
N7970 X10.4778 Y-0.4159 Z6.8708
N7975 X10.4801 Y-0.419 Z6.8707
N7980 X10.4828 Y-0.4221 Z6.8706
N7985 X10.4855 Y-0.4249 Z6.8705
N7990 X10.4883 Y-0.4274 Z6.8704
N7995 X10.4914 Y-0.4298 Z6.8703
N8000 X10.4946 Y-0.4318 Z6.8702
N8005 X10.4985 Y-0.434 Z6.8701
N8010 X10.5027 Y-0.436 Z6.8699
N8015 X10.5072 Y-0.4377 Z6.8698
N8020 X10.5115 Y-0.4391 Z6.8696
N8025 X10.5159 Y-0.4402 Z6.8694
N8030 X10.5205 Y-0.441 Z6.8693
N8035 X10.5249 Y-0.4415 Z6.8691
N8040 X10.5302 Y-0.4418 Z6.8689
N8045 X10.5341 Z6.8688
N8050 X10.539 Y-0.4416 Z6.8686
N8055 X10.5434 Y-0.4413 Z6.8685
N8060 X10.5482 Y-0.4405 Z6.8683
N8065 X10.5529 Y-0.4395 Z6.8681
N8070 X10.5577 Y-0.4382 Z6.8679
N8075 X10.5623 Y-0.4365 Z6.8678
N8080 X10.5659 Y-0.435 Z6.8677
N8085 X10.5695 Y-0.4332 Z6.8676
N8090 X10.5729 Y-0.4312 Z6.8675
N8095 X10.576 Y-0.4291 Z6.8673
N8100 X10.5789 Y-0.4269
N8105 X10.5819 Y-0.4244 Z6.8672
N8110 X10.5846 Y-0.4216 Z6.8671
N8115 X10.5871 Y-0.4187 Z6.867
N8120 X10.5895 Y-0.4156 Z6.8669
N8125 X10.5916 Y-0.4122 Z6.8668
N8130 X10.5934 Y-0.4087
N8135 X10.595 Y-0.4051 Z6.8667
N8140 X10.5961 Y-0.4019
N8145 X10.597 Y-0.3985
N8150 X10.5976 Y-0.3954
N8155 X10.598 Y-0.3925 Z6.8666
N8160 X10.5983 Y-0.388
N8165 X10.5982 Y-0.3855
N8170 X10.5979 Y-0.3808
N8175 X10.5973 Y-0.3774 Z6.8667
N8180 X10.5966 Y-0.3742
N8185 X10.5956 Y-0.371
N8190 X10.5944 Y-0.368 Z6.8668
N8195 X10.593 Y-0.3649
N8200 X10.5914 Y-0.3618 Z6.8669
N8205 X10.5897 Y-0.359
N8210 X10.5877 Y-0.3562 Z6.867
N8215 X10.5854 Y-0.3533
N8220 X10.5829 Y-0.3506 Z6.8671
N8225 X10.5804 Y-0.3481 Z6.8672
N8230 X10.5779 Y-0.346 Z6.8673
N8235 X10.5751 Y-0.344 Z6.8674
N8240 X10.5716 Y-0.3419 Z6.8675
N8245 X10.5693 Y-0.3406 Z6.8676
N8250 X10.4908 Y-0.293 Z6.8703
N8255 X10.4857 Y-0.29 Z6.8705
N8260 X10.4832 Y-0.2883 Z6.8706
N8265 X10.4807 Y-0.2865 Z6.8707
N8270 X10.4779 Y-0.2841 Z6.8708
N8275 X10.475 Y-0.2813 Z6.8709
N8280 X10.4724 Y-0.2786 Z6.871
N8285 X10.4697 Y-0.2756 Z6.8711
N8290 X10.4671 Y-0.2722 Z6.8712
N8295 X10.4646 Y-0.2686 Z6.8713
N8300 X10.4624 Y-0.2648 Z6.8714
N8305 X10.4605 Y-0.2611
N8310 X10.4589 Y-0.2574 Z6.8715
N8315 X10.4575 Y-0.2534
N8320 X10.4564 Y-0.2495 Z6.8716
N8325 X10.4555 Y-0.2457
N8330 X10.4548 Y-0.2413
N8335 X10.4541 Y-0.2344 Z6.8717
N8340 X10.4546 Y-0.2291 Z6.8716
N8345 X10.4551 Y-0.2254
N8350 X10.4559 Y-0.2211
N8355 X10.457 Y-0.2171
N8360 X10.4582 Y-0.2133 Z6.8715
N8365 X10.4598 Y-0.2094
N8370 X10.4618 Y-0.2054 Z6.8714
N8375 X10.4636 Y-0.202 Z6.8713
N8380 X10.4657 Y-0.1987 Z6.8712
N8385 X10.4684 Y-0.1949 Z6.8711
N8390 X10.4714 Y-0.1912 Z6.871
N8395 X10.4747 Y-0.1876 Z6.8709
N8400 X10.4782 Y-0.1844 Z6.8708
N8405 X10.482 Y-0.1813 Z6.8707
N8410 X10.4858 Y-0.1786 Z6.8705
N8415 X10.4899 Y-0.1761 Z6.8704
N8420 X10.4942 Y-0.1738 Z6.8702
N8425 X10.4985 Y-0.1718 Z6.8701
N8430 X10.5028 Y-0.1701 Z6.8699
N8435 X10.5072 Y-0.1686 Z6.8698
N8440 X10.5119 Y-0.1674 Z6.8696
N8445 X10.5167 Y-0.1664 Z6.8694
N8450 X10.521 Y-0.1657 Z6.8693
N8455 X10.5252 Y-0.1653 Z6.8691
N8460 X10.531 Y-0.1651 Z6.8689
N8465 X10.5345 Y-0.165 Z6.8688
N8470 X10.5395 Y-0.1653 Z6.8686
N8475 X10.544 Y-0.1656 Z6.8684
N8480 X10.5491 Y-0.1664 Z6.8683
N8485 X10.554 Y-0.1674 Z6.8681
N8490 X10.559 Y-0.1688 Z6.8679
N8495 X10.5638 Y-0.1704 Z6.8677
N8500 X10.5686 Y-0.1723 Z6.8676
N8505 X10.573 Y-0.1745 Z6.8674
N8510 X10.5773 Y-0.1769 Z6.8673
N8515 X10.5811 Y-0.1792 Z6.8672
N8520 X10.5849 Y-0.1819 Z6.8671
N8525 X10.5886 Y-0.1849 Z6.8669
N8530 X10.5921 Y-0.1882 Z6.8668
N8535 X10.5951 Y-0.1914 Z6.8667
N8540 X10.5978 Y-0.1947 Z6.8666
N8545 X10.6003 Y-0.198
N8550 X10.6025 Y-0.2015 Z6.8665
N8555 X10.6046 Y-0.2051 Z6.8664
N8560 X10.6064 Y-0.2086
N8565 X10.6079 Y-0.2123 Z6.8663
N8570 X10.6093 Y-0.2164
N8575 X10.6106 Y-0.2211 Z6.8662
N8580 X10.6114 Y-0.2246
N8585 X10.6119 Y-0.2278
N8590 X10.6125 Y-0.2333
N8595 X10.6126 Y-0.2346
N8600 Y-0.2347
N8605 G0 Z7.3559
N8610 Z6.9523
N8615 G1 Z6.8562 F1.
N8620 X10.6118 Y-0.242 F3.
N8625 X10.611 Y-0.2465
N8630 X10.61 Y-0.2505 Z6.8563
N8635 X10.6088 Y-0.2544
N8640 X10.6076 Y-0.2577
N8645 X10.606 Y-0.2615 Z6.8564
N8650 X10.6039 Y-0.2655 Z6.8565
N8655 X10.6016 Y-0.2693
N8660 X10.599 Y-0.273 Z6.8566
N8665 X10.5963 Y-0.2765 Z6.8567
N8670 X10.5932 Y-0.2799 Z6.8568
N8675 X10.5899 Y-0.283 Z6.8569
N8680 X10.5865 Y-0.2859 Z6.857
N8685 X10.5828 Y-0.2886 Z6.8571
N8690 X10.5777 Y-0.2918 Z6.8573
N8695 X10.5081 Y-0.3341 Z6.8597
N8700 X10.4973 Y-0.3407 Z6.8601
N8705 X10.4931 Y-0.3428 Z6.8603
N8710 X10.491 Y-0.3441
N8715 X10.489 Y-0.3454 Z6.8604
N8720 X10.4867 Y-0.3473 Z6.8605
N8725 X10.4845 Y-0.3494 Z6.8606
N8730 X10.4823 Y-0.3517
N8735 X10.4802 Y-0.3543 Z6.8607
N8740 X10.4781 Y-0.3571 Z6.8608
N8745 X10.4762 Y-0.3601 Z6.8609
N8750 X10.4745 Y-0.3632
N8755 X10.4729 Y-0.3665 Z6.861
N8760 X10.4716 Y-0.3699
N8765 X10.4704 Y-0.3733 Z6.8611
N8770 X10.4695 Y-0.3768
N8775 X10.4688 Y-0.3805
N8780 X10.4682 Y-0.3862 Z6.8612
N8785 X10.4681 Y-0.3873
N8790 X10.4688 Y-0.3924 Z6.8611
N8795 X10.4694 Y-0.3956
N8800 X10.4702 Y-0.3991
N8805 X10.4713 Y-0.4026 Z6.861
N8810 X10.4726 Y-0.4062
N8815 X10.4742 Y-0.4096 Z6.8609
N8820 X10.4759 Y-0.4129
N8825 X10.4778 Y-0.4159 Z6.8608
N8830 X10.4801 Y-0.419 Z6.8607
N8835 X10.4828 Y-0.4221 Z6.8606
N8840 X10.4855 Y-0.4249 Z6.8605
N8845 X10.4883 Y-0.4274 Z6.8604
N8850 X10.4914 Y-0.4298 Z6.8603
N8855 X10.4946 Y-0.4318 Z6.8602
N8860 X10.4985 Y-0.434 Z6.8601
N8865 X10.5027 Y-0.436 Z6.8599
N8870 X10.5072 Y-0.4377 Z6.8598
N8875 X10.5115 Y-0.4391 Z6.8596
N8880 X10.5159 Y-0.4402 Z6.8594
N8885 X10.5205 Y-0.441 Z6.8593
N8890 X10.5249 Y-0.4415 Z6.8591
N8895 X10.5302 Y-0.4418 Z6.8589
N8900 X10.5341 Z6.8588
N8905 X10.539 Y-0.4416 Z6.8586
N8910 X10.5434 Y-0.4413 Z6.8585
N8915 X10.5482 Y-0.4405 Z6.8583
N8920 X10.5529 Y-0.4395 Z6.8581
N8925 X10.5577 Y-0.4382 Z6.8579
N8930 X10.5623 Y-0.4365 Z6.8578
N8935 X10.5659 Y-0.435 Z6.8577
N8940 X10.5695 Y-0.4332 Z6.8576
N8945 X10.5729 Y-0.4312 Z6.8575
N8950 X10.576 Y-0.4291 Z6.8573
N8955 X10.5789 Y-0.4269
N8960 X10.5819 Y-0.4244 Z6.8572
N8965 X10.5846 Y-0.4216 Z6.8571
N8970 X10.5871 Y-0.4187 Z6.857
N8975 X10.5895 Y-0.4156 Z6.8569
N8980 X10.5916 Y-0.4122 Z6.8568
N8985 X10.5934 Y-0.4087
N8990 X10.595 Y-0.4051 Z6.8567
N8995 X10.5961 Y-0.4019
N9000 X10.597 Y-0.3985
N9005 X10.5976 Y-0.3954
N9010 X10.598 Y-0.3925 Z6.8566
N9015 X10.5983 Y-0.388
N9020 X10.5982 Y-0.3855
N9025 X10.5979 Y-0.3808
N9030 X10.5973 Y-0.3774 Z6.8567
N9035 X10.5966 Y-0.3742
N9040 X10.5956 Y-0.371
N9045 X10.5944 Y-0.368 Z6.8568
N9050 X10.593 Y-0.3649
N9055 X10.5914 Y-0.3618 Z6.8569
N9060 X10.5897 Y-0.359
N9065 X10.5877 Y-0.3562 Z6.857
N9070 X10.5854 Y-0.3533
N9075 X10.5829 Y-0.3506 Z6.8571
N9080 X10.5804 Y-0.3481 Z6.8572
N9085 X10.5779 Y-0.346 Z6.8573
N9090 X10.5751 Y-0.344 Z6.8574
N9095 X10.5716 Y-0.3419 Z6.8575
N9100 X10.5693 Y-0.3406 Z6.8576
N9105 X10.4908 Y-0.293 Z6.8603
N9110 X10.4857 Y-0.29 Z6.8605
N9115 X10.4832 Y-0.2883 Z6.8606
N9120 X10.4807 Y-0.2865 Z6.8607
N9125 X10.4779 Y-0.2841 Z6.8608
N9130 X10.475 Y-0.2813 Z6.8609
N9135 X10.4724 Y-0.2786 Z6.861
N9140 X10.4697 Y-0.2756 Z6.8611
N9145 X10.4671 Y-0.2722 Z6.8612
N9150 X10.4646 Y-0.2686 Z6.8613
N9155 X10.4624 Y-0.2648 Z6.8614
N9160 X10.4605 Y-0.2611
N9165 X10.4589 Y-0.2574 Z6.8615
N9170 X10.4575 Y-0.2534
N9175 X10.4564 Y-0.2495 Z6.8616
N9180 X10.4555 Y-0.2457
N9185 X10.4548 Y-0.2413
N9190 X10.4541 Y-0.2344 Z6.8617
N9195 X10.4546 Y-0.2291 Z6.8616
N9200 X10.4551 Y-0.2254
N9205 X10.4559 Y-0.2211
N9210 X10.457 Y-0.2171
N9215 X10.4582 Y-0.2133 Z6.8615
N9220 X10.4598 Y-0.2094
N9225 X10.4618 Y-0.2054 Z6.8614
N9230 X10.4636 Y-0.202 Z6.8613
N9235 X10.4657 Y-0.1987 Z6.8612
N9240 X10.4684 Y-0.1949 Z6.8611
N9245 X10.4714 Y-0.1912 Z6.861
N9250 X10.4747 Y-0.1876 Z6.8609
N9255 X10.4782 Y-0.1844 Z6.8608
N9260 X10.482 Y-0.1813 Z6.8607
N9265 X10.4858 Y-0.1786 Z6.8605
N9270 X10.4899 Y-0.1761 Z6.8604
N9275 X10.4942 Y-0.1738 Z6.8602
N9280 X10.4985 Y-0.1718 Z6.8601
N9285 X10.5028 Y-0.1701 Z6.8599
N9290 X10.5072 Y-0.1686 Z6.8598
N9295 X10.5119 Y-0.1674 Z6.8596
N9300 X10.5167 Y-0.1664 Z6.8594
N9305 X10.521 Y-0.1657 Z6.8593
N9310 X10.5252 Y-0.1653 Z6.8591
N9315 X10.531 Y-0.1651 Z6.8589
N9320 X10.5345 Y-0.165 Z6.8588
N9325 X10.5395 Y-0.1653 Z6.8586
N9330 X10.544 Y-0.1656 Z6.8584
N9335 X10.5491 Y-0.1664 Z6.8583
N9340 X10.554 Y-0.1674 Z6.8581
N9345 X10.559 Y-0.1688 Z6.8579
N9350 X10.5638 Y-0.1704 Z6.8577
N9355 X10.5686 Y-0.1723 Z6.8576
N9360 X10.573 Y-0.1745 Z6.8574
N9365 X10.5773 Y-0.1769 Z6.8573
N9370 X10.5811 Y-0.1792 Z6.8572
N9375 X10.5849 Y-0.1819 Z6.8571
N9380 X10.5886 Y-0.1849 Z6.8569
N9385 X10.5921 Y-0.1882 Z6.8568
N9390 X10.5951 Y-0.1914 Z6.8567
N9395 X10.5978 Y-0.1947 Z6.8566
N9400 X10.6003 Y-0.198
N9405 X10.6025 Y-0.2015 Z6.8565
N9410 X10.6046 Y-0.2051 Z6.8564
N9415 X10.6064 Y-0.2086
N9420 X10.6079 Y-0.2123 Z6.8563
N9425 X10.6093 Y-0.2164
N9430 X10.6106 Y-0.2211 Z6.8562
N9435 X10.6114 Y-0.2246
N9440 X10.6119 Y-0.2278
N9445 X10.6125 Y-0.2333
N9450 X10.6126 Y-0.2346
N9455 Y-0.2347
N9460 G0 Z7.3559
N9465 X10.6125
N9470 Z6.9523
N9475 G1 Z6.8462 F1.
N9480 X10.6118 Y-0.242 F3.
N9485 X10.611 Y-0.2465
N9490 X10.61 Y-0.2505 Z6.8463
N9495 X10.6088 Y-0.2544
N9500 X10.6076 Y-0.2577
N9505 X10.606 Y-0.2615 Z6.8464
N9510 X10.6039 Y-0.2655 Z6.8465
N9515 X10.6016 Y-0.2693
N9520 X10.599 Y-0.273 Z6.8466
N9525 X10.5963 Y-0.2765 Z6.8467
N9530 X10.5932 Y-0.2799 Z6.8468
N9535 X10.5899 Y-0.283 Z6.8469
N9540 X10.5865 Y-0.2859 Z6.847
N9545 X10.5828 Y-0.2886 Z6.8471
N9550 X10.5777 Y-0.2918 Z6.8473
N9555 X10.5081 Y-0.3341 Z6.8497
N9560 X10.4973 Y-0.3407 Z6.8501
N9565 X10.4931 Y-0.3428 Z6.8503
N9570 X10.491 Y-0.3441
N9575 X10.489 Y-0.3454 Z6.8504
N9580 X10.4867 Y-0.3473 Z6.8505
N9585 X10.4845 Y-0.3494 Z6.8506
N9590 X10.4823 Y-0.3517
N9595 X10.4802 Y-0.3543 Z6.8507
N9600 X10.4781 Y-0.3571 Z6.8508
N9605 X10.4762 Y-0.3601 Z6.8509
N9610 X10.4745 Y-0.3632
N9615 X10.4729 Y-0.3665 Z6.851
N9620 X10.4716 Y-0.3699
N9625 X10.4704 Y-0.3733 Z6.8511
N9630 X10.4695 Y-0.3768
N9635 X10.4688 Y-0.3805
N9640 X10.4682 Y-0.3862 Z6.8512
N9645 X10.4681 Y-0.3873
N9650 X10.4688 Y-0.3924 Z6.8511
N9655 X10.4694 Y-0.3956
N9660 X10.4702 Y-0.3991
N9665 X10.4713 Y-0.4026 Z6.851
N9670 X10.4726 Y-0.4062
N9675 X10.4742 Y-0.4096 Z6.8509
N9680 X10.4759 Y-0.4129
N9685 X10.4778 Y-0.4159 Z6.8508
N9690 X10.4801 Y-0.419 Z6.8507
N9695 X10.4828 Y-0.4221 Z6.8506
N9700 X10.4855 Y-0.4249 Z6.8505
N9705 X10.4883 Y-0.4274 Z6.8504
N9710 X10.4914 Y-0.4298 Z6.8503
N9715 X10.4946 Y-0.4318 Z6.8502
N9720 X10.4985 Y-0.434 Z6.8501
N9725 X10.5027 Y-0.436 Z6.8499
N9730 X10.5072 Y-0.4377 Z6.8498
N9735 X10.5115 Y-0.4391 Z6.8496
N9740 X10.5159 Y-0.4402 Z6.8494
N9745 X10.5205 Y-0.441 Z6.8493
N9750 X10.5249 Y-0.4415 Z6.8491
N9755 X10.5302 Y-0.4418 Z6.8489
N9760 X10.5341 Z6.8488
N9765 X10.539 Y-0.4416 Z6.8486
N9770 X10.5434 Y-0.4413 Z6.8485
N9775 X10.5482 Y-0.4405 Z6.8483
N9780 X10.5529 Y-0.4395 Z6.8481
N9785 X10.5577 Y-0.4382 Z6.8479
N9790 X10.5623 Y-0.4365 Z6.8478
N9795 X10.5659 Y-0.435 Z6.8477
N9800 X10.5695 Y-0.4332 Z6.8476
N9805 X10.5729 Y-0.4312 Z6.8475
N9810 X10.576 Y-0.4291 Z6.8473
N9815 X10.5789 Y-0.4269
N9820 X10.5819 Y-0.4244 Z6.8472
N9825 X10.5846 Y-0.4216 Z6.8471
N9830 X10.5871 Y-0.4187 Z6.847
N9835 X10.5895 Y-0.4156 Z6.8469
N9840 X10.5916 Y-0.4122 Z6.8468
N9845 X10.5934 Y-0.4087
N9850 X10.595 Y-0.4051 Z6.8467
N9855 X10.5961 Y-0.4019
N9860 X10.597 Y-0.3985
N9865 X10.5976 Y-0.3954
N9870 X10.598 Y-0.3925 Z6.8466
N9875 X10.5983 Y-0.388
N9880 X10.5982 Y-0.3855
N9885 X10.5979 Y-0.3808
N9890 X10.5973 Y-0.3774 Z6.8467
N9895 X10.5966 Y-0.3742
N9900 X10.5956 Y-0.371
N9905 X10.5944 Y-0.368 Z6.8468
N9910 X10.593 Y-0.3649
N9915 X10.5914 Y-0.3618 Z6.8469
N9920 X10.5897 Y-0.359
N9925 X10.5877 Y-0.3562 Z6.847
N9930 X10.5854 Y-0.3533
N9935 X10.5829 Y-0.3506 Z6.8471
N9940 X10.5804 Y-0.3481 Z6.8472
N9945 X10.5779 Y-0.346 Z6.8473
N9950 X10.5751 Y-0.344 Z6.8474
N9955 X10.5716 Y-0.3419 Z6.8475
N9960 X10.5693 Y-0.3406 Z6.8476
N9965 X10.4908 Y-0.293 Z6.8503
N9970 X10.4857 Y-0.29 Z6.8505
N9975 X10.4832 Y-0.2883 Z6.8506
N9980 X10.4807 Y-0.2865 Z6.8507
N9985 X10.4779 Y-0.2841 Z6.8508
N9990 X10.475 Y-0.2813 Z6.8509
N9995 X10.4724 Y-0.2786 Z6.851
N10000 X10.4697 Y-0.2756 Z6.8511
N10005 X10.4671 Y-0.2722 Z6.8512
N10010 X10.4646 Y-0.2686 Z6.8513
N10015 X10.4624 Y-0.2648 Z6.8514
N10020 X10.4605 Y-0.2611
N10025 X10.4589 Y-0.2574 Z6.8515
N10030 X10.4575 Y-0.2534
N10035 X10.4564 Y-0.2495 Z6.8516
N10040 X10.4555 Y-0.2457
N10045 X10.4548 Y-0.2413
N10050 X10.4541 Y-0.2344 Z6.8517
N10055 X10.4546 Y-0.2291 Z6.8516
N10060 X10.4551 Y-0.2254
N10065 X10.4559 Y-0.2211
N10070 X10.457 Y-0.2171
N10075 X10.4582 Y-0.2133 Z6.8515
N10080 X10.4598 Y-0.2094
N10085 X10.4618 Y-0.2054 Z6.8514
N10090 X10.4636 Y-0.202 Z6.8513
N10095 X10.4657 Y-0.1987 Z6.8512
N10100 X10.4684 Y-0.1949 Z6.8511
N10105 X10.4714 Y-0.1912 Z6.851
N10110 X10.4747 Y-0.1876 Z6.8509
N10115 X10.4782 Y-0.1844 Z6.8508
N10120 X10.482 Y-0.1813 Z6.8507
N10125 X10.4858 Y-0.1786 Z6.8505
N10130 X10.4899 Y-0.1761 Z6.8504
N10135 X10.4942 Y-0.1738 Z6.8502
N10140 X10.4985 Y-0.1718 Z6.8501
N10145 X10.5028 Y-0.1701 Z6.8499
N10150 X10.5072 Y-0.1686 Z6.8498
N10155 X10.5119 Y-0.1674 Z6.8496
N10160 X10.5167 Y-0.1664 Z6.8494
N10165 X10.521 Y-0.1657 Z6.8493
N10170 X10.5252 Y-0.1653 Z6.8491
N10175 X10.531 Y-0.1651 Z6.8489
N10180 X10.5345 Y-0.165 Z6.8488
N10185 X10.5395 Y-0.1653 Z6.8486
N10190 X10.544 Y-0.1656 Z6.8484
N10195 X10.5491 Y-0.1664 Z6.8483
N10200 X10.554 Y-0.1674 Z6.8481
N10205 X10.559 Y-0.1688 Z6.8479
N10210 X10.5638 Y-0.1704 Z6.8477
N10215 X10.5686 Y-0.1723 Z6.8476
N10220 X10.573 Y-0.1745 Z6.8474
N10225 X10.5773 Y-0.1769 Z6.8473
N10230 X10.5811 Y-0.1792 Z6.8472
N10235 X10.5849 Y-0.1819 Z6.8471
N10240 X10.5886 Y-0.1849 Z6.8469
N10245 X10.5921 Y-0.1882 Z6.8468
N10250 X10.5951 Y-0.1914 Z6.8467
N10255 X10.5978 Y-0.1947 Z6.8466
N10260 X10.6003 Y-0.198
N10265 X10.6025 Y-0.2015 Z6.8465
N10270 X10.6046 Y-0.2051 Z6.8464
N10275 X10.6064 Y-0.2086
N10280 X10.6079 Y-0.2123 Z6.8463
N10285 X10.6093 Y-0.2164
N10290 X10.6106 Y-0.2211 Z6.8462
N10295 X10.6114 Y-0.2246
N10300 X10.6119 Y-0.2278
N10305 X10.6125 Y-0.2333
N10310 X10.6126 Y-0.2346
N10315 X10.6125 Y-0.2347
N10320 G0 Z7.3559
N10325 X10.2925 Y-0.2346
N10330 Z6.9648
N10335 G1 Z6.8882 F1.
N10340 X10.2918 Y-0.242 Z6.8883 F3.
N10345 X10.291 Y-0.2465
N10350 X10.29 Y-0.2505
N10355 X10.2888 Y-0.2543 Z6.8884
N10360 X10.2876 Y-0.2577
N10365 X10.2859 Y-0.2614 Z6.8885
N10370 X10.2839 Y-0.2655 Z6.8886
N10375 X10.2815 Y-0.2693 Z6.8887
N10380 X10.279 Y-0.273 Z6.8888
N10385 X10.2762 Y-0.2765 Z6.8889
N10390 X10.2732 Y-0.2798 Z6.8891
N10395 X10.2699 Y-0.283 Z6.8892
N10400 X10.2665 Y-0.2859 Z6.8893
N10405 X10.2628 Y-0.2886 Z6.8895
N10410 X10.2577 Y-0.2918 Z6.8897
N10415 X10.2024 Y-0.3254 Z6.8922
N10420 X10.1773 Y-0.3406 Z6.8934
N10425 X10.1732 Y-0.3428 Z6.8936
N10430 X10.1711 Y-0.344 Z6.8937
N10435 X10.1691 Y-0.3454 Z6.8938
N10440 X10.1667 Y-0.3472 Z6.8939
N10445 X10.1645 Y-0.3494 Z6.894
N10450 X10.1623 Y-0.3517 Z6.8941
N10455 X10.1601 Y-0.3543 Z6.8942
N10460 X10.1581 Y-0.3571 Z6.8943
N10465 X10.1562 Y-0.3601 Z6.8944
N10470 X10.1544 Y-0.3632 Z6.8945
N10475 X10.1529 Y-0.3665 Z6.8946
N10480 X10.1515 Y-0.3699
N10485 X10.1504 Y-0.3733 Z6.8947
N10490 X10.1495 Y-0.3768
N10495 X10.1488 Y-0.3805
N10500 X10.1481 Y-0.3862 Z6.8948
N10505 Y-0.3873
N10510 X10.1487 Y-0.3923 Z6.8947
N10515 X10.1493 Y-0.3956
N10520 X10.1501 Y-0.399
N10525 X10.1512 Y-0.4026 Z6.8946
N10530 X10.1526 Y-0.4062
N10535 X10.1542 Y-0.4096 Z6.8945
N10540 X10.1559 Y-0.4129 Z6.8944
N10545 X10.1578 Y-0.4159 Z6.8943
N10550 X10.16 Y-0.419 Z6.8942
N10555 X10.1627 Y-0.4221 Z6.8941
N10560 X10.1655 Y-0.4249 Z6.894
N10565 X10.1683 Y-0.4274 Z6.8938
N10570 X10.1714 Y-0.4298 Z6.8937
N10575 X10.1746 Y-0.4318 Z6.8935
N10580 X10.1785 Y-0.434 Z6.8934
N10585 X10.1826 Y-0.436 Z6.8932
N10590 X10.1871 Y-0.4377 Z6.8929
N10595 X10.1914 Y-0.4391 Z6.8927
N10600 X10.1958 Y-0.4401 Z6.8925
N10605 X10.2005 Y-0.441 Z6.8923
N10610 X10.2049 Y-0.4415 Z6.8921
N10615 X10.2101 Y-0.4418 Z6.8919
N10620 X10.214 Z6.8917
N10625 X10.2189 Y-0.4416 Z6.8915
N10630 X10.2233 Y-0.4413 Z6.8912
N10635 X10.2281 Y-0.4405 Z6.891
N10640 X10.2329 Y-0.4395 Z6.8908
N10645 X10.2376 Y-0.4382 Z6.8906
N10650 X10.2422 Y-0.4365 Z6.8904
N10655 X10.2459 Y-0.435 Z6.8902
N10660 X10.2494 Y-0.4332 Z6.8901
N10665 X10.2528 Y-0.4312 Z6.8899
N10670 X10.256 Y-0.4291 Z6.8898
N10675 X10.2589 Y-0.4269 Z6.8897
N10680 X10.2618 Y-0.4244 Z6.8895
N10685 X10.2646 Y-0.4216 Z6.8894
N10690 X10.2671 Y-0.4187 Z6.8893
N10695 X10.2694 Y-0.4156 Z6.8892
N10700 X10.2716 Y-0.4122 Z6.8891
N10705 X10.2734 Y-0.4087 Z6.889
N10710 X10.275 Y-0.4051
N10715 X10.2761 Y-0.4019 Z6.8889
N10720 X10.277 Y-0.3985
N10725 X10.2776 Y-0.3954
N10730 X10.278 Y-0.3925 Z6.8888
N10735 X10.2782 Y-0.388
N10740 Y-0.3855
N10745 X10.2778 Y-0.3808 Z6.8889
N10750 X10.2773 Y-0.3774
N10755 X10.2765 Y-0.3742
N10760 X10.2756 Y-0.371
N10765 X10.2744 Y-0.368 Z6.889
N10770 X10.273 Y-0.3649 Z6.8891
N10775 X10.2714 Y-0.3618
N10780 X10.2697 Y-0.359 Z6.8892
N10785 X10.2677 Y-0.3562 Z6.8893
N10790 X10.2654 Y-0.3533 Z6.8894
N10795 X10.2629 Y-0.3506 Z6.8895
N10800 X10.2604 Y-0.3481 Z6.8896
N10805 X10.2578 Y-0.346 Z6.8897
N10810 X10.2551 Y-0.344 Z6.8898
N10815 X10.2516 Y-0.3419 Z6.89
N10820 X10.2493 Y-0.3406 Z6.8901
N10825 X10.1708 Y-0.293 Z6.8937
N10830 X10.1657 Y-0.29 Z6.8939
N10835 X10.1632 Y-0.2883 Z6.8941
N10840 X10.1608 Y-0.2865 Z6.8942
N10845 X10.1579 Y-0.2841 Z6.8943
N10850 X10.1549 Y-0.2814 Z6.8945
N10855 X10.1523 Y-0.2786 Z6.8946
N10860 X10.1497 Y-0.2756 Z6.8947
N10865 X10.1471 Y-0.2722 Z6.8948
N10870 X10.1446 Y-0.2687 Z6.8949
N10875 X10.1423 Y-0.2649 Z6.895
N10880 X10.1405 Y-0.2612 Z6.8951
N10885 X10.1389 Y-0.2574 Z6.8952
N10890 X10.1375 Y-0.2535 Z6.8953
N10895 X10.1364 Y-0.2496
N10900 X10.1355 Y-0.2457 Z6.8954
N10905 X10.1348 Y-0.2414
N10910 X10.134 Y-0.2344
N10915 X10.1345 Y-0.2291
N10920 X10.135 Y-0.2254
N10925 X10.1359 Y-0.2211 Z6.8953
N10930 X10.137 Y-0.2171
N10935 X10.1382 Y-0.2133 Z6.8952
N10940 X10.1398 Y-0.2094
N10945 X10.1417 Y-0.2054 Z6.8951
N10950 X10.1436 Y-0.202 Z6.895
N10955 X10.1456 Y-0.1987 Z6.8949
N10960 X10.1483 Y-0.1949 Z6.8948
N10965 X10.1513 Y-0.1912 Z6.8946
N10970 X10.1546 Y-0.1877 Z6.8945
N10975 X10.1582 Y-0.1844 Z6.8943
N10980 X10.1619 Y-0.1813 Z6.8941
N10985 X10.1658 Y-0.1786 Z6.8939
N10990 X10.1698 Y-0.1761 Z6.8938
N10995 X10.1742 Y-0.1738 Z6.8936
N11000 X10.1785 Y-0.1718 Z6.8933
N11005 X10.1828 Y-0.1701 Z6.8931
N11010 X10.1872 Y-0.1686 Z6.8929
N11015 X10.1919 Y-0.1674 Z6.8927
N11020 X10.1967 Y-0.1664 Z6.8925
N11025 X10.201 Y-0.1657 Z6.8923
N11030 X10.2051 Y-0.1653 Z6.8921
N11035 X10.2109 Y-0.1651 Z6.8918
N11040 X10.2144 Y-0.165 Z6.8917
N11045 X10.2194 Y-0.1653 Z6.8914
N11050 X10.2239 Y-0.1656 Z6.8912
N11055 X10.229 Y-0.1664 Z6.891
N11060 X10.2339 Y-0.1674 Z6.8907
N11065 X10.2389 Y-0.1688 Z6.8905
N11070 X10.2438 Y-0.1704 Z6.8903
N11075 X10.2485 Y-0.1723 Z6.8901
N11080 X10.253 Y-0.1745 Z6.8899
N11085 X10.2572 Y-0.1768 Z6.8897
N11090 X10.261 Y-0.1792 Z6.8896
N11095 X10.2648 Y-0.1819 Z6.8894
N11100 X10.2685 Y-0.1849 Z6.8893
N11105 X10.2721 Y-0.1882 Z6.8891
N11110 X10.275 Y-0.1914 Z6.889
N11115 X10.2778 Y-0.1947 Z6.8889
N11120 X10.2802 Y-0.198 Z6.8887
N11125 X10.2825 Y-0.2015
N11130 X10.2846 Y-0.2051 Z6.8886
N11135 X10.2863 Y-0.2086 Z6.8885
N11140 X10.2879 Y-0.2123 Z6.8884
N11145 X10.2893 Y-0.2164
N11150 X10.2906 Y-0.2211 Z6.8883
N11155 X10.2913 Y-0.2246
N11160 X10.2919 Y-0.2278 Z6.8882
N11165 X10.2924 Y-0.2333
N11170 X10.2925 Y-0.2346
N11175 G0 Z7.3559
N11180 Y-0.2347
N11185 Z6.9648
N11190 G1 Z6.8782 F1.
N11195 X10.2918 Y-0.242 Z6.8783 F3.
N11200 X10.291 Y-0.2465
N11205 X10.29 Y-0.2505
N11210 X10.2888 Y-0.2543 Z6.8784
N11215 X10.2876 Y-0.2577
N11220 X10.2859 Y-0.2614 Z6.8785
N11225 X10.2839 Y-0.2655 Z6.8786
N11230 X10.2815 Y-0.2693 Z6.8787
N11235 X10.279 Y-0.273 Z6.8788
N11240 X10.2762 Y-0.2765 Z6.8789
N11245 X10.2732 Y-0.2798 Z6.8791
N11250 X10.2699 Y-0.283 Z6.8792
N11255 X10.2665 Y-0.2859 Z6.8793
N11260 X10.2628 Y-0.2886 Z6.8795
N11265 X10.2577 Y-0.2918 Z6.8797
N11270 X10.2024 Y-0.3254 Z6.8822
N11275 X10.1773 Y-0.3406 Z6.8834
N11280 X10.1732 Y-0.3428 Z6.8836
N11285 X10.1711 Y-0.344 Z6.8837
N11290 X10.1691 Y-0.3454 Z6.8838
N11295 X10.1667 Y-0.3472 Z6.8839
N11300 X10.1645 Y-0.3494 Z6.884
N11305 X10.1623 Y-0.3517 Z6.8841
N11310 X10.1601 Y-0.3543 Z6.8842
N11315 X10.1581 Y-0.3571 Z6.8843
N11320 X10.1562 Y-0.3601 Z6.8844
N11325 X10.1544 Y-0.3632 Z6.8845
N11330 X10.1529 Y-0.3665 Z6.8846
N11335 X10.1515 Y-0.3699
N11340 X10.1504 Y-0.3733 Z6.8847
N11345 X10.1495 Y-0.3768
N11350 X10.1488 Y-0.3805
N11355 X10.1481 Y-0.3862 Z6.8848
N11360 Y-0.3873
N11365 X10.1487 Y-0.3923 Z6.8847
N11370 X10.1493 Y-0.3956
N11375 X10.1501 Y-0.399
N11380 X10.1512 Y-0.4026 Z6.8846
N11385 X10.1526 Y-0.4062
N11390 X10.1542 Y-0.4096 Z6.8845
N11395 X10.1559 Y-0.4129 Z6.8844
N11400 X10.1578 Y-0.4159 Z6.8843
N11405 X10.16 Y-0.419 Z6.8842
N11410 X10.1627 Y-0.4221 Z6.8841
N11415 X10.1655 Y-0.4249 Z6.884
N11420 X10.1683 Y-0.4274 Z6.8838
N11425 X10.1714 Y-0.4298 Z6.8837
N11430 X10.1746 Y-0.4318 Z6.8835
N11435 X10.1785 Y-0.434 Z6.8834
N11440 X10.1826 Y-0.436 Z6.8832
N11445 X10.1871 Y-0.4377 Z6.8829
N11450 X10.1914 Y-0.4391 Z6.8827
N11455 X10.1958 Y-0.4401 Z6.8825
N11460 X10.2005 Y-0.441 Z6.8823
N11465 X10.2049 Y-0.4415 Z6.8821
N11470 X10.2101 Y-0.4418 Z6.8819
N11475 X10.214 Z6.8817
N11480 X10.2189 Y-0.4416 Z6.8815
N11485 X10.2233 Y-0.4413 Z6.8812
N11490 X10.2281 Y-0.4405 Z6.881
N11495 X10.2329 Y-0.4395 Z6.8808
N11500 X10.2376 Y-0.4382 Z6.8806
N11505 X10.2422 Y-0.4365 Z6.8804
N11510 X10.2459 Y-0.435 Z6.8802
N11515 X10.2494 Y-0.4332 Z6.8801
N11520 X10.2528 Y-0.4312 Z6.8799
N11525 X10.256 Y-0.4291 Z6.8798
N11530 X10.2589 Y-0.4269 Z6.8797
N11535 X10.2618 Y-0.4244 Z6.8795
N11540 X10.2646 Y-0.4216 Z6.8794
N11545 X10.2671 Y-0.4187 Z6.8793
N11550 X10.2694 Y-0.4156 Z6.8792
N11555 X10.2716 Y-0.4122 Z6.8791
N11560 X10.2734 Y-0.4087 Z6.879
N11565 X10.275 Y-0.4051
N11570 X10.2761 Y-0.4019 Z6.8789
N11575 X10.277 Y-0.3985
N11580 X10.2776 Y-0.3954
N11585 X10.278 Y-0.3925 Z6.8788
N11590 X10.2782 Y-0.388
N11595 Y-0.3855
N11600 X10.2778 Y-0.3808 Z6.8789
N11605 X10.2773 Y-0.3774
N11610 X10.2765 Y-0.3742
N11615 X10.2756 Y-0.371
N11620 X10.2744 Y-0.368 Z6.879
N11625 X10.273 Y-0.3649 Z6.8791
N11630 X10.2714 Y-0.3618
N11635 X10.2697 Y-0.359 Z6.8792
N11640 X10.2677 Y-0.3562 Z6.8793
N11645 X10.2654 Y-0.3533 Z6.8794
N11650 X10.2629 Y-0.3506 Z6.8795
N11655 X10.2604 Y-0.3481 Z6.8796
N11660 X10.2578 Y-0.346 Z6.8797
N11665 X10.2551 Y-0.344 Z6.8798
N11670 X10.2516 Y-0.3419 Z6.88
N11675 X10.2493 Y-0.3406 Z6.8801
N11680 X10.1708 Y-0.293 Z6.8837
N11685 X10.1657 Y-0.29 Z6.8839
N11690 X10.1632 Y-0.2883 Z6.8841
N11695 X10.1608 Y-0.2865 Z6.8842
N11700 X10.1579 Y-0.2841 Z6.8843
N11705 X10.1549 Y-0.2814 Z6.8845
N11710 X10.1523 Y-0.2786 Z6.8846
N11715 X10.1497 Y-0.2756 Z6.8847
N11720 X10.1471 Y-0.2722 Z6.8848
N11725 X10.1446 Y-0.2687 Z6.8849
N11730 X10.1423 Y-0.2649 Z6.885
N11735 X10.1405 Y-0.2612 Z6.8851
N11740 X10.1389 Y-0.2574 Z6.8852
N11745 X10.1375 Y-0.2535 Z6.8853
N11750 X10.1364 Y-0.2496
N11755 X10.1355 Y-0.2457 Z6.8854
N11760 X10.1348 Y-0.2414
N11765 X10.134 Y-0.2344
N11770 X10.1345 Y-0.2291
N11775 X10.135 Y-0.2254
N11780 X10.1359 Y-0.2211 Z6.8853
N11785 X10.137 Y-0.2171
N11790 X10.1382 Y-0.2133 Z6.8852
N11795 X10.1398 Y-0.2094
N11800 X10.1417 Y-0.2054 Z6.8851
N11805 X10.1436 Y-0.202 Z6.885
N11810 X10.1456 Y-0.1987 Z6.8849
N11815 X10.1483 Y-0.1949 Z6.8848
N11820 X10.1513 Y-0.1912 Z6.8846
N11825 X10.1546 Y-0.1877 Z6.8845
N11830 X10.1582 Y-0.1844 Z6.8843
N11835 X10.1619 Y-0.1813 Z6.8841
N11840 X10.1658 Y-0.1786 Z6.8839
N11845 X10.1698 Y-0.1761 Z6.8838
N11850 X10.1742 Y-0.1738 Z6.8836
N11855 X10.1785 Y-0.1718 Z6.8833
N11860 X10.1828 Y-0.1701 Z6.8831
N11865 X10.1872 Y-0.1686 Z6.8829
N11870 X10.1919 Y-0.1674 Z6.8827
N11875 X10.1967 Y-0.1664 Z6.8825
N11880 X10.201 Y-0.1657 Z6.8823
N11885 X10.2051 Y-0.1653 Z6.8821
N11890 X10.2109 Y-0.1651 Z6.8818
N11895 X10.2144 Y-0.165 Z6.8817
N11900 X10.2194 Y-0.1653 Z6.8814
N11905 X10.2239 Y-0.1656 Z6.8812
N11910 X10.229 Y-0.1664 Z6.881
N11915 X10.2339 Y-0.1674 Z6.8807
N11920 X10.2389 Y-0.1688 Z6.8805
N11925 X10.2438 Y-0.1704 Z6.8803
N11930 X10.2485 Y-0.1723 Z6.8801
N11935 X10.253 Y-0.1745 Z6.8799
N11940 X10.2572 Y-0.1768 Z6.8797
N11945 X10.261 Y-0.1792 Z6.8796
N11950 X10.2648 Y-0.1819 Z6.8794
N11955 X10.2685 Y-0.1849 Z6.8793
N11960 X10.2721 Y-0.1882 Z6.8791
N11965 X10.275 Y-0.1914 Z6.879
N11970 X10.2778 Y-0.1947 Z6.8789
N11975 X10.2802 Y-0.198 Z6.8787
N11980 X10.2825 Y-0.2015
N11985 X10.2846 Y-0.2051 Z6.8786
N11990 X10.2863 Y-0.2086 Z6.8785
N11995 X10.2879 Y-0.2123 Z6.8784
N12000 X10.2893 Y-0.2164
N12005 X10.2906 Y-0.2211 Z6.8783
N12010 X10.2913 Y-0.2246
N12015 X10.2919 Y-0.2278 Z6.8782
N12020 X10.2924 Y-0.2333
N12025 X10.2925 Y-0.2346
N12030 Y-0.2347
N12035 G0 Z7.3559
N12040 Z6.9648
N12045 G1 Z6.8682 F1.
N12050 X10.2918 Y-0.242 Z6.8683 F3.
N12055 X10.291 Y-0.2465
N12060 X10.29 Y-0.2505
N12065 X10.2888 Y-0.2543 Z6.8684
N12070 X10.2876 Y-0.2577
N12075 X10.2859 Y-0.2614 Z6.8685
N12080 X10.2839 Y-0.2655 Z6.8686
N12085 X10.2815 Y-0.2693 Z6.8687
N12090 X10.279 Y-0.273 Z6.8688
N12095 X10.2762 Y-0.2765 Z6.8689
N12100 X10.2732 Y-0.2798 Z6.8691
N12105 X10.2699 Y-0.283 Z6.8692
N12110 X10.2665 Y-0.2859 Z6.8693
N12115 X10.2628 Y-0.2886 Z6.8695
N12120 X10.2577 Y-0.2918 Z6.8697
N12125 X10.2024 Y-0.3254 Z6.8722
N12130 X10.1773 Y-0.3406 Z6.8734
N12135 X10.1732 Y-0.3428 Z6.8736
N12140 X10.1711 Y-0.344 Z6.8737
N12145 X10.1691 Y-0.3454 Z6.8738
N12150 X10.1667 Y-0.3472 Z6.8739
N12155 X10.1645 Y-0.3494 Z6.874
N12160 X10.1623 Y-0.3517 Z6.8741
N12165 X10.1601 Y-0.3543 Z6.8742
N12170 X10.1581 Y-0.3571 Z6.8743
N12175 X10.1562 Y-0.3601 Z6.8744
N12180 X10.1544 Y-0.3632 Z6.8745
N12185 X10.1529 Y-0.3665 Z6.8746
N12190 X10.1515 Y-0.3699
N12195 X10.1504 Y-0.3733 Z6.8747
N12200 X10.1495 Y-0.3768
N12205 X10.1488 Y-0.3805
N12210 X10.1481 Y-0.3862 Z6.8748
N12215 Y-0.3873
N12220 X10.1487 Y-0.3923 Z6.8747
N12225 X10.1493 Y-0.3956
N12230 X10.1501 Y-0.399
N12235 X10.1512 Y-0.4026 Z6.8746
N12240 X10.1526 Y-0.4062
N12245 X10.1542 Y-0.4096 Z6.8745
N12250 X10.1559 Y-0.4129 Z6.8744
N12255 X10.1578 Y-0.4159 Z6.8743
N12260 X10.16 Y-0.419 Z6.8742
N12265 X10.1627 Y-0.4221 Z6.8741
N12270 X10.1655 Y-0.4249 Z6.874
N12275 X10.1683 Y-0.4274 Z6.8738
N12280 X10.1714 Y-0.4298 Z6.8737
N12285 X10.1746 Y-0.4318 Z6.8735
N12290 X10.1785 Y-0.434 Z6.8734
N12295 X10.1826 Y-0.436 Z6.8732
N12300 X10.1871 Y-0.4377 Z6.8729
N12305 X10.1914 Y-0.4391 Z6.8727
N12310 X10.1958 Y-0.4401 Z6.8725
N12315 X10.2005 Y-0.441 Z6.8723
N12320 X10.2049 Y-0.4415 Z6.8721
N12325 X10.2101 Y-0.4418 Z6.8719
N12330 X10.214 Z6.8717
N12335 X10.2189 Y-0.4416 Z6.8715
N12340 X10.2233 Y-0.4413 Z6.8712
N12345 X10.2281 Y-0.4405 Z6.871
N12350 X10.2329 Y-0.4395 Z6.8708
N12355 X10.2376 Y-0.4382 Z6.8706
N12360 X10.2422 Y-0.4365 Z6.8704
N12365 X10.2459 Y-0.435 Z6.8702
N12370 X10.2494 Y-0.4332 Z6.8701
N12375 X10.2528 Y-0.4312 Z6.8699
N12380 X10.256 Y-0.4291 Z6.8698
N12385 X10.2589 Y-0.4269 Z6.8697
N12390 X10.2618 Y-0.4244 Z6.8695
N12395 X10.2646 Y-0.4216 Z6.8694
N12400 X10.2671 Y-0.4187 Z6.8693
N12405 X10.2694 Y-0.4156 Z6.8692
N12410 X10.2716 Y-0.4122 Z6.8691
N12415 X10.2734 Y-0.4087 Z6.869
N12420 X10.275 Y-0.4051
N12425 X10.2761 Y-0.4019 Z6.8689
N12430 X10.277 Y-0.3985
N12435 X10.2776 Y-0.3954
N12440 X10.278 Y-0.3925 Z6.8688
N12445 X10.2782 Y-0.388
N12450 Y-0.3855
N12455 X10.2778 Y-0.3808 Z6.8689
N12460 X10.2773 Y-0.3774
N12465 X10.2765 Y-0.3742
N12470 X10.2756 Y-0.371
N12475 X10.2744 Y-0.368 Z6.869
N12480 X10.273 Y-0.3649 Z6.8691
N12485 X10.2714 Y-0.3618
N12490 X10.2697 Y-0.359 Z6.8692
N12495 X10.2677 Y-0.3562 Z6.8693
N12500 X10.2654 Y-0.3533 Z6.8694
N12505 X10.2629 Y-0.3506 Z6.8695
N12510 X10.2604 Y-0.3481 Z6.8696
N12515 X10.2578 Y-0.346 Z6.8697
N12520 X10.2551 Y-0.344 Z6.8698
N12525 X10.2516 Y-0.3419 Z6.87
N12530 X10.2493 Y-0.3406 Z6.8701
N12535 X10.1708 Y-0.293 Z6.8737
N12540 X10.1657 Y-0.29 Z6.8739
N12545 X10.1632 Y-0.2883 Z6.8741
N12550 X10.1608 Y-0.2865 Z6.8742
N12555 X10.1579 Y-0.2841 Z6.8743
N12560 X10.1549 Y-0.2814 Z6.8745
N12565 X10.1523 Y-0.2786 Z6.8746
N12570 X10.1497 Y-0.2756 Z6.8747
N12575 X10.1471 Y-0.2722 Z6.8748
N12580 X10.1446 Y-0.2687 Z6.8749
N12585 X10.1423 Y-0.2649 Z6.875
N12590 X10.1405 Y-0.2612 Z6.8751
N12595 X10.1389 Y-0.2574 Z6.8752
N12600 X10.1375 Y-0.2535 Z6.8753
N12605 X10.1364 Y-0.2496
N12610 X10.1355 Y-0.2457 Z6.8754
N12615 X10.1348 Y-0.2414
N12620 X10.134 Y-0.2344
N12625 X10.1345 Y-0.2291
N12630 X10.135 Y-0.2254
N12635 X10.1359 Y-0.2211 Z6.8753
N12640 X10.137 Y-0.2171
N12645 X10.1382 Y-0.2133 Z6.8752
N12650 X10.1398 Y-0.2094
N12655 X10.1417 Y-0.2054 Z6.8751
N12660 X10.1436 Y-0.202 Z6.875
N12665 X10.1456 Y-0.1987 Z6.8749
N12670 X10.1483 Y-0.1949 Z6.8748
N12675 X10.1513 Y-0.1912 Z6.8746
N12680 X10.1546 Y-0.1877 Z6.8745
N12685 X10.1582 Y-0.1844 Z6.8743
N12690 X10.1619 Y-0.1813 Z6.8741
N12695 X10.1658 Y-0.1786 Z6.8739
N12700 X10.1698 Y-0.1761 Z6.8738
N12705 X10.1742 Y-0.1738 Z6.8736
N12710 X10.1785 Y-0.1718 Z6.8733
N12715 X10.1828 Y-0.1701 Z6.8731
N12720 X10.1872 Y-0.1686 Z6.8729
N12725 X10.1919 Y-0.1674 Z6.8727
N12730 X10.1967 Y-0.1664 Z6.8725
N12735 X10.201 Y-0.1657 Z6.8723
N12740 X10.2051 Y-0.1653 Z6.8721
N12745 X10.2109 Y-0.1651 Z6.8718
N12750 X10.2144 Y-0.165 Z6.8717
N12755 X10.2194 Y-0.1653 Z6.8714
N12760 X10.2239 Y-0.1656 Z6.8712
N12765 X10.229 Y-0.1664 Z6.871
N12770 X10.2339 Y-0.1674 Z6.8707
N12775 X10.2389 Y-0.1688 Z6.8705
N12780 X10.2438 Y-0.1704 Z6.8703
N12785 X10.2485 Y-0.1723 Z6.8701
N12790 X10.253 Y-0.1745 Z6.8699
N12795 X10.2572 Y-0.1768 Z6.8697
N12800 X10.261 Y-0.1792 Z6.8696
N12805 X10.2648 Y-0.1819 Z6.8694
N12810 X10.2685 Y-0.1849 Z6.8693
N12815 X10.2721 Y-0.1882 Z6.8691
N12820 X10.275 Y-0.1914 Z6.869
N12825 X10.2778 Y-0.1947 Z6.8689
N12830 X10.2802 Y-0.198 Z6.8687
N12835 X10.2825 Y-0.2015
N12840 X10.2846 Y-0.2051 Z6.8686
N12845 X10.2863 Y-0.2086 Z6.8685
N12850 X10.2879 Y-0.2123 Z6.8684
N12855 X10.2893 Y-0.2164
N12860 X10.2906 Y-0.2211 Z6.8683
N12865 X10.2913 Y-0.2246
N12870 X10.2919 Y-0.2278 Z6.8682
N12875 X10.2924 Y-0.2333
N12880 X10.2925 Y-0.2346
N12885 Y-0.2347
N12890 G0 Z7.3559
N12895 Y-0.2348
N12900 Z6.9648
N12905 G1 Z6.8582 F1.
N12910 X10.2918 Y-0.242 Z6.8583 F3.
N12915 X10.291 Y-0.2465
N12920 X10.29 Y-0.2505
N12925 X10.2888 Y-0.2543 Z6.8584
N12930 X10.2876 Y-0.2577
N12935 X10.2859 Y-0.2614 Z6.8585
N12940 X10.2839 Y-0.2655 Z6.8586
N12945 X10.2815 Y-0.2693 Z6.8587
N12950 X10.279 Y-0.273 Z6.8588
N12955 X10.2762 Y-0.2765 Z6.8589
N12960 X10.2732 Y-0.2798 Z6.8591
N12965 X10.2699 Y-0.283 Z6.8592
N12970 X10.2665 Y-0.2859 Z6.8593
N12975 X10.2628 Y-0.2886 Z6.8595
N12980 X10.2577 Y-0.2918 Z6.8597
N12985 X10.2024 Y-0.3254 Z6.8622
N12990 X10.1773 Y-0.3406 Z6.8634
N12995 X10.1732 Y-0.3428 Z6.8636
N13000 X10.1711 Y-0.344 Z6.8637
N13005 X10.1691 Y-0.3454 Z6.8638
N13010 X10.1667 Y-0.3472 Z6.8639
N13015 X10.1645 Y-0.3494 Z6.864
N13020 X10.1623 Y-0.3517 Z6.8641
N13025 X10.1601 Y-0.3543 Z6.8642
N13030 X10.1581 Y-0.3571 Z6.8643
N13035 X10.1562 Y-0.3601 Z6.8644
N13040 X10.1544 Y-0.3632 Z6.8645
N13045 X10.1529 Y-0.3665 Z6.8646
N13050 X10.1515 Y-0.3699
N13055 X10.1504 Y-0.3733 Z6.8647
N13060 X10.1495 Y-0.3768
N13065 X10.1488 Y-0.3805
N13070 X10.1481 Y-0.3862 Z6.8648
N13075 Y-0.3873
N13080 X10.1487 Y-0.3923 Z6.8647
N13085 X10.1493 Y-0.3956
N13090 X10.1501 Y-0.399
N13095 X10.1512 Y-0.4026 Z6.8646
N13100 X10.1526 Y-0.4062
N13105 X10.1542 Y-0.4096 Z6.8645
N13110 X10.1559 Y-0.4129 Z6.8644
N13115 X10.1578 Y-0.4159 Z6.8643
N13120 X10.16 Y-0.419 Z6.8642
N13125 X10.1627 Y-0.4221 Z6.8641
N13130 X10.1655 Y-0.4249 Z6.864
N13135 X10.1683 Y-0.4274 Z6.8638
N13140 X10.1714 Y-0.4298 Z6.8637
N13145 X10.1746 Y-0.4318 Z6.8635
N13150 X10.1785 Y-0.434 Z6.8634
N13155 X10.1826 Y-0.436 Z6.8632
N13160 X10.1871 Y-0.4377 Z6.8629
N13165 X10.1914 Y-0.4391 Z6.8627
N13170 X10.1958 Y-0.4401 Z6.8625
N13175 X10.2005 Y-0.441 Z6.8623
N13180 X10.2049 Y-0.4415 Z6.8621
N13185 X10.2101 Y-0.4418 Z6.8619
N13190 X10.214 Z6.8617
N13195 X10.2189 Y-0.4416 Z6.8615
N13200 X10.2233 Y-0.4413 Z6.8612
N13205 X10.2281 Y-0.4405 Z6.861
N13210 X10.2329 Y-0.4395 Z6.8608
N13215 X10.2376 Y-0.4382 Z6.8606
N13220 X10.2422 Y-0.4365 Z6.8604
N13225 X10.2459 Y-0.435 Z6.8602
N13230 X10.2494 Y-0.4332 Z6.8601
N13235 X10.2528 Y-0.4312 Z6.8599
N13240 X10.256 Y-0.4291 Z6.8598
N13245 X10.2589 Y-0.4269 Z6.8597
N13250 X10.2618 Y-0.4244 Z6.8595
N13255 X10.2646 Y-0.4216 Z6.8594
N13260 X10.2671 Y-0.4187 Z6.8593
N13265 X10.2694 Y-0.4156 Z6.8592
N13270 X10.2716 Y-0.4122 Z6.8591
N13275 X10.2734 Y-0.4087 Z6.859
N13280 X10.275 Y-0.4051
N13285 X10.2761 Y-0.4019 Z6.8589
N13290 X10.277 Y-0.3985
N13295 X10.2776 Y-0.3954
N13300 X10.278 Y-0.3925 Z6.8588
N13305 X10.2782 Y-0.388
N13310 Y-0.3855
N13315 X10.2778 Y-0.3808 Z6.8589
N13320 X10.2773 Y-0.3774
N13325 X10.2765 Y-0.3742
N13330 X10.2756 Y-0.371
N13335 X10.2744 Y-0.368 Z6.859
N13340 X10.273 Y-0.3649 Z6.8591
N13345 X10.2714 Y-0.3618
N13350 X10.2697 Y-0.359 Z6.8592
N13355 X10.2677 Y-0.3562 Z6.8593
N13360 X10.2654 Y-0.3533 Z6.8594
N13365 X10.2629 Y-0.3506 Z6.8595
N13370 X10.2604 Y-0.3481 Z6.8596
N13375 X10.2578 Y-0.346 Z6.8597
N13380 X10.2551 Y-0.344 Z6.8598
N13385 X10.2516 Y-0.3419 Z6.86
N13390 X10.2493 Y-0.3406 Z6.8601
N13395 X10.1708 Y-0.293 Z6.8637
N13400 X10.1657 Y-0.29 Z6.8639
N13405 X10.1632 Y-0.2883 Z6.8641
N13410 X10.1608 Y-0.2865 Z6.8642
N13415 X10.1579 Y-0.2841 Z6.8643
N13420 X10.1549 Y-0.2814 Z6.8645
N13425 X10.1523 Y-0.2786 Z6.8646
N13430 X10.1497 Y-0.2756 Z6.8647
N13435 X10.1471 Y-0.2722 Z6.8648
N13440 X10.1446 Y-0.2687 Z6.8649
N13445 X10.1423 Y-0.2649 Z6.865
N13450 X10.1405 Y-0.2612 Z6.8651
N13455 X10.1389 Y-0.2574 Z6.8652
N13460 X10.1375 Y-0.2535 Z6.8653
N13465 X10.1364 Y-0.2496
N13470 X10.1355 Y-0.2457 Z6.8654
N13475 X10.1348 Y-0.2414
N13480 X10.134 Y-0.2344
N13485 X10.1345 Y-0.2291
N13490 X10.135 Y-0.2254
N13495 X10.1359 Y-0.2211 Z6.8653
N13500 X10.137 Y-0.2171
N13505 X10.1382 Y-0.2133 Z6.8652
N13510 X10.1398 Y-0.2094
N13515 X10.1417 Y-0.2054 Z6.8651
N13520 X10.1436 Y-0.202 Z6.865
N13525 X10.1456 Y-0.1987 Z6.8649
N13530 X10.1483 Y-0.1949 Z6.8648
N13535 X10.1513 Y-0.1912 Z6.8646
N13540 X10.1546 Y-0.1877 Z6.8645
N13545 X10.1582 Y-0.1844 Z6.8643
N13550 X10.1619 Y-0.1813 Z6.8641
N13555 X10.1658 Y-0.1786 Z6.8639
N13560 X10.1698 Y-0.1761 Z6.8638
N13565 X10.1742 Y-0.1738 Z6.8636
N13570 X10.1785 Y-0.1718 Z6.8633
N13575 X10.1828 Y-0.1701 Z6.8631
N13580 X10.1872 Y-0.1686 Z6.8629
N13585 X10.1919 Y-0.1674 Z6.8627
N13590 X10.1967 Y-0.1664 Z6.8625
N13595 X10.201 Y-0.1657 Z6.8623
N13600 X10.2051 Y-0.1653 Z6.8621
N13605 X10.2109 Y-0.1651 Z6.8618
N13610 X10.2144 Y-0.165 Z6.8617
N13615 X10.2194 Y-0.1653 Z6.8614
N13620 X10.2239 Y-0.1656 Z6.8612
N13625 X10.229 Y-0.1664 Z6.861
N13630 X10.2339 Y-0.1674 Z6.8607
N13635 X10.2389 Y-0.1688 Z6.8605
N13640 X10.2438 Y-0.1704 Z6.8603
N13645 X10.2485 Y-0.1723 Z6.8601
N13650 X10.253 Y-0.1745 Z6.8599
N13655 X10.2572 Y-0.1768 Z6.8597
N13660 X10.261 Y-0.1792 Z6.8596
N13665 X10.2648 Y-0.1819 Z6.8594
N13670 X10.2685 Y-0.1849 Z6.8593
N13675 X10.2721 Y-0.1882 Z6.8591
N13680 X10.275 Y-0.1914 Z6.859
N13685 X10.2778 Y-0.1947 Z6.8589
N13690 X10.2802 Y-0.198 Z6.8587
N13695 X10.2825 Y-0.2015
N13700 X10.2846 Y-0.2051 Z6.8586
N13705 X10.2863 Y-0.2086 Z6.8585
N13710 X10.2879 Y-0.2123 Z6.8584
N13715 X10.2893 Y-0.2164
N13720 X10.2906 Y-0.2211 Z6.8583
N13725 X10.2913 Y-0.2246
N13730 X10.2919 Y-0.2278 Z6.8582
N13735 X10.2924 Y-0.2333
N13740 X10.2925 Y-0.2346
N13745 Y-0.2348
N13750 G0 Z7.6059

N13755 M5
N13760 M9
N13765 G53 G0 Z0.
N13770 G53 G0 X0. Y0.
N13775 G49
N13780 G69
N13785 G0 A0. C0.
N13790 M99
