O1111 (EMTSERIALSUB-4444)
(T50 D=0.125 CR=0. TAPER=30DEG - CHAMFER MILL)
N10 G90 G94 G17 G49
N15 G20
N20 G53 G0 Z0.

(SERIAL ENGRAVE TIT)
N25 T50 M6
N30 S18000 M3
N35 G90 G94 G17
N40 G54.1 P2
N45 G68.2 X0. Y0. Z0. I107.642 J90. K180.
N50 G53.1 P2
N55 M8
N60 G0 X11.1324 Y-0.165
N65 G43 Z7.6059 H50
N70 G0 Z6.9395
N75 G1 Z6.864 F1.
N80 Y-0.3034 F3.
N85 Z6.854 F1.
N90 Y-0.165 F3.
N95 Z6.844 F1.
N100 Y-0.3034 F3.
N105 Z6.834 F1.
N110 Y-0.165 F3.
N115 G0 Z7.3559
N120 X11.0914 Y-0.2351
N125 Z6.9402
N130 G1 Z6.8646 F1.
N135 X11.1879 Z6.8632 F3.
N140 X11.2455 Z6.8626
N145 Y-0.2555
N150 X11.23 Y-0.2921 Z6.8627
N155 X11.1681 Y-0.4383 Z6.8635
N160 Z6.8535 F1.
N165 X11.23 Y-0.2921 Z6.8527 F3.
N170 X11.2455 Y-0.2555 Z6.8526
N175 Y-0.2351
N180 X11.1879 Z6.8532
N185 X11.0914 Z6.8546
N190 Z6.8446 F1.
N195 X11.1879 Z6.8432 F3.
N200 X11.2455 Z6.8426
N205 Y-0.2555
N210 X11.23 Y-0.2921 Z6.8427
N215 X11.1681 Y-0.4383 Z6.8435
N220 Z6.8335 F1.
N225 X11.23 Y-0.2921 Z6.8327 F3.
N230 X11.2455 Y-0.2555 Z6.8326
N235 Y-0.2351
N240 X11.1879 Z6.8332
N245 X11.0914 Z6.8346
N250 G0 Z7.3559
N255 X10.8123 Y-0.3034
N260 Z6.9463
N265 G1 Z6.8704 F1.
N270 Y-0.165 F3.
N275 Z6.8604 F1.
N280 Y-0.3034 F3.
N285 Z6.8504 F1.
N290 Y-0.165 F3.
N295 Z6.8404 F1.
N300 Y-0.3034 F3.
N305 G0 Z7.3559
N310 X10.7714 Y-0.2351
N315 Z6.9474
N320 G1 Z6.8714 F1.
N325 X10.8642 Z6.8691 F3.
N330 X10.9255 Z6.8678
N335 Y-0.2555
N340 X10.9062 Y-0.3009 Z6.8682
N345 X10.8481 Y-0.4383 Z6.8695
N350 Z6.8595 F1.
N355 X10.9062 Y-0.3009 Z6.8582 F3.
N360 X10.9255 Y-0.2555 Z6.8578
N365 Y-0.2351
N370 X10.8642 Z6.8591
N375 X10.7714 Z6.8614
N380 Z6.8514 F1.
N385 X10.8642 Z6.8491 F3.
N390 X10.9255 Z6.8478
N395 Y-0.2555
N400 X10.9062 Y-0.3009 Z6.8482
N405 X10.8481 Y-0.4383 Z6.8495
N410 Z6.8395 F1.
N415 X10.9062 Y-0.3009 Z6.8382 F3.
N420 X10.9255 Y-0.2555 Z6.8378
N425 Y-0.2351
N430 X10.8642 Z6.8391
N435 X10.7714 Z6.8414
N440 G0 Z7.3559
N445 X10.4923 Y-0.3034
N450 Z6.9566
N455 G1 Z6.8803 F1.
N460 Y-0.165 F3.
N465 Z6.8703 F1.
N470 Y-0.3034 F3.
N475 Z6.8603 F1.
N480 Y-0.165 F3.
N485 Z6.8503 F1.
N490 Y-0.3034 F3.
N495 G0 Z7.3559
N500 X10.4514 Y-0.2351
N505 Z6.9582
N510 G1 Z6.8818 F1.
N515 X10.5401 Z6.8786 F3.
N520 X10.6054 Z6.8764
N525 Y-0.2555
N530 X10.5833 Y-0.3078 Z6.8771
N535 X10.5281 Y-0.4383 Z6.879
N540 Z6.869 F1.
N545 X10.5833 Y-0.3078 Z6.8671 F3.
N550 X10.6054 Y-0.2555 Z6.8664
N555 Y-0.2351
N560 X10.5401 Z6.8686
N565 X10.4514 Z6.8718
N570 Z6.8618 F1.
N575 X10.5401 Z6.8586 F3.
N580 X10.6054 Z6.8564
N585 Y-0.2555
N590 X10.5833 Y-0.3078 Z6.8571
N595 X10.5281 Y-0.4383 Z6.859
N600 Z6.849 F1.
N605 X10.5833 Y-0.3078 Z6.8471 F3.
N610 X10.6054 Y-0.2555 Z6.8464
N615 Y-0.2351
N620 X10.5401 Z6.8486
N625 X10.4514 Z6.8518
N630 G0 Z7.3559
N635 X10.1723 Y-0.3034
N640 Z6.9703
N645 G1 Z6.8936 F1.
N650 Y-0.165 F3.
N655 Z6.8836 F1.
N660 Y-0.3034 F3.
N665 Z6.8736 F1.
N670 Y-0.165 F3.
N675 Z6.8636 F1.
N680 Y-0.3034 F3.
N685 G0 Z7.3559
N690 X10.1313 Y-0.2351
N695 Z6.9724
N700 G1 Z6.8956 F1.
N705 X10.2158 Z6.8916 F3.
N710 X10.2854 Z6.8885
N715 Y-0.2555
N720 X10.2623 Y-0.3101 Z6.8895
N725 X10.208 Y-0.4383 Z6.892
N730 Z6.882 F1.
N735 X10.2623 Y-0.3101 Z6.8795 F3.
N740 X10.2854 Y-0.2555 Z6.8785
N745 Y-0.2351
N750 X10.2158 Z6.8816
N755 X10.1313 Z6.8856
N760 Z6.8756 F1.
N765 X10.2158 Z6.8716 F3.
N770 X10.2854 Z6.8685
N775 Y-0.2555
N780 X10.2623 Y-0.3101 Z6.8695
N785 X10.208 Y-0.4383 Z6.872
N790 Z6.862 F1.
N795 X10.2623 Y-0.3101 Z6.8595 F3.
N800 X10.2854 Y-0.2555 Z6.8585
N805 Y-0.2351
N810 X10.2158 Z6.8616
N815 X10.1313 Z6.8656
N820 G0 Z7.6059

N825 M5
N830 M9
N835 G53 G0 Z0.
N840 G53 G0 X0. Y0.
N845 G49
N850 G69
N855 G0 A0. C0.
N860 M99
