O1111 (EMTSERIALSUB-2222)
(T50 D=0.125 CR=0. TAPER=30DEG - CHAMFER MILL)
N10 G90 G94 G17 G49
N15 G20
N20 G53 G0 Z0.

(SERIAL ENGRAVE TIT)
N25 T50 M6
N30 S18000 M3
N35 G90 G94 G17
N40 G54.1 P2
N45 G68.2 X0. Y0. Z0. I107.642 J90. K180.
N50 G53.1 P2
N55 M8
N60 G0 X11.0979 Y-0.165
N65 G43 Z7.6059 H50
N70 G0 Z6.9401
N75 G1 Z6.8645 F1.
N80 X11.1862 Z6.8633 F3.
N85 X11.2418 Z6.8626
N90 Y-0.1732
N95 X11.2417 Y-0.1843
N100 X11.2414 Y-0.1918
N105 X11.2409 Y-0.1965
N110 X11.2402 Y-0.2008
N115 X11.2392 Y-0.2053 Z6.8627
N120 X11.238 Y-0.2098
N125 X11.2366 Y-0.2143
N130 X11.2349 Y-0.2187
N135 X11.2328 Y-0.2234
N140 X11.2306 Y-0.2279
N145 X11.2281 Y-0.2323 Z6.8628
N150 X11.2253 Y-0.2366
N155 X11.2222 Y-0.2409
N160 X11.219 Y-0.2451 Z6.8629
N165 X11.2157 Y-0.2488
N170 X11.2128 Y-0.2517
N175 X11.2077 Y-0.2565 Z6.863
N180 X11.1241 Y-0.3253 Z6.8641
N185 X11.1208 Y-0.3282 Z6.8642
N190 X11.1187 Y-0.3304
N195 X11.1165 Y-0.3329
N200 X11.1141 Y-0.3361 Z6.8643
N205 X11.1119 Y-0.3393
N210 X11.1099 Y-0.3426
N215 X11.1077 Y-0.3469 Z6.8644
N220 X11.1059 Y-0.3513
N225 X11.1043 Y-0.3557
N230 X11.1032 Y-0.3594
N235 X11.1023 Y-0.3635
N240 X11.1018 Y-0.3679
N245 X11.1014 Y-0.3738
N250 Y-0.3763
N255 X11.1017 Y-0.3816
N260 X11.1022 Y-0.3853
N265 X11.103 Y-0.3891
N270 X11.104 Y-0.3929
N275 X11.1053 Y-0.3967
N280 X11.1072 Y-0.4011
N285 X11.1094 Y-0.4055 Z6.8643
N290 X11.112 Y-0.4096
N295 X11.1148 Y-0.4134
N300 X11.1178 Y-0.4171 Z6.8642
N305 X11.1211 Y-0.4204
N310 X11.1246 Y-0.4235 Z6.8641
N315 X11.1285 Y-0.4265
N320 X11.1322 Y-0.4291 Z6.864
N325 X11.136 Y-0.4313
N330 X11.1405 Y-0.4336 Z6.8639
N335 X11.1448 Y-0.4355 Z6.8638
N340 X11.1493 Y-0.4372
N345 X11.1542 Y-0.4387 Z6.8637
N350 X11.1593 Y-0.44 Z6.8636
N355 X11.1643 Y-0.441
N360 X11.1691 Y-0.4416 Z6.8635
N365 X11.1734 Y-0.442
N370 X11.1794 Y-0.4422 Z6.8634
N375 X11.1848 Y-0.4421 Z6.8633
N380 X11.1899 Y-0.4417 Z6.8632
N385 X11.1959 Y-0.4411 Z6.8631
N390 X11.2022 Y-0.44
N395 X11.2079 Y-0.4388 Z6.863
N400 X11.2123 Y-0.4376 Z6.8629
N405 X11.2163 Y-0.4363
N410 X11.22 Y-0.4348 Z6.8628
N415 X11.2235 Y-0.4331
N420 X11.2291 Y-0.4301
N425 X11.2329 Y-0.428 Z6.8627
N430 X11.2365 Y-0.4256
N435 X11.2408 Y-0.4226 Z6.8626
N440 Z6.8526 F1.
N445 X11.2365 Y-0.4256 Z6.8527 F3.
N450 X11.2329 Y-0.428
N455 X11.2291 Y-0.4301 Z6.8528
N460 X11.2235 Y-0.4331
N465 X11.22 Y-0.4348
N470 X11.2163 Y-0.4363 Z6.8529
N475 X11.2123 Y-0.4376
N480 X11.2079 Y-0.4388 Z6.853
N485 X11.2022 Y-0.44 Z6.8531
N490 X11.1959 Y-0.4411
N495 X11.1899 Y-0.4417 Z6.8532
N500 X11.1848 Y-0.4421 Z6.8533
N505 X11.1794 Y-0.4422 Z6.8534
N510 X11.1734 Y-0.442 Z6.8535
N515 X11.1691 Y-0.4416
N520 X11.1643 Y-0.441 Z6.8536
N525 X11.1593 Y-0.44
N530 X11.1542 Y-0.4387 Z6.8537
N535 X11.1493 Y-0.4372 Z6.8538
N540 X11.1448 Y-0.4355
N545 X11.1405 Y-0.4336 Z6.8539
N550 X11.136 Y-0.4313 Z6.854
N555 X11.1322 Y-0.4291
N560 X11.1285 Y-0.4265 Z6.8541
N565 X11.1246 Y-0.4235
N570 X11.1211 Y-0.4204 Z6.8542
N575 X11.1178 Y-0.4171
N580 X11.1148 Y-0.4134 Z6.8543
N585 X11.112 Y-0.4096
N590 X11.1094 Y-0.4055
N595 X11.1072 Y-0.4011 Z6.8544
N600 X11.1053 Y-0.3967
N605 X11.104 Y-0.3929
N610 X11.103 Y-0.3891
N615 X11.1022 Y-0.3853
N620 X11.1017 Y-0.3816
N625 X11.1014 Y-0.3763
N630 Y-0.3738
N635 X11.1018 Y-0.3679
N640 X11.1023 Y-0.3635
N645 X11.1032 Y-0.3594
N650 X11.1043 Y-0.3557
N655 X11.1059 Y-0.3513
N660 X11.1077 Y-0.3469
N665 X11.1099 Y-0.3426 Z6.8543
N670 X11.1119 Y-0.3393
N675 X11.1141 Y-0.3361
N680 X11.1165 Y-0.3329 Z6.8542
N685 X11.1187 Y-0.3304
N690 X11.1208 Y-0.3282
N695 X11.1241 Y-0.3253 Z6.8541
N700 X11.2077 Y-0.2565 Z6.853
N705 X11.2128 Y-0.2517 Z6.8529
N710 X11.2157 Y-0.2488
N715 X11.219 Y-0.2451
N720 X11.2222 Y-0.2409 Z6.8528
N725 X11.2253 Y-0.2366
N730 X11.2281 Y-0.2323
N735 X11.2306 Y-0.2279 Z6.8527
N740 X11.2328 Y-0.2234
N745 X11.2349 Y-0.2187
N750 X11.2366 Y-0.2143
N755 X11.238 Y-0.2098
N760 X11.2392 Y-0.2053
N765 X11.2402 Y-0.2008 Z6.8526
N770 X11.2409 Y-0.1965
N775 X11.2414 Y-0.1918
N780 X11.2417 Y-0.1843
N785 X11.2418 Y-0.1732
N790 Y-0.165
N795 X11.1862 Z6.8533
N800 X11.0979 Z6.8545
N805 Z6.8445 F1.
N810 X11.1862 Z6.8433 F3.
N815 X11.2418 Z6.8426
N820 Y-0.1732
N825 X11.2417 Y-0.1843
N830 X11.2414 Y-0.1918
N835 X11.2409 Y-0.1965
N840 X11.2402 Y-0.2008
N845 X11.2392 Y-0.2053 Z6.8427
N850 X11.238 Y-0.2098
N855 X11.2366 Y-0.2143
N860 X11.2349 Y-0.2187
N865 X11.2328 Y-0.2234
N870 X11.2306 Y-0.2279
N875 X11.2281 Y-0.2323 Z6.8428
N880 X11.2253 Y-0.2366
N885 X11.2222 Y-0.2409
N890 X11.219 Y-0.2451 Z6.8429
N895 X11.2157 Y-0.2488
N900 X11.2128 Y-0.2517
N905 X11.2077 Y-0.2565 Z6.843
N910 X11.1241 Y-0.3253 Z6.8441
N915 X11.1208 Y-0.3282 Z6.8442
N920 X11.1187 Y-0.3304
N925 X11.1165 Y-0.3329
N930 X11.1141 Y-0.3361 Z6.8443
N935 X11.1119 Y-0.3393
N940 X11.1099 Y-0.3426
N945 X11.1077 Y-0.3469 Z6.8444
N950 X11.1059 Y-0.3513
N955 X11.1043 Y-0.3557
N960 X11.1032 Y-0.3594
N965 X11.1023 Y-0.3635
N970 X11.1018 Y-0.3679
N975 X11.1014 Y-0.3738
N980 Y-0.3763
N985 X11.1017 Y-0.3816
N990 X11.1022 Y-0.3853
N995 X11.103 Y-0.3891
N1000 X11.104 Y-0.3929
N1005 X11.1053 Y-0.3967
N1010 X11.1072 Y-0.4011
N1015 X11.1094 Y-0.4055 Z6.8443
N1020 X11.112 Y-0.4096
N1025 X11.1148 Y-0.4134
N1030 X11.1178 Y-0.4171 Z6.8442
N1035 X11.1211 Y-0.4204
N1040 X11.1246 Y-0.4235 Z6.8441
N1045 X11.1285 Y-0.4265
N1050 X11.1322 Y-0.4291 Z6.844
N1055 X11.136 Y-0.4313
N1060 X11.1405 Y-0.4336 Z6.8439
N1065 X11.1448 Y-0.4355 Z6.8438
N1070 X11.1493 Y-0.4372
N1075 X11.1542 Y-0.4387 Z6.8437
N1080 X11.1593 Y-0.44 Z6.8436
N1085 X11.1643 Y-0.441
N1090 X11.1691 Y-0.4416 Z6.8435
N1095 X11.1734 Y-0.442
N1100 X11.1794 Y-0.4422 Z6.8434
N1105 X11.1848 Y-0.4421 Z6.8433
N1110 X11.1899 Y-0.4417 Z6.8432
N1115 X11.1959 Y-0.4411 Z6.8431
N1120 X11.2022 Y-0.44
N1125 X11.2079 Y-0.4388 Z6.843
N1130 X11.2123 Y-0.4376 Z6.8429
N1135 X11.2163 Y-0.4363
N1140 X11.22 Y-0.4348 Z6.8428
N1145 X11.2235 Y-0.4331
N1150 X11.2291 Y-0.4301
N1155 X11.2329 Y-0.428 Z6.8427
N1160 X11.2365 Y-0.4256
N1165 X11.2408 Y-0.4226 Z6.8426
N1170 Z6.8326 F1.
N1175 X11.2365 Y-0.4256 Z6.8327 F3.
N1180 X11.2329 Y-0.428
N1185 X11.2291 Y-0.4301 Z6.8328
N1190 X11.2235 Y-0.4331
N1195 X11.22 Y-0.4348
N1200 X11.2163 Y-0.4363 Z6.8329
N1205 X11.2123 Y-0.4376
N1210 X11.2079 Y-0.4388 Z6.833
N1215 X11.2022 Y-0.44 Z6.8331
N1220 X11.1959 Y-0.4411
N1225 X11.1899 Y-0.4417 Z6.8332
N1230 X11.1848 Y-0.4421 Z6.8333
N1235 X11.1794 Y-0.4422 Z6.8334
N1240 X11.1734 Y-0.442 Z6.8335
N1245 X11.1691 Y-0.4416
N1250 X11.1643 Y-0.441 Z6.8336
N1255 X11.1593 Y-0.44
N1260 X11.1542 Y-0.4387 Z6.8337
N1265 X11.1493 Y-0.4372 Z6.8338
N1270 X11.1448 Y-0.4355
N1275 X11.1405 Y-0.4336 Z6.8339
N1280 X11.136 Y-0.4313 Z6.834
N1285 X11.1322 Y-0.4291
N1290 X11.1285 Y-0.4265 Z6.8341
N1295 X11.1246 Y-0.4235
N1300 X11.1211 Y-0.4204 Z6.8342
N1305 X11.1178 Y-0.4171
N1310 X11.1148 Y-0.4134 Z6.8343
N1315 X11.112 Y-0.4096
N1320 X11.1094 Y-0.4055
N1325 X11.1072 Y-0.4011 Z6.8344
N1330 X11.1053 Y-0.3967
N1335 X11.104 Y-0.3929
N1340 X11.103 Y-0.3891
N1345 X11.1022 Y-0.3853
N1350 X11.1017 Y-0.3816
N1355 X11.1014 Y-0.3763
N1360 Y-0.3738
N1365 X11.1018 Y-0.3679
N1370 X11.1023 Y-0.3635
N1375 X11.1032 Y-0.3594
N1380 X11.1043 Y-0.3557
N1385 X11.1059 Y-0.3513
N1390 X11.1077 Y-0.3469
N1395 X11.1099 Y-0.3426 Z6.8343
N1400 X11.1119 Y-0.3393
N1405 X11.1141 Y-0.3361
N1410 X11.1165 Y-0.3329 Z6.8342
N1415 X11.1187 Y-0.3304
N1420 X11.1208 Y-0.3282
N1425 X11.1241 Y-0.3253 Z6.8341
N1430 X11.2077 Y-0.2565 Z6.833
N1435 X11.2128 Y-0.2517 Z6.8329
N1440 X11.2157 Y-0.2488
N1445 X11.219 Y-0.2451
N1450 X11.2222 Y-0.2409 Z6.8328
N1455 X11.2253 Y-0.2366
N1460 X11.2281 Y-0.2323
N1465 X11.2306 Y-0.2279 Z6.8327
N1470 X11.2328 Y-0.2234
N1475 X11.2349 Y-0.2187
N1480 X11.2366 Y-0.2143
N1485 X11.238 Y-0.2098
N1490 X11.2392 Y-0.2053
N1495 X11.2402 Y-0.2008 Z6.8326
N1500 X11.2409 Y-0.1965
N1505 X11.2414 Y-0.1918
N1510 X11.2417 Y-0.1843
N1515 X11.2418 Y-0.1732
N1520 Y-0.165
N1525 X11.1862 Z6.8333
N1530 X11.0979 Z6.8345
N1535 G0 Z7.3559
N1540 X10.9207 Y-0.4226
N1545 Z6.9436
N1550 G1 Z6.8679 F1.
N1555 X10.9165 Y-0.4256 F3.
N1560 X10.9129 Y-0.428 Z6.868
N1565 X10.9091 Y-0.4301 Z6.8681
N1570 X10.9035 Y-0.4331 Z6.8682
N1575 X10.9 Y-0.4348 Z6.8683
N1580 X10.8963 Y-0.4363 Z6.8684
N1585 X10.8923 Y-0.4376 Z6.8685
N1590 X10.8879 Y-0.4388 Z6.8686
N1595 X10.8823 Y-0.44 Z6.8687
N1600 X10.876 Y-0.441 Z6.8688
N1605 X10.87 Y-0.4417 Z6.869
N1610 X10.8647 Y-0.4421 Z6.8691
N1615 X10.8594 Y-0.4422 Z6.8692
N1620 X10.8534 Y-0.442 Z6.8694
N1625 X10.8491 Y-0.4416 Z6.8695
N1630 X10.8443 Y-0.441 Z6.8696
N1635 X10.8392 Y-0.44 Z6.8697
N1640 X10.8342 Y-0.4387 Z6.8699
N1645 X10.8292 Y-0.4372 Z6.87
N1650 X10.8247 Y-0.4355 Z6.8701
N1655 X10.8204 Y-0.4336 Z6.8702
N1660 X10.816 Y-0.4313 Z6.8703
N1665 X10.8122 Y-0.4291 Z6.8704
N1670 X10.8084 Y-0.4265 Z6.8705
N1675 X10.8045 Y-0.4235 Z6.8706
N1680 X10.8011 Y-0.4204 Z6.8707
N1685 X10.7978 Y-0.4171 Z6.8708
N1690 X10.7947 Y-0.4134 Z6.8709
N1695 X10.7919 Y-0.4096
N1700 X10.7894 Y-0.4055 Z6.871
N1705 X10.7872 Y-0.4011
N1710 X10.7853 Y-0.3967 Z6.8711
N1715 X10.7839 Y-0.3929
N1720 X10.7829 Y-0.3891
N1725 X10.7822 Y-0.3853 Z6.8712
N1730 X10.7817 Y-0.3816
N1735 X10.7814 Y-0.3764
N1740 Y-0.3738
N1745 X10.7817 Y-0.368
N1750 X10.7822 Y-0.3639
N1755 X10.7831 Y-0.3597 Z6.8711
N1760 X10.7842 Y-0.3558
N1765 X10.7858 Y-0.3513
N1770 X10.7877 Y-0.3469 Z6.871
N1775 X10.7899 Y-0.3426
N1780 X10.7918 Y-0.3393 Z6.8709
N1785 X10.794 Y-0.3361
N1790 X10.7965 Y-0.3329 Z6.8708
N1795 X10.7986 Y-0.3304
N1800 X10.8008 Y-0.3282 Z6.8707
N1805 X10.804 Y-0.3253 Z6.8706
N1810 X10.8876 Y-0.2565 Z6.8686
N1815 X10.8927 Y-0.2517 Z6.8684
N1820 X10.8957 Y-0.2488
N1825 X10.8989 Y-0.2451 Z6.8683
N1830 X10.9022 Y-0.2409
N1835 X10.9053 Y-0.2366 Z6.8682
N1840 X10.908 Y-0.2323 Z6.8681
N1845 X10.9105 Y-0.2279
N1850 X10.9128 Y-0.2234 Z6.868
N1855 X10.9149 Y-0.2187
N1860 X10.9166 Y-0.2143 Z6.8679
N1865 X10.918 Y-0.2098
N1870 X10.9192 Y-0.2053
N1875 X10.9201 Y-0.2009
N1880 X10.9208 Y-0.1965
N1885 X10.9213 Y-0.1918 Z6.8678
N1890 X10.9217 Y-0.1843
N1895 Y-0.1732
N1900 Y-0.165
N1905 X10.8631 Z6.8692
N1910 X10.7779 Z6.8713
N1915 Z6.8613 F1.
N1920 X10.8631 Z6.8592 F3.
N1925 X10.9217 Z6.8578
N1930 Y-0.1732
N1935 Y-0.1843
N1940 X10.9213 Y-0.1918
N1945 X10.9208 Y-0.1965 Z6.8579
N1950 X10.9201 Y-0.2009
N1955 X10.9192 Y-0.2053
N1960 X10.918 Y-0.2098
N1965 X10.9166 Y-0.2143
N1970 X10.9149 Y-0.2187 Z6.858
N1975 X10.9128 Y-0.2234
N1980 X10.9105 Y-0.2279 Z6.8581
N1985 X10.908 Y-0.2323
N1990 X10.9053 Y-0.2366 Z6.8582
N1995 X10.9022 Y-0.2409 Z6.8583
N2000 X10.8989 Y-0.2451
N2005 X10.8957 Y-0.2488 Z6.8584
N2010 X10.8927 Y-0.2517
N2015 X10.8876 Y-0.2565 Z6.8586
N2020 X10.804 Y-0.3253 Z6.8606
N2025 X10.8008 Y-0.3282 Z6.8607
N2030 X10.7986 Y-0.3304 Z6.8608
N2035 X10.7965 Y-0.3329
N2040 X10.794 Y-0.3361 Z6.8609
N2045 X10.7918 Y-0.3393
N2050 X10.7899 Y-0.3426 Z6.861
N2055 X10.7877 Y-0.3469
N2060 X10.7858 Y-0.3513 Z6.8611
N2065 X10.7842 Y-0.3558
N2070 X10.7831 Y-0.3597
N2075 X10.7822 Y-0.3639 Z6.8612
N2080 X10.7817 Y-0.368
N2085 X10.7814 Y-0.3738
N2090 Y-0.3764
N2095 X10.7817 Y-0.3816
N2100 X10.7822 Y-0.3853
N2105 X10.7829 Y-0.3891 Z6.8611
N2110 X10.7839 Y-0.3929
N2115 X10.7853 Y-0.3967
N2120 X10.7872 Y-0.4011 Z6.861
N2125 X10.7894 Y-0.4055
N2130 X10.7919 Y-0.4096 Z6.8609
N2135 X10.7947 Y-0.4134
N2140 X10.7978 Y-0.4171 Z6.8608
N2145 X10.8011 Y-0.4204 Z6.8607
N2150 X10.8045 Y-0.4235 Z6.8606
N2155 X10.8084 Y-0.4265 Z6.8605
N2160 X10.8122 Y-0.4291 Z6.8604
N2165 X10.816 Y-0.4313 Z6.8603
N2170 X10.8204 Y-0.4336 Z6.8602
N2175 X10.8247 Y-0.4355 Z6.8601
N2180 X10.8292 Y-0.4372 Z6.86
N2185 X10.8342 Y-0.4387 Z6.8599
N2190 X10.8392 Y-0.44 Z6.8597
N2195 X10.8443 Y-0.441 Z6.8596
N2200 X10.8491 Y-0.4416 Z6.8595
N2205 X10.8534 Y-0.442 Z6.8594
N2210 X10.8594 Y-0.4422 Z6.8592
N2215 X10.8647 Y-0.4421 Z6.8591
N2220 X10.87 Y-0.4417 Z6.859
N2225 X10.876 Y-0.441 Z6.8588
N2230 X10.8823 Y-0.44 Z6.8587
N2235 X10.8879 Y-0.4388 Z6.8586
N2240 X10.8923 Y-0.4376 Z6.8585
N2245 X10.8963 Y-0.4363 Z6.8584
N2250 X10.9 Y-0.4348 Z6.8583
N2255 X10.9035 Y-0.4331 Z6.8582
N2260 X10.9091 Y-0.4301 Z6.8581
N2265 X10.9129 Y-0.428 Z6.858
N2270 X10.9165 Y-0.4256 Z6.8579
N2275 X10.9207 Y-0.4226
N2280 Z6.8479 F1.
N2285 X10.9165 Y-0.4256 F3.
N2290 X10.9129 Y-0.428 Z6.848
N2295 X10.9091 Y-0.4301 Z6.8481
N2300 X10.9035 Y-0.4331 Z6.8482
N2305 X10.9 Y-0.4348 Z6.8483
N2310 X10.8963 Y-0.4363 Z6.8484
N2315 X10.8923 Y-0.4376 Z6.8485
N2320 X10.8879 Y-0.4388 Z6.8486
N2325 X10.8823 Y-0.44 Z6.8487
N2330 X10.876 Y-0.441 Z6.8488
N2335 X10.87 Y-0.4417 Z6.849
N2340 X10.8647 Y-0.4421 Z6.8491
N2345 X10.8594 Y-0.4422 Z6.8492
N2350 X10.8534 Y-0.442 Z6.8494
N2355 X10.8491 Y-0.4416 Z6.8495
N2360 X10.8443 Y-0.441 Z6.8496
N2365 X10.8392 Y-0.44 Z6.8497
N2370 X10.8342 Y-0.4387 Z6.8499
N2375 X10.8292 Y-0.4372 Z6.85
N2380 X10.8247 Y-0.4355 Z6.8501
N2385 X10.8204 Y-0.4336 Z6.8502
N2390 X10.816 Y-0.4313 Z6.8503
N2395 X10.8122 Y-0.4291 Z6.8504
N2400 X10.8084 Y-0.4265 Z6.8505
N2405 X10.8045 Y-0.4235 Z6.8506
N2410 X10.8011 Y-0.4204 Z6.8507
N2415 X10.7978 Y-0.4171 Z6.8508
N2420 X10.7947 Y-0.4134 Z6.8509
N2425 X10.7919 Y-0.4096
N2430 X10.7894 Y-0.4055 Z6.851
N2435 X10.7872 Y-0.4011
N2440 X10.7853 Y-0.3967 Z6.8511
N2445 X10.7839 Y-0.3929
N2450 X10.7829 Y-0.3891
N2455 X10.7822 Y-0.3853 Z6.8512
N2460 X10.7817 Y-0.3816
N2465 X10.7814 Y-0.3764
N2470 Y-0.3738
N2475 X10.7817 Y-0.368
N2480 X10.7822 Y-0.3639
N2485 X10.7831 Y-0.3597 Z6.8511
N2490 X10.7842 Y-0.3558
N2495 X10.7858 Y-0.3513
N2500 X10.7877 Y-0.3469 Z6.851
N2505 X10.7899 Y-0.3426
N2510 X10.7918 Y-0.3393 Z6.8509
N2515 X10.794 Y-0.3361
N2520 X10.7965 Y-0.3329 Z6.8508
N2525 X10.7986 Y-0.3304
N2530 X10.8008 Y-0.3282 Z6.8507
N2535 X10.804 Y-0.3253 Z6.8506
N2540 X10.8876 Y-0.2565 Z6.8486
N2545 X10.8927 Y-0.2517 Z6.8484
N2550 X10.8957 Y-0.2488
N2555 X10.8989 Y-0.2451 Z6.8483
N2560 X10.9022 Y-0.2409
N2565 X10.9053 Y-0.2366 Z6.8482
N2570 X10.908 Y-0.2323 Z6.8481
N2575 X10.9105 Y-0.2279
N2580 X10.9128 Y-0.2234 Z6.848
N2585 X10.9149 Y-0.2187
N2590 X10.9166 Y-0.2143 Z6.8479
N2595 X10.918 Y-0.2098
N2600 X10.9192 Y-0.2053
N2605 X10.9201 Y-0.2009
N2610 X10.9208 Y-0.1965
N2615 X10.9213 Y-0.1918 Z6.8478
N2620 X10.9217 Y-0.1843
N2625 Y-0.1732
N2630 Y-0.165
N2635 X10.8631 Z6.8492
N2640 X10.7779 Z6.8513
N2645 Z6.8413 F1.
N2650 X10.8631 Z6.8392 F3.
N2655 X10.9217 Z6.8378
N2660 Y-0.1732
N2665 Y-0.1843
N2670 X10.9213 Y-0.1918
N2675 X10.9208 Y-0.1965 Z6.8379
N2680 X10.9201 Y-0.2009
N2685 X10.9192 Y-0.2053
N2690 X10.918 Y-0.2098
N2695 X10.9166 Y-0.2143
N2700 X10.9149 Y-0.2187 Z6.838
N2705 X10.9128 Y-0.2234
N2710 X10.9105 Y-0.2279 Z6.8381
N2715 X10.908 Y-0.2323
N2720 X10.9053 Y-0.2366 Z6.8382
N2725 X10.9022 Y-0.2409 Z6.8383
N2730 X10.8989 Y-0.2451
N2735 X10.8957 Y-0.2488 Z6.8384
N2740 X10.8927 Y-0.2517
N2745 X10.8876 Y-0.2565 Z6.8386
N2750 X10.804 Y-0.3253 Z6.8406
N2755 X10.8008 Y-0.3282 Z6.8407
N2760 X10.7986 Y-0.3304 Z6.8408
N2765 X10.7965 Y-0.3329
N2770 X10.794 Y-0.3361 Z6.8409
N2775 X10.7918 Y-0.3393
N2780 X10.7899 Y-0.3426 Z6.841
N2785 X10.7877 Y-0.3469
N2790 X10.7858 Y-0.3513 Z6.8411
N2795 X10.7842 Y-0.3558
N2800 X10.7831 Y-0.3597
N2805 X10.7822 Y-0.3639 Z6.8412
N2810 X10.7817 Y-0.368
N2815 X10.7814 Y-0.3738
N2820 Y-0.3764
N2825 X10.7817 Y-0.3816
N2830 X10.7822 Y-0.3853
N2835 X10.7829 Y-0.3891 Z6.8411
N2840 X10.7839 Y-0.3929
N2845 X10.7853 Y-0.3967
N2850 X10.7872 Y-0.4011 Z6.841
N2855 X10.7894 Y-0.4055
N2860 X10.7919 Y-0.4096 Z6.8409
N2865 X10.7947 Y-0.4134
N2870 X10.7978 Y-0.4171 Z6.8408
N2875 X10.8011 Y-0.4204 Z6.8407
N2880 X10.8045 Y-0.4235 Z6.8406
N2885 X10.8084 Y-0.4265 Z6.8405
N2890 X10.8122 Y-0.4291 Z6.8404
N2895 X10.816 Y-0.4313 Z6.8403
N2900 X10.8204 Y-0.4336 Z6.8402
N2905 X10.8247 Y-0.4355 Z6.8401
N2910 X10.8292 Y-0.4372 Z6.84
N2915 X10.8342 Y-0.4387 Z6.8399
N2920 X10.8392 Y-0.44 Z6.8397
N2925 X10.8443 Y-0.441 Z6.8396
N2930 X10.8491 Y-0.4416 Z6.8395
N2935 X10.8534 Y-0.442 Z6.8394
N2940 X10.8594 Y-0.4422 Z6.8392
N2945 X10.8647 Y-0.4421 Z6.8391
N2950 X10.87 Y-0.4417 Z6.839
N2955 X10.876 Y-0.441 Z6.8388
N2960 X10.8823 Y-0.44 Z6.8387
N2965 X10.8879 Y-0.4388 Z6.8386
N2970 X10.8923 Y-0.4376 Z6.8385
N2975 X10.8963 Y-0.4363 Z6.8384
N2980 X10.9 Y-0.4348 Z6.8383
N2985 X10.9035 Y-0.4331 Z6.8382
N2990 X10.9091 Y-0.4301 Z6.8381
N2995 X10.9129 Y-0.428 Z6.838
N3000 X10.9165 Y-0.4256 Z6.8379
N3005 X10.9207 Y-0.4226
N3010 G0 Z7.3559
N3015 X10.6007 Y-0.4226
N3020 Z6.9527
N3025 G1 Z6.8766 F1.
N3030 X10.5965 Y-0.4256 Z6.8767 F3.
N3035 X10.5929 Y-0.428 Z6.8768
N3040 X10.5891 Y-0.43 Z6.8769
N3045 X10.5835 Y-0.4331 Z6.8771
N3050 X10.58 Y-0.4348 Z6.8772
N3055 X10.5763 Y-0.4363 Z6.8773
N3060 X10.5723 Y-0.4376 Z6.8775
N3065 X10.5679 Y-0.4388 Z6.8776
N3070 X10.5624 Y-0.44 Z6.8778
N3075 X10.5561 Y-0.441 Z6.878
N3080 X10.55 Y-0.4417 Z6.8782
N3085 X10.5447 Y-0.4421 Z6.8784
N3090 X10.5394 Y-0.4422 Z6.8786
N3095 X10.5334 Y-0.442 Z6.8788
N3100 X10.5291 Y-0.4416 Z6.879
N3105 X10.5243 Y-0.441 Z6.8791
N3110 X10.5192 Y-0.44 Z6.8793
N3115 X10.5142 Y-0.4387 Z6.8795
N3120 X10.5092 Y-0.4372 Z6.8797
N3125 X10.5047 Y-0.4355 Z6.8798
N3130 X10.5004 Y-0.4337 Z6.88
N3135 X10.496 Y-0.4314 Z6.8802
N3140 X10.4922 Y-0.4291 Z6.8803
N3145 X10.4884 Y-0.4265 Z6.8804
N3150 X10.4845 Y-0.4235 Z6.8806
N3155 X10.4811 Y-0.4204 Z6.8807
N3160 X10.4778 Y-0.4171 Z6.8808
N3165 X10.4747 Y-0.4134 Z6.8809
N3170 X10.4719 Y-0.4096 Z6.881
N3175 X10.4694 Y-0.4055 Z6.8811
N3180 X10.4671 Y-0.4012 Z6.8812
N3185 X10.4652 Y-0.3967 Z6.8813
N3190 X10.4639 Y-0.3929
N3195 X10.4629 Y-0.3891
N3200 X10.4622 Y-0.3854 Z6.8814
N3205 X10.4617 Y-0.3816
N3210 X10.4614 Y-0.3764
N3215 X10.4613 Y-0.3738
N3220 X10.4617 Y-0.3681
N3225 X10.4621 Y-0.3643
N3230 X10.4628 Y-0.3609 Z6.8813
N3235 X10.4636 Y-0.3578
N3240 X10.4645 Y-0.355
N3245 X10.4658 Y-0.3512 Z6.8812
N3250 X10.4677 Y-0.3469
N3255 X10.4698 Y-0.3427 Z6.8811
N3260 X10.4718 Y-0.3393 Z6.881
N3265 X10.4739 Y-0.3361 Z6.8809
N3270 X10.4764 Y-0.3329
N3275 X10.4785 Y-0.3305 Z6.8808
N3280 X10.4807 Y-0.3282 Z6.8807
N3285 X10.484 Y-0.3253 Z6.8806
N3290 X10.5676 Y-0.2565 Z6.8776
N3295 X10.5727 Y-0.2518 Z6.8775
N3300 X10.5756 Y-0.2488 Z6.8774
N3305 X10.5789 Y-0.2451 Z6.8773
N3310 X10.5821 Y-0.241 Z6.8772
N3315 X10.5852 Y-0.2366 Z6.8771
N3320 X10.588 Y-0.2323 Z6.877
N3325 X10.5905 Y-0.2279 Z6.8769
N3330 X10.5928 Y-0.2234 Z6.8768
N3335 X10.5948 Y-0.2187 Z6.8767
N3340 X10.5965 Y-0.2143
N3345 X10.5979 Y-0.2099 Z6.8766
N3350 X10.5991 Y-0.2053
N3355 X10.6001 Y-0.2009
N3360 X10.6008 Y-0.1965
N3365 X10.6013 Y-0.1918 Z6.8765
N3370 X10.6017 Y-0.1843
N3375 Y-0.1732
N3380 Y-0.165
N3385 X10.5394 Z6.8786
N3390 X10.4578 Z6.8815
N3395 Z6.8715 F1.
N3400 X10.5394 Z6.8686 F3.
N3405 X10.6017 Z6.8665
N3410 Y-0.1732
N3415 Y-0.1843
N3420 X10.6013 Y-0.1918
N3425 X10.6008 Y-0.1965 Z6.8666
N3430 X10.6001 Y-0.2009
N3435 X10.5991 Y-0.2053
N3440 X10.5979 Y-0.2099
N3445 X10.5965 Y-0.2143 Z6.8667
N3450 X10.5948 Y-0.2187
N3455 X10.5928 Y-0.2234 Z6.8668
N3460 X10.5905 Y-0.2279 Z6.8669
N3465 X10.588 Y-0.2323 Z6.867
N3470 X10.5852 Y-0.2366 Z6.8671
N3475 X10.5821 Y-0.241 Z6.8672
N3480 X10.5789 Y-0.2451 Z6.8673
N3485 X10.5756 Y-0.2488 Z6.8674
N3490 X10.5727 Y-0.2518 Z6.8675
N3495 X10.5676 Y-0.2565 Z6.8676
N3500 X10.484 Y-0.3253 Z6.8706
N3505 X10.4807 Y-0.3282 Z6.8707
N3510 X10.4785 Y-0.3305 Z6.8708
N3515 X10.4764 Y-0.3329 Z6.8709
N3520 X10.4739 Y-0.3361
N3525 X10.4718 Y-0.3393 Z6.871
N3530 X10.4698 Y-0.3427 Z6.8711
N3535 X10.4677 Y-0.3469 Z6.8712
N3540 X10.4658 Y-0.3512
N3545 X10.4645 Y-0.355 Z6.8713
N3550 X10.4636 Y-0.3578
N3555 X10.4628 Y-0.3609
N3560 X10.4621 Y-0.3643 Z6.8714
N3565 X10.4617 Y-0.3681
N3570 X10.4613 Y-0.3738
N3575 X10.4614 Y-0.3764
N3580 X10.4617 Y-0.3816
N3585 X10.4622 Y-0.3854
N3590 X10.4629 Y-0.3891 Z6.8713
N3595 X10.4639 Y-0.3929
N3600 X10.4652 Y-0.3967
N3605 X10.4671 Y-0.4012 Z6.8712
N3610 X10.4694 Y-0.4055 Z6.8711
N3615 X10.4719 Y-0.4096 Z6.871
N3620 X10.4747 Y-0.4134 Z6.8709
N3625 X10.4778 Y-0.4171 Z6.8708
N3630 X10.4811 Y-0.4204 Z6.8707
N3635 X10.4845 Y-0.4235 Z6.8706
N3640 X10.4884 Y-0.4265 Z6.8704
N3645 X10.4922 Y-0.4291 Z6.8703
N3650 X10.496 Y-0.4314 Z6.8702
N3655 X10.5004 Y-0.4337 Z6.87
N3660 X10.5047 Y-0.4355 Z6.8698
N3665 X10.5092 Y-0.4372 Z6.8697
N3670 X10.5142 Y-0.4387 Z6.8695
N3675 X10.5192 Y-0.44 Z6.8693
N3680 X10.5243 Y-0.441 Z6.8691
N3685 X10.5291 Y-0.4416 Z6.869
N3690 X10.5334 Y-0.442 Z6.8688
N3695 X10.5394 Y-0.4422 Z6.8686
N3700 X10.5447 Y-0.4421 Z6.8684
N3705 X10.55 Y-0.4417 Z6.8682
N3710 X10.5561 Y-0.441 Z6.868
N3715 X10.5624 Y-0.44 Z6.8678
N3720 X10.5679 Y-0.4388 Z6.8676
N3725 X10.5723 Y-0.4376 Z6.8675
N3730 X10.5763 Y-0.4363 Z6.8673
N3735 X10.58 Y-0.4348 Z6.8672
N3740 X10.5835 Y-0.4331 Z6.8671
N3745 X10.5891 Y-0.43 Z6.8669
N3750 X10.5929 Y-0.428 Z6.8668
N3755 X10.5965 Y-0.4256 Z6.8667
N3760 X10.6007 Y-0.4226 Z6.8666
N3765 Z6.8566 F1.
N3770 X10.5965 Y-0.4256 Z6.8567 F3.
N3775 X10.5929 Y-0.428 Z6.8568
N3780 X10.5891 Y-0.43 Z6.8569
N3785 X10.5835 Y-0.4331 Z6.8571
N3790 X10.58 Y-0.4348 Z6.8572
N3795 X10.5763 Y-0.4363 Z6.8573
N3800 X10.5723 Y-0.4376 Z6.8575
N3805 X10.5679 Y-0.4388 Z6.8576
N3810 X10.5624 Y-0.44 Z6.8578
N3815 X10.5561 Y-0.441 Z6.858
N3820 X10.55 Y-0.4417 Z6.8582
N3825 X10.5447 Y-0.4421 Z6.8584
N3830 X10.5394 Y-0.4422 Z6.8586
N3835 X10.5334 Y-0.442 Z6.8588
N3840 X10.5291 Y-0.4416 Z6.859
N3845 X10.5243 Y-0.441 Z6.8591
N3850 X10.5192 Y-0.44 Z6.8593
N3855 X10.5142 Y-0.4387 Z6.8595
N3860 X10.5092 Y-0.4372 Z6.8597
N3865 X10.5047 Y-0.4355 Z6.8598
N3870 X10.5004 Y-0.4337 Z6.86
N3875 X10.496 Y-0.4314 Z6.8602
N3880 X10.4922 Y-0.4291 Z6.8603
N3885 X10.4884 Y-0.4265 Z6.8604
N3890 X10.4845 Y-0.4235 Z6.8606
N3895 X10.4811 Y-0.4204 Z6.8607
N3900 X10.4778 Y-0.4171 Z6.8608
N3905 X10.4747 Y-0.4134 Z6.8609
N3910 X10.4719 Y-0.4096 Z6.861
N3915 X10.4694 Y-0.4055 Z6.8611
N3920 X10.4671 Y-0.4012 Z6.8612
N3925 X10.4652 Y-0.3967 Z6.8613
N3930 X10.4639 Y-0.3929
N3935 X10.4629 Y-0.3891
N3940 X10.4622 Y-0.3854 Z6.8614
N3945 X10.4617 Y-0.3816
N3950 X10.4614 Y-0.3764
N3955 X10.4613 Y-0.3738
N3960 X10.4617 Y-0.3681
N3965 X10.4621 Y-0.3643
N3970 X10.4628 Y-0.3609 Z6.8613
N3975 X10.4636 Y-0.3578
N3980 X10.4645 Y-0.355
N3985 X10.4658 Y-0.3512 Z6.8612
N3990 X10.4677 Y-0.3469
N3995 X10.4698 Y-0.3427 Z6.8611
N4000 X10.4718 Y-0.3393 Z6.861
N4005 X10.4739 Y-0.3361 Z6.8609
N4010 X10.4764 Y-0.3329
N4015 X10.4785 Y-0.3305 Z6.8608
N4020 X10.4807 Y-0.3282 Z6.8607
N4025 X10.484 Y-0.3253 Z6.8606
N4030 X10.5676 Y-0.2565 Z6.8576
N4035 X10.5727 Y-0.2518 Z6.8575
N4040 X10.5756 Y-0.2488 Z6.8574
N4045 X10.5789 Y-0.2451 Z6.8573
N4050 X10.5821 Y-0.241 Z6.8572
N4055 X10.5852 Y-0.2366 Z6.8571
N4060 X10.588 Y-0.2323 Z6.857
N4065 X10.5905 Y-0.2279 Z6.8569
N4070 X10.5928 Y-0.2234 Z6.8568
N4075 X10.5948 Y-0.2187 Z6.8567
N4080 X10.5965 Y-0.2143
N4085 X10.5979 Y-0.2099 Z6.8566
N4090 X10.5991 Y-0.2053
N4095 X10.6001 Y-0.2009
N4100 X10.6008 Y-0.1965
N4105 X10.6013 Y-0.1918 Z6.8565
N4110 X10.6017 Y-0.1843
N4115 Y-0.1732
N4120 Y-0.165
N4125 X10.5394 Z6.8586
N4130 X10.4578 Z6.8615
N4135 Z6.8515 F1.
N4140 X10.5394 Z6.8486 F3.
N4145 X10.6017 Z6.8465
N4150 Y-0.1732
N4155 Y-0.1843
N4160 X10.6013 Y-0.1918
N4165 X10.6008 Y-0.1965 Z6.8466
N4170 X10.6001 Y-0.2009
N4175 X10.5991 Y-0.2053
N4180 X10.5979 Y-0.2099
N4185 X10.5965 Y-0.2143 Z6.8467
N4190 X10.5948 Y-0.2187
N4195 X10.5928 Y-0.2234 Z6.8468
N4200 X10.5905 Y-0.2279 Z6.8469
N4205 X10.588 Y-0.2323 Z6.847
N4210 X10.5852 Y-0.2366 Z6.8471
N4215 X10.5821 Y-0.241 Z6.8472
N4220 X10.5789 Y-0.2451 Z6.8473
N4225 X10.5756 Y-0.2488 Z6.8474
N4230 X10.5727 Y-0.2518 Z6.8475
N4235 X10.5676 Y-0.2565 Z6.8476
N4240 X10.484 Y-0.3253 Z6.8506
N4245 X10.4807 Y-0.3282 Z6.8507
N4250 X10.4785 Y-0.3305 Z6.8508
N4255 X10.4764 Y-0.3329 Z6.8509
N4260 X10.4739 Y-0.3361
N4265 X10.4718 Y-0.3393 Z6.851
N4270 X10.4698 Y-0.3427 Z6.8511
N4275 X10.4677 Y-0.3469 Z6.8512
N4280 X10.4658 Y-0.3512
N4285 X10.4645 Y-0.355 Z6.8513
N4290 X10.4636 Y-0.3578
N4295 X10.4628 Y-0.3609
N4300 X10.4621 Y-0.3643 Z6.8514
N4305 X10.4617 Y-0.3681
N4310 X10.4613 Y-0.3738
N4315 X10.4614 Y-0.3764
N4320 X10.4617 Y-0.3816
N4325 X10.4622 Y-0.3854
N4330 X10.4629 Y-0.3891 Z6.8513
N4335 X10.4639 Y-0.3929
N4340 X10.4652 Y-0.3967
N4345 X10.4671 Y-0.4012 Z6.8512
N4350 X10.4694 Y-0.4055 Z6.8511
N4355 X10.4719 Y-0.4096 Z6.851
N4360 X10.4747 Y-0.4134 Z6.8509
N4365 X10.4778 Y-0.4171 Z6.8508
N4370 X10.4811 Y-0.4204 Z6.8507
N4375 X10.4845 Y-0.4235 Z6.8506
N4380 X10.4884 Y-0.4265 Z6.8504
N4385 X10.4922 Y-0.4291 Z6.8503
N4390 X10.496 Y-0.4314 Z6.8502
N4395 X10.5004 Y-0.4337 Z6.85
N4400 X10.5047 Y-0.4355 Z6.8498
N4405 X10.5092 Y-0.4372 Z6.8497
N4410 X10.5142 Y-0.4387 Z6.8495
N4415 X10.5192 Y-0.44 Z6.8493
N4420 X10.5243 Y-0.441 Z6.8491
N4425 X10.5291 Y-0.4416 Z6.849
N4430 X10.5334 Y-0.442 Z6.8488
N4435 X10.5394 Y-0.4422 Z6.8486
N4440 X10.5447 Y-0.4421 Z6.8484
N4445 X10.55 Y-0.4417 Z6.8482
N4450 X10.5561 Y-0.441 Z6.848
N4455 X10.5624 Y-0.44 Z6.8478
N4460 X10.5679 Y-0.4388 Z6.8476
N4465 X10.5723 Y-0.4376 Z6.8475
N4470 X10.5763 Y-0.4363 Z6.8473
N4475 X10.58 Y-0.4348 Z6.8472
N4480 X10.5835 Y-0.4331 Z6.8471
N4485 X10.5891 Y-0.43 Z6.8469
N4490 X10.5929 Y-0.428 Z6.8468
N4495 X10.5965 Y-0.4256 Z6.8467
N4500 X10.6007 Y-0.4226 Z6.8466
N4505 G0 Z7.3559
N4510 X10.2807 Y-0.4226
N4515 Z6.9653
N4520 G1 Z6.8887 F1.
N4525 X10.2764 Y-0.4256 Z6.8889 F3.
N4530 X10.2729 Y-0.4279 Z6.8891
N4535 X10.2691 Y-0.43 Z6.8892
N4540 X10.2634 Y-0.4331 Z6.8895
N4545 X10.26 Y-0.4348 Z6.8896
N4550 X10.2563 Y-0.4363 Z6.8898
N4555 X10.2523 Y-0.4376 Z6.89
N4560 X10.2479 Y-0.4388 Z6.8901
N4565 X10.2425 Y-0.44 Z6.8904
N4570 X10.2361 Y-0.441 Z6.8907
N4575 X10.2299 Y-0.4417 Z6.8909
N4580 X10.2247 Y-0.4421 Z6.8912
N4585 X10.2194 Y-0.4422 Z6.8914
N4590 X10.2134 Y-0.442 Z6.8917
N4595 X10.2091 Y-0.4416 Z6.8919
N4600 X10.2042 Y-0.441 Z6.8921
N4605 X10.1992 Y-0.44 Z6.8924
N4610 X10.1941 Y-0.4387 Z6.8926
N4615 X10.1892 Y-0.4372 Z6.8928
N4620 X10.1847 Y-0.4355 Z6.8931
N4625 X10.1804 Y-0.4337 Z6.8933
N4630 X10.176 Y-0.4314 Z6.8935
N4635 X10.1722 Y-0.4291 Z6.8936
N4640 X10.1683 Y-0.4265 Z6.8938
N4645 X10.1645 Y-0.4235 Z6.894
N4650 X10.161 Y-0.4204 Z6.8942
N4655 X10.1578 Y-0.4171 Z6.8943
N4660 X10.1547 Y-0.4134 Z6.8945
N4665 X10.1519 Y-0.4096 Z6.8946
N4670 X10.1493 Y-0.4055 Z6.8947
N4675 X10.1471 Y-0.4012 Z6.8948
N4680 X10.1452 Y-0.3967 Z6.8949
N4685 X10.1439 Y-0.3929 Z6.895
N4690 X10.1429 Y-0.3891
N4695 X10.1421 Y-0.3854 Z6.8951
N4700 X10.1416 Y-0.3816
N4705 X10.1413 Y-0.3765
N4710 Y-0.3739
N4715 X10.1416 Y-0.3682
N4720 X10.142 Y-0.3647
N4725 X10.1426 Y-0.3619 Z6.895
N4730 X10.1432 Y-0.359
N4735 X10.1442 Y-0.3556
N4740 X10.1458 Y-0.3513 Z6.8949
N4745 X10.1476 Y-0.347 Z6.8948
N4750 X10.1498 Y-0.3427 Z6.8947
N4755 X10.1517 Y-0.3393 Z6.8946
N4760 X10.1539 Y-0.3361 Z6.8945
N4765 X10.1563 Y-0.333 Z6.8944
N4770 X10.1584 Y-0.3305 Z6.8943
N4775 X10.1607 Y-0.3282 Z6.8942
N4780 X10.1639 Y-0.3254 Z6.894
N4785 X10.2476 Y-0.2565 Z6.8902
N4790 X10.2526 Y-0.2518 Z6.8899
N4795 X10.2555 Y-0.2488 Z6.8898
N4800 X10.2588 Y-0.2451 Z6.8897
N4805 X10.2621 Y-0.241 Z6.8895
N4810 X10.2651 Y-0.2367 Z6.8894
N4815 X10.2679 Y-0.2323 Z6.8893
N4820 X10.2704 Y-0.2279 Z6.8892
N4825 X10.2727 Y-0.2235 Z6.8891
N4830 X10.2748 Y-0.2187 Z6.889
N4835 X10.2765 Y-0.2143 Z6.8889
N4840 X10.2779 Y-0.2099 Z6.8888
N4845 X10.2791 Y-0.2053
N4850 X10.28 Y-0.2009
N4855 X10.2807 Y-0.1965 Z6.8887
N4860 X10.2812 Y-0.1918
N4865 X10.2816 Y-0.1843
N4870 Y-0.1733
N4875 Y-0.165
N4880 X10.2152 Z6.8916
N4885 X10.1378 Z6.8953
N4890 Z6.8853 F1.
N4895 X10.2152 Z6.8816 F3.
N4900 X10.2816 Z6.8787
N4905 Y-0.1733
N4910 Y-0.1843
N4915 X10.2812 Y-0.1918
N4920 X10.2807 Y-0.1965
N4925 X10.28 Y-0.2009 Z6.8788
N4930 X10.2791 Y-0.2053
N4935 X10.2779 Y-0.2099
N4940 X10.2765 Y-0.2143 Z6.8789
N4945 X10.2748 Y-0.2187 Z6.879
N4950 X10.2727 Y-0.2235 Z6.8791
N4955 X10.2704 Y-0.2279 Z6.8792
N4960 X10.2679 Y-0.2323 Z6.8793
N4965 X10.2651 Y-0.2367 Z6.8794
N4970 X10.2621 Y-0.241 Z6.8795
N4975 X10.2588 Y-0.2451 Z6.8797
N4980 X10.2555 Y-0.2488 Z6.8798
N4985 X10.2526 Y-0.2518 Z6.8799
N4990 X10.2476 Y-0.2565 Z6.8802
N4995 X10.1639 Y-0.3254 Z6.884
N5000 X10.1607 Y-0.3282 Z6.8842
N5005 X10.1584 Y-0.3305 Z6.8843
N5010 X10.1563 Y-0.333 Z6.8844
N5015 X10.1539 Y-0.3361 Z6.8845
N5020 X10.1517 Y-0.3393 Z6.8846
N5025 X10.1498 Y-0.3427 Z6.8847
N5030 X10.1476 Y-0.347 Z6.8848
N5035 X10.1458 Y-0.3513 Z6.8849
N5040 X10.1442 Y-0.3556 Z6.885
N5045 X10.1432 Y-0.359
N5050 X10.1426 Y-0.3619
N5055 X10.142 Y-0.3647 Z6.8851
N5060 X10.1416 Y-0.3682
N5065 X10.1413 Y-0.3739
N5070 Y-0.3765
N5075 X10.1416 Y-0.3816
N5080 X10.1421 Y-0.3854
N5085 X10.1429 Y-0.3891 Z6.885
N5090 X10.1439 Y-0.3929
N5095 X10.1452 Y-0.3967 Z6.8849
N5100 X10.1471 Y-0.4012 Z6.8848
N5105 X10.1493 Y-0.4055 Z6.8847
N5110 X10.1519 Y-0.4096 Z6.8846
N5115 X10.1547 Y-0.4134 Z6.8845
N5120 X10.1578 Y-0.4171 Z6.8843
N5125 X10.161 Y-0.4204 Z6.8842
N5130 X10.1645 Y-0.4235 Z6.884
N5135 X10.1683 Y-0.4265 Z6.8838
N5140 X10.1722 Y-0.4291 Z6.8836
N5145 X10.176 Y-0.4314 Z6.8835
N5150 X10.1804 Y-0.4337 Z6.8833
N5155 X10.1847 Y-0.4355 Z6.8831
N5160 X10.1892 Y-0.4372 Z6.8828
N5165 X10.1941 Y-0.4387 Z6.8826
N5170 X10.1992 Y-0.44 Z6.8824
N5175 X10.2042 Y-0.441 Z6.8821
N5180 X10.2091 Y-0.4416 Z6.8819
N5185 X10.2134 Y-0.442 Z6.8817
N5190 X10.2194 Y-0.4422 Z6.8814
N5195 X10.2247 Y-0.4421 Z6.8812
N5200 X10.2299 Y-0.4417 Z6.8809
N5205 X10.2361 Y-0.441 Z6.8807
N5210 X10.2425 Y-0.44 Z6.8804
N5215 X10.2479 Y-0.4388 Z6.8801
N5220 X10.2523 Y-0.4376 Z6.88
N5225 X10.2563 Y-0.4363 Z6.8798
N5230 X10.26 Y-0.4348 Z6.8796
N5235 X10.2634 Y-0.4331 Z6.8795
N5240 X10.2691 Y-0.43 Z6.8792
N5245 X10.2729 Y-0.4279 Z6.8791
N5250 X10.2764 Y-0.4256 Z6.8789
N5255 X10.2807 Y-0.4226 Z6.8787
N5260 Z6.8687 F1.
N5265 X10.2764 Y-0.4256 Z6.8689 F3.
N5270 X10.2729 Y-0.4279 Z6.8691
N5275 X10.2691 Y-0.43 Z6.8692
N5280 X10.2634 Y-0.4331 Z6.8695
N5285 X10.26 Y-0.4348 Z6.8696
N5290 X10.2563 Y-0.4363 Z6.8698
N5295 X10.2523 Y-0.4376 Z6.87
N5300 X10.2479 Y-0.4388 Z6.8701
N5305 X10.2425 Y-0.44 Z6.8704
N5310 X10.2361 Y-0.441 Z6.8707
N5315 X10.2299 Y-0.4417 Z6.8709
N5320 X10.2247 Y-0.4421 Z6.8712
N5325 X10.2194 Y-0.4422 Z6.8714
N5330 X10.2134 Y-0.442 Z6.8717
N5335 X10.2091 Y-0.4416 Z6.8719
N5340 X10.2042 Y-0.441 Z6.8721
N5345 X10.1992 Y-0.44 Z6.8724
N5350 X10.1941 Y-0.4387 Z6.8726
N5355 X10.1892 Y-0.4372 Z6.8728
N5360 X10.1847 Y-0.4355 Z6.8731
N5365 X10.1804 Y-0.4337 Z6.8733
N5370 X10.176 Y-0.4314 Z6.8735
N5375 X10.1722 Y-0.4291 Z6.8736
N5380 X10.1683 Y-0.4265 Z6.8738
N5385 X10.1645 Y-0.4235 Z6.874
N5390 X10.161 Y-0.4204 Z6.8742
N5395 X10.1578 Y-0.4171 Z6.8743
N5400 X10.1547 Y-0.4134 Z6.8745
N5405 X10.1519 Y-0.4096 Z6.8746
N5410 X10.1493 Y-0.4055 Z6.8747
N5415 X10.1471 Y-0.4012 Z6.8748
N5420 X10.1452 Y-0.3967 Z6.8749
N5425 X10.1439 Y-0.3929 Z6.875
N5430 X10.1429 Y-0.3891
N5435 X10.1421 Y-0.3854 Z6.8751
N5440 X10.1416 Y-0.3816
N5445 X10.1413 Y-0.3765
N5450 Y-0.3739
N5455 X10.1416 Y-0.3682
N5460 X10.142 Y-0.3647
N5465 X10.1426 Y-0.3619 Z6.875
N5470 X10.1432 Y-0.359
N5475 X10.1442 Y-0.3556
N5480 X10.1458 Y-0.3513 Z6.8749
N5485 X10.1476 Y-0.347 Z6.8748
N5490 X10.1498 Y-0.3427 Z6.8747
N5495 X10.1517 Y-0.3393 Z6.8746
N5500 X10.1539 Y-0.3361 Z6.8745
N5505 X10.1563 Y-0.333 Z6.8744
N5510 X10.1584 Y-0.3305 Z6.8743
N5515 X10.1607 Y-0.3282 Z6.8742
N5520 X10.1639 Y-0.3254 Z6.874
N5525 X10.2476 Y-0.2565 Z6.8702
N5530 X10.2526 Y-0.2518 Z6.8699
N5535 X10.2555 Y-0.2488 Z6.8698
N5540 X10.2588 Y-0.2451 Z6.8697
N5545 X10.2621 Y-0.241 Z6.8695
N5550 X10.2651 Y-0.2367 Z6.8694
N5555 X10.2679 Y-0.2323 Z6.8693
N5560 X10.2704 Y-0.2279 Z6.8692
N5565 X10.2727 Y-0.2235 Z6.8691
N5570 X10.2748 Y-0.2187 Z6.869
N5575 X10.2765 Y-0.2143 Z6.8689
N5580 X10.2779 Y-0.2099 Z6.8688
N5585 X10.2791 Y-0.2053
N5590 X10.28 Y-0.2009
N5595 X10.2807 Y-0.1965 Z6.8687
N5600 X10.2812 Y-0.1918
N5605 X10.2816 Y-0.1843
N5610 Y-0.1733
N5615 Y-0.165
N5620 X10.2152 Z6.8716
N5625 X10.1378 Z6.8753
N5630 Z6.8653 F1.
N5635 X10.2152 Z6.8616 F3.
N5640 X10.2816 Z6.8587
N5645 Y-0.1733
N5650 Y-0.1843
N5655 X10.2812 Y-0.1918
N5660 X10.2807 Y-0.1965
N5665 X10.28 Y-0.2009 Z6.8588
N5670 X10.2791 Y-0.2053
N5675 X10.2779 Y-0.2099
N5680 X10.2765 Y-0.2143 Z6.8589
N5685 X10.2748 Y-0.2187 Z6.859
N5690 X10.2727 Y-0.2235 Z6.8591
N5695 X10.2704 Y-0.2279 Z6.8592
N5700 X10.2679 Y-0.2323 Z6.8593
N5705 X10.2651 Y-0.2367 Z6.8594
N5710 X10.2621 Y-0.241 Z6.8595
N5715 X10.2588 Y-0.2451 Z6.8597
N5720 X10.2555 Y-0.2488 Z6.8598
N5725 X10.2526 Y-0.2518 Z6.8599
N5730 X10.2476 Y-0.2565 Z6.8602
N5735 X10.1639 Y-0.3254 Z6.864
N5740 X10.1607 Y-0.3282 Z6.8642
N5745 X10.1584 Y-0.3305 Z6.8643
N5750 X10.1563 Y-0.333 Z6.8644
N5755 X10.1539 Y-0.3361 Z6.8645
N5760 X10.1517 Y-0.3393 Z6.8646
N5765 X10.1498 Y-0.3427 Z6.8647
N5770 X10.1476 Y-0.347 Z6.8648
N5775 X10.1458 Y-0.3513 Z6.8649
N5780 X10.1442 Y-0.3556 Z6.865
N5785 X10.1432 Y-0.359
N5790 X10.1426 Y-0.3619
N5795 X10.142 Y-0.3647 Z6.8651
N5800 X10.1416 Y-0.3682
N5805 X10.1413 Y-0.3739
N5810 Y-0.3765
N5815 X10.1416 Y-0.3816
N5820 X10.1421 Y-0.3854
N5825 X10.1429 Y-0.3891 Z6.865
N5830 X10.1439 Y-0.3929
N5835 X10.1452 Y-0.3967 Z6.8649
N5840 X10.1471 Y-0.4012 Z6.8648
N5845 X10.1493 Y-0.4055 Z6.8647
N5850 X10.1519 Y-0.4096 Z6.8646
N5855 X10.1547 Y-0.4134 Z6.8645
N5860 X10.1578 Y-0.4171 Z6.8643
N5865 X10.161 Y-0.4204 Z6.8642
N5870 X10.1645 Y-0.4235 Z6.864
N5875 X10.1683 Y-0.4265 Z6.8638
N5880 X10.1722 Y-0.4291 Z6.8636
N5885 X10.176 Y-0.4314 Z6.8635
N5890 X10.1804 Y-0.4337 Z6.8633
N5895 X10.1847 Y-0.4355 Z6.8631
N5900 X10.1892 Y-0.4372 Z6.8628
N5905 X10.1941 Y-0.4387 Z6.8626
N5910 X10.1992 Y-0.44 Z6.8624
N5915 X10.2042 Y-0.441 Z6.8621
N5920 X10.2091 Y-0.4416 Z6.8619
N5925 X10.2134 Y-0.442 Z6.8617
N5930 X10.2194 Y-0.4422 Z6.8614
N5935 X10.2247 Y-0.4421 Z6.8612
N5940 X10.2299 Y-0.4417 Z6.8609
N5945 X10.2361 Y-0.441 Z6.8607
N5950 X10.2425 Y-0.44 Z6.8604
N5955 X10.2479 Y-0.4388 Z6.8601
N5960 X10.2523 Y-0.4376 Z6.86
N5965 X10.2563 Y-0.4363 Z6.8598
N5970 X10.26 Y-0.4348 Z6.8596
N5975 X10.2634 Y-0.4331 Z6.8595
N5980 X10.2691 Y-0.43 Z6.8592
N5985 X10.2729 Y-0.4279 Z6.8591
N5990 X10.2764 Y-0.4256 Z6.8589
N5995 X10.2807 Y-0.4226 Z6.8587
N6000 G0 Z7.6059

N6005 M5
N6010 M9
N6015 G53 G0 Z0.
N6020 G53 G0 X0. Y0.
N6025 G49
N6030 G69
N6035 G0 A0. C0.
N6040 M99
