O1111 (EMTSERIALSUB-7777)
(T50 D=0.125 CR=0. TAPER=30DEG - CHAMFER MILL)
N10 G90 G94 G17 G49
N15 G20
N20 G53 G0 Z0.

(SERIAL ENGRAVE TIT)
N25 T50 M6
N30 S18000 M3
N35 G90 G94 G17
N40 G54.1 P2
N45 G68.2 X0. Y0. Z0. I107.642 J90. K180.
N50 G53.1 P2
N55 M8
N60 G0 X11.2019 Y-0.165
N65 G43 Z7.6059 H50
N70 G0 Z6.9385
N75 G1 Z6.8631 F1.
N80 Y-0.1687 F3.
N85 X11.2016 Y-0.1791
N90 X11.2012 Y-0.1863
N95 X11.2005 Y-0.1953
N100 X11.1995 Y-0.2043
N105 X11.1984 Y-0.2125
N110 X11.1969 Y-0.2209
N115 X11.1951 Y-0.23 Z6.8632
N120 X11.1932 Y-0.2382
N125 X11.191 Y-0.2463
N130 X11.1885 Y-0.2548
N135 X11.1857 Y-0.2629 Z6.8633
N140 X11.1827 Y-0.2709
N145 X11.1795 Y-0.2787 Z6.8634
N150 X11.1762 Y-0.2862
N155 X11.1723 Y-0.2942 Z6.8635
N160 X11.1681 Y-0.3024
N165 X11.1637 Y-0.3102 Z6.8636
N170 X11.1589 Y-0.3181
N175 X11.1536 Y-0.3262 Z6.8637
N180 X11.1485 Y-0.3334 Z6.8638
N185 X11.1427 Y-0.3412 Z6.8639
N190 X11.1368 Y-0.3485 Z6.864
N195 X11.1295 Y-0.357 Z6.8641
N200 X11.1239 Y-0.3638
N205 X11.1204 Y-0.3683 Z6.8642
N210 X11.1173 Y-0.3729
N215 X11.1142 Y-0.3778 Z6.8643
N220 X11.1112 Y-0.3828
N225 X11.1086 Y-0.3879
N230 X11.1062 Y-0.3929 Z6.8644
N235 X11.104 Y-0.3981
N240 X11.102 Y-0.4033
N245 X11.1002 Y-0.4088 Z6.8645
N250 X11.0986 Y-0.4144
N255 X11.0972 Y-0.4201
N260 X11.0962 Y-0.4255
N265 X11.0955 Y-0.4301
N270 X11.0945 Y-0.4383 Z6.8646
N275 X11.1889 Z6.8632
N280 X11.2486 Z6.8626
N285 Z6.8526 F1.
N290 X11.1889 Z6.8532 F3.
N295 X11.0945 Z6.8546
N300 X11.0955 Y-0.4301 Z6.8545
N305 X11.0962 Y-0.4255
N310 X11.0972 Y-0.4201
N315 X11.0986 Y-0.4144
N320 X11.1002 Y-0.4088
N325 X11.102 Y-0.4033 Z6.8544
N330 X11.104 Y-0.3981
N335 X11.1062 Y-0.3929
N340 X11.1086 Y-0.3879 Z6.8543
N345 X11.1112 Y-0.3828
N350 X11.1142 Y-0.3778
N355 X11.1173 Y-0.3729 Z6.8542
N360 X11.1204 Y-0.3683
N365 X11.1239 Y-0.3638 Z6.8541
N370 X11.1295 Y-0.357
N375 X11.1368 Y-0.3485 Z6.854
N380 X11.1427 Y-0.3412 Z6.8539
N385 X11.1485 Y-0.3334 Z6.8538
N390 X11.1536 Y-0.3262 Z6.8537
N395 X11.1589 Y-0.3181 Z6.8536
N400 X11.1637 Y-0.3102
N405 X11.1681 Y-0.3024 Z6.8535
N410 X11.1723 Y-0.2942
N415 X11.1762 Y-0.2862 Z6.8534
N420 X11.1795 Y-0.2787
N425 X11.1827 Y-0.2709 Z6.8533
N430 X11.1857 Y-0.2629
N435 X11.1885 Y-0.2548 Z6.8532
N440 X11.191 Y-0.2463
N445 X11.1932 Y-0.2382
N450 X11.1951 Y-0.23
N455 X11.1969 Y-0.2209 Z6.8531
N460 X11.1984 Y-0.2125
N465 X11.1995 Y-0.2043
N470 X11.2005 Y-0.1953
N475 X11.2012 Y-0.1863
N480 X11.2016 Y-0.1791
N485 X11.2019 Y-0.1687
N490 Y-0.165
N495 Z6.8431 F1.
N500 Y-0.1687 F3.
N505 X11.2016 Y-0.1791
N510 X11.2012 Y-0.1863
N515 X11.2005 Y-0.1953
N520 X11.1995 Y-0.2043
N525 X11.1984 Y-0.2125
N530 X11.1969 Y-0.2209
N535 X11.1951 Y-0.23 Z6.8432
N540 X11.1932 Y-0.2382
N545 X11.191 Y-0.2463
N550 X11.1885 Y-0.2548
N555 X11.1857 Y-0.2629 Z6.8433
N560 X11.1827 Y-0.2709
N565 X11.1795 Y-0.2787 Z6.8434
N570 X11.1762 Y-0.2862
N575 X11.1723 Y-0.2942 Z6.8435
N580 X11.1681 Y-0.3024
N585 X11.1637 Y-0.3102 Z6.8436
N590 X11.1589 Y-0.3181
N595 X11.1536 Y-0.3262 Z6.8437
N600 X11.1485 Y-0.3334 Z6.8438
N605 X11.1427 Y-0.3412 Z6.8439
N610 X11.1368 Y-0.3485 Z6.844
N615 X11.1295 Y-0.357 Z6.8441
N620 X11.1239 Y-0.3638
N625 X11.1204 Y-0.3683 Z6.8442
N630 X11.1173 Y-0.3729
N635 X11.1142 Y-0.3778 Z6.8443
N640 X11.1112 Y-0.3828
N645 X11.1086 Y-0.3879
N650 X11.1062 Y-0.3929 Z6.8444
N655 X11.104 Y-0.3981
N660 X11.102 Y-0.4033
N665 X11.1002 Y-0.4088 Z6.8445
N670 X11.0986 Y-0.4144
N675 X11.0972 Y-0.4201
N680 X11.0962 Y-0.4255
N685 X11.0955 Y-0.4301
N690 X11.0945 Y-0.4383 Z6.8446
N695 X11.1889 Z6.8432
N700 X11.2486 Z6.8426
N705 Z6.8326 F1.
N710 X11.1889 Z6.8332 F3.
N715 X11.0945 Z6.8346
N720 X11.0955 Y-0.4301 Z6.8345
N725 X11.0962 Y-0.4255
N730 X11.0972 Y-0.4201
N735 X11.0986 Y-0.4144
N740 X11.1002 Y-0.4088
N745 X11.102 Y-0.4033 Z6.8344
N750 X11.104 Y-0.3981
N755 X11.1062 Y-0.3929
N760 X11.1086 Y-0.3879 Z6.8343
N765 X11.1112 Y-0.3828
N770 X11.1142 Y-0.3778
N775 X11.1173 Y-0.3729 Z6.8342
N780 X11.1204 Y-0.3683
N785 X11.1239 Y-0.3638 Z6.8341
N790 X11.1295 Y-0.357
N795 X11.1368 Y-0.3485 Z6.834
N800 X11.1427 Y-0.3412 Z6.8339
N805 X11.1485 Y-0.3334 Z6.8338
N810 X11.1536 Y-0.3262 Z6.8337
N815 X11.1589 Y-0.3181 Z6.8336
N820 X11.1637 Y-0.3102
N825 X11.1681 Y-0.3024 Z6.8335
N830 X11.1723 Y-0.2942
N835 X11.1762 Y-0.2862 Z6.8334
N840 X11.1795 Y-0.2787
N845 X11.1827 Y-0.2709 Z6.8333
N850 X11.1857 Y-0.2629
N855 X11.1885 Y-0.2548 Z6.8332
N860 X11.191 Y-0.2463
N865 X11.1932 Y-0.2382
N870 X11.1951 Y-0.23
N875 X11.1969 Y-0.2209 Z6.8331
N880 X11.1984 Y-0.2125
N885 X11.1995 Y-0.2043
N890 X11.2005 Y-0.1953
N895 X11.2012 Y-0.1863
N900 X11.2016 Y-0.1791
N905 X11.2019 Y-0.1687
N910 Y-0.165
N915 G0 Z7.3559
N920 X10.8819 Y-0.165
N925 Z6.9446
N930 G1 Z6.8687 F1.
N935 X10.8818 Y-0.1687 F3.
N940 X10.8816 Y-0.1791
N945 X10.8812 Y-0.1863
N950 X10.8805 Y-0.1953
N955 X10.8795 Y-0.2043
N960 X10.8783 Y-0.2125 Z6.8688
N965 X10.8769 Y-0.2209
N970 X10.8751 Y-0.23 Z6.8689
N975 X10.8732 Y-0.2382
N980 X10.871 Y-0.2463 Z6.869
N985 X10.8684 Y-0.2548
N990 X10.8657 Y-0.2629 Z6.8691
N995 X10.8627 Y-0.2709 Z6.8692
N1000 X10.8595 Y-0.2787
N1005 X10.8561 Y-0.2862 Z6.8693
N1010 X10.8523 Y-0.2942 Z6.8694
N1015 X10.848 Y-0.3025 Z6.8695
N1020 X10.8437 Y-0.3102 Z6.8696
N1025 X10.8389 Y-0.3181 Z6.8698
N1030 X10.8336 Y-0.3263 Z6.8699
N1035 X10.8285 Y-0.3335 Z6.87
N1040 X10.8227 Y-0.3412 Z6.8702
N1045 X10.8167 Y-0.3485 Z6.8703
N1050 X10.8093 Y-0.3571 Z6.8705
N1055 X10.8038 Y-0.3638 Z6.8706
N1060 X10.8004 Y-0.3684 Z6.8707
N1065 X10.7972 Y-0.3729 Z6.8708
N1070 X10.7941 Y-0.3779 Z6.8709
N1075 X10.7912 Y-0.3829
N1080 X10.7885 Y-0.3879 Z6.871
N1085 X10.7861 Y-0.393 Z6.8711
N1090 X10.7839 Y-0.3982
N1095 X10.782 Y-0.4034 Z6.8712
N1100 X10.7802 Y-0.4088
N1105 X10.7786 Y-0.4144 Z6.8713
N1110 X10.7772 Y-0.4202
N1115 X10.7761 Y-0.4256
N1120 X10.7754 Y-0.4301
N1125 X10.7745 Y-0.4383 Z6.8714
N1130 X10.8649 Z6.8691
N1135 X10.9285 Z6.8677
N1140 Z6.8577 F1.
N1145 X10.8649 Z6.8591 F3.
N1150 X10.7745 Z6.8614
N1155 X10.7754 Y-0.4301 Z6.8613
N1160 X10.7761 Y-0.4256
N1165 X10.7772 Y-0.4202
N1170 X10.7786 Y-0.4144
N1175 X10.7802 Y-0.4088 Z6.8612
N1180 X10.782 Y-0.4034
N1185 X10.7839 Y-0.3982 Z6.8611
N1190 X10.7861 Y-0.393
N1195 X10.7885 Y-0.3879 Z6.861
N1200 X10.7912 Y-0.3829 Z6.8609
N1205 X10.7941 Y-0.3779
N1210 X10.7972 Y-0.3729 Z6.8608
N1215 X10.8004 Y-0.3684 Z6.8607
N1220 X10.8038 Y-0.3638 Z6.8606
N1225 X10.8093 Y-0.3571 Z6.8605
N1230 X10.8167 Y-0.3485 Z6.8603
N1235 X10.8227 Y-0.3412 Z6.8602
N1240 X10.8285 Y-0.3335 Z6.86
N1245 X10.8336 Y-0.3263 Z6.8599
N1250 X10.8389 Y-0.3181 Z6.8598
N1255 X10.8437 Y-0.3102 Z6.8596
N1260 X10.848 Y-0.3025 Z6.8595
N1265 X10.8523 Y-0.2942 Z6.8594
N1270 X10.8561 Y-0.2862 Z6.8593
N1275 X10.8595 Y-0.2787 Z6.8592
N1280 X10.8627 Y-0.2709
N1285 X10.8657 Y-0.2629 Z6.8591
N1290 X10.8684 Y-0.2548 Z6.859
N1295 X10.871 Y-0.2463
N1300 X10.8732 Y-0.2382 Z6.8589
N1305 X10.8751 Y-0.23
N1310 X10.8769 Y-0.2209 Z6.8588
N1315 X10.8783 Y-0.2125
N1320 X10.8795 Y-0.2043 Z6.8587
N1325 X10.8805 Y-0.1953
N1330 X10.8812 Y-0.1863
N1335 X10.8816 Y-0.1791
N1340 X10.8818 Y-0.1687
N1345 X10.8819 Y-0.165
N1350 Z6.8487 F1.
N1355 X10.8818 Y-0.1687 F3.
N1360 X10.8816 Y-0.1791
N1365 X10.8812 Y-0.1863
N1370 X10.8805 Y-0.1953
N1375 X10.8795 Y-0.2043
N1380 X10.8783 Y-0.2125 Z6.8488
N1385 X10.8769 Y-0.2209
N1390 X10.8751 Y-0.23 Z6.8489
N1395 X10.8732 Y-0.2382
N1400 X10.871 Y-0.2463 Z6.849
N1405 X10.8684 Y-0.2548
N1410 X10.8657 Y-0.2629 Z6.8491
N1415 X10.8627 Y-0.2709 Z6.8492
N1420 X10.8595 Y-0.2787
N1425 X10.8561 Y-0.2862 Z6.8493
N1430 X10.8523 Y-0.2942 Z6.8494
N1435 X10.848 Y-0.3025 Z6.8495
N1440 X10.8437 Y-0.3102 Z6.8496
N1445 X10.8389 Y-0.3181 Z6.8498
N1450 X10.8336 Y-0.3263 Z6.8499
N1455 X10.8285 Y-0.3335 Z6.85
N1460 X10.8227 Y-0.3412 Z6.8502
N1465 X10.8167 Y-0.3485 Z6.8503
N1470 X10.8093 Y-0.3571 Z6.8505
N1475 X10.8038 Y-0.3638 Z6.8506
N1480 X10.8004 Y-0.3684 Z6.8507
N1485 X10.7972 Y-0.3729 Z6.8508
N1490 X10.7941 Y-0.3779 Z6.8509
N1495 X10.7912 Y-0.3829
N1500 X10.7885 Y-0.3879 Z6.851
N1505 X10.7861 Y-0.393 Z6.8511
N1510 X10.7839 Y-0.3982
N1515 X10.782 Y-0.4034 Z6.8512
N1520 X10.7802 Y-0.4088
N1525 X10.7786 Y-0.4144 Z6.8513
N1530 X10.7772 Y-0.4202
N1535 X10.7761 Y-0.4256
N1540 X10.7754 Y-0.4301
N1545 X10.7745 Y-0.4383 Z6.8514
N1550 X10.8649 Z6.8491
N1555 X10.9285 Z6.8477
N1560 Z6.8377 F1.
N1565 X10.8649 Z6.8391 F3.
N1570 X10.7745 Z6.8414
N1575 X10.7754 Y-0.4301 Z6.8413
N1580 X10.7761 Y-0.4256
N1585 X10.7772 Y-0.4202
N1590 X10.7786 Y-0.4144
N1595 X10.7802 Y-0.4088 Z6.8412
N1600 X10.782 Y-0.4034
N1605 X10.7839 Y-0.3982 Z6.8411
N1610 X10.7861 Y-0.393
N1615 X10.7885 Y-0.3879 Z6.841
N1620 X10.7912 Y-0.3829 Z6.8409
N1625 X10.7941 Y-0.3779
N1630 X10.7972 Y-0.3729 Z6.8408
N1635 X10.8004 Y-0.3684 Z6.8407
N1640 X10.8038 Y-0.3638 Z6.8406
N1645 X10.8093 Y-0.3571 Z6.8405
N1650 X10.8167 Y-0.3485 Z6.8403
N1655 X10.8227 Y-0.3412 Z6.8402
N1660 X10.8285 Y-0.3335 Z6.84
N1665 X10.8336 Y-0.3263 Z6.8399
N1670 X10.8389 Y-0.3181 Z6.8398
N1675 X10.8437 Y-0.3102 Z6.8396
N1680 X10.848 Y-0.3025 Z6.8395
N1685 X10.8523 Y-0.2942 Z6.8394
N1690 X10.8561 Y-0.2862 Z6.8393
N1695 X10.8595 Y-0.2787 Z6.8392
N1700 X10.8627 Y-0.2709
N1705 X10.8657 Y-0.2629 Z6.8391
N1710 X10.8684 Y-0.2548 Z6.839
N1715 X10.871 Y-0.2463
N1720 X10.8732 Y-0.2382 Z6.8389
N1725 X10.8751 Y-0.23
N1730 X10.8769 Y-0.2209 Z6.8388
N1735 X10.8783 Y-0.2125
N1740 X10.8795 Y-0.2043 Z6.8387
N1745 X10.8805 Y-0.1953
N1750 X10.8812 Y-0.1863
N1755 X10.8816 Y-0.1791
N1760 X10.8818 Y-0.1687
N1765 X10.8819 Y-0.165
N1770 G0 Z7.3559
N1775 X10.5618 Y-0.165
N1780 Z6.9541
N1785 G1 Z6.8778 F1.
N1790 Y-0.1687 F3.
N1795 X10.5615 Y-0.1791
N1800 X10.5611 Y-0.1863
N1805 X10.5604 Y-0.1953 Z6.8779
N1810 X10.5594 Y-0.2043
N1815 X10.5583 Y-0.2125
N1820 X10.5569 Y-0.2209 Z6.878
N1825 X10.5551 Y-0.23
N1830 X10.5531 Y-0.2382 Z6.8781
N1835 X10.5509 Y-0.2463 Z6.8782
N1840 X10.5484 Y-0.2548 Z6.8783
N1845 X10.5456 Y-0.2629 Z6.8784
N1850 X10.5426 Y-0.2709 Z6.8785
N1855 X10.5394 Y-0.2787 Z6.8786
N1860 X10.5361 Y-0.2863 Z6.8787
N1865 X10.5323 Y-0.2942 Z6.8789
N1870 X10.528 Y-0.3025 Z6.879
N1875 X10.5236 Y-0.3102 Z6.8792
N1880 X10.5188 Y-0.3181 Z6.8793
N1885 X10.5135 Y-0.3263 Z6.8795
N1890 X10.5084 Y-0.3335 Z6.8797
N1895 X10.5026 Y-0.3412 Z6.8799
N1900 X10.4967 Y-0.3486 Z6.8801
N1905 X10.4892 Y-0.3573 Z6.8804
N1910 X10.4838 Y-0.3638 Z6.8806
N1915 X10.4803 Y-0.3684 Z6.8807
N1920 X10.4772 Y-0.373 Z6.8808
N1925 X10.4741 Y-0.3779 Z6.8809
N1930 X10.4711 Y-0.3829 Z6.881
N1935 X10.4685 Y-0.3879 Z6.8811
N1940 X10.4661 Y-0.393 Z6.8812
N1945 X10.4639 Y-0.3982 Z6.8813
N1950 X10.4619 Y-0.4035 Z6.8814
N1955 X10.4601 Y-0.4088
N1960 X10.4585 Y-0.4144 Z6.8815
N1965 X10.4571 Y-0.4202
N1970 X10.4561 Y-0.4256 Z6.8816
N1975 X10.4554 Y-0.4302
N1980 X10.4544 Y-0.4383
N1985 X10.5405 Z6.8786
N1990 X10.6085 Z6.8763
N1995 Z6.8663 F1.
N2000 X10.5405 Z6.8686 F3.
N2005 X10.4544 Z6.8716
N2010 X10.4554 Y-0.4302
N2015 X10.4561 Y-0.4256
N2020 X10.4571 Y-0.4202 Z6.8715
N2025 X10.4585 Y-0.4144
N2030 X10.4601 Y-0.4088 Z6.8714
N2035 X10.4619 Y-0.4035
N2040 X10.4639 Y-0.3982 Z6.8713
N2045 X10.4661 Y-0.393 Z6.8712
N2050 X10.4685 Y-0.3879 Z6.8711
N2055 X10.4711 Y-0.3829 Z6.871
N2060 X10.4741 Y-0.3779 Z6.8709
N2065 X10.4772 Y-0.373 Z6.8708
N2070 X10.4803 Y-0.3684 Z6.8707
N2075 X10.4838 Y-0.3638 Z6.8706
N2080 X10.4892 Y-0.3573 Z6.8704
N2085 X10.4967 Y-0.3486 Z6.8701
N2090 X10.5026 Y-0.3412 Z6.8699
N2095 X10.5084 Y-0.3335 Z6.8697
N2100 X10.5135 Y-0.3263 Z6.8695
N2105 X10.5188 Y-0.3181 Z6.8693
N2110 X10.5236 Y-0.3102 Z6.8692
N2115 X10.528 Y-0.3025 Z6.869
N2120 X10.5323 Y-0.2942 Z6.8689
N2125 X10.5361 Y-0.2863 Z6.8687
N2130 X10.5394 Y-0.2787 Z6.8686
N2135 X10.5426 Y-0.2709 Z6.8685
N2140 X10.5456 Y-0.2629 Z6.8684
N2145 X10.5484 Y-0.2548 Z6.8683
N2150 X10.5509 Y-0.2463 Z6.8682
N2155 X10.5531 Y-0.2382 Z6.8681
N2160 X10.5551 Y-0.23 Z6.868
N2165 X10.5569 Y-0.2209
N2170 X10.5583 Y-0.2125 Z6.8679
N2175 X10.5594 Y-0.2043
N2180 X10.5604 Y-0.1953
N2185 X10.5611 Y-0.1863 Z6.8678
N2190 X10.5615 Y-0.1791
N2195 X10.5618 Y-0.1687
N2200 Y-0.165
N2205 Z6.8578 F1.
N2210 Y-0.1687 F3.
N2215 X10.5615 Y-0.1791
N2220 X10.5611 Y-0.1863
N2225 X10.5604 Y-0.1953 Z6.8579
N2230 X10.5594 Y-0.2043
N2235 X10.5583 Y-0.2125
N2240 X10.5569 Y-0.2209 Z6.858
N2245 X10.5551 Y-0.23
N2250 X10.5531 Y-0.2382 Z6.8581
N2255 X10.5509 Y-0.2463 Z6.8582
N2260 X10.5484 Y-0.2548 Z6.8583
N2265 X10.5456 Y-0.2629 Z6.8584
N2270 X10.5426 Y-0.2709 Z6.8585
N2275 X10.5394 Y-0.2787 Z6.8586
N2280 X10.5361 Y-0.2863 Z6.8587
N2285 X10.5323 Y-0.2942 Z6.8589
N2290 X10.528 Y-0.3025 Z6.859
N2295 X10.5236 Y-0.3102 Z6.8592
N2300 X10.5188 Y-0.3181 Z6.8593
N2305 X10.5135 Y-0.3263 Z6.8595
N2310 X10.5084 Y-0.3335 Z6.8597
N2315 X10.5026 Y-0.3412 Z6.8599
N2320 X10.4967 Y-0.3486 Z6.8601
N2325 X10.4892 Y-0.3573 Z6.8604
N2330 X10.4838 Y-0.3638 Z6.8606
N2335 X10.4803 Y-0.3684 Z6.8607
N2340 X10.4772 Y-0.373 Z6.8608
N2345 X10.4741 Y-0.3779 Z6.8609
N2350 X10.4711 Y-0.3829 Z6.861
N2355 X10.4685 Y-0.3879 Z6.8611
N2360 X10.4661 Y-0.393 Z6.8612
N2365 X10.4639 Y-0.3982 Z6.8613
N2370 X10.4619 Y-0.4035 Z6.8614
N2375 X10.4601 Y-0.4088
N2380 X10.4585 Y-0.4144 Z6.8615
N2385 X10.4571 Y-0.4202
N2390 X10.4561 Y-0.4256 Z6.8616
N2395 X10.4554 Y-0.4302
N2400 X10.4544 Y-0.4383
N2405 X10.5405 Z6.8586
N2410 X10.6085 Z6.8563
N2415 Z6.8463 F1.
N2420 X10.5405 Z6.8486 F3.
N2425 X10.4544 Z6.8516
N2430 X10.4554 Y-0.4302
N2435 X10.4561 Y-0.4256
N2440 X10.4571 Y-0.4202 Z6.8515
N2445 X10.4585 Y-0.4144
N2450 X10.4601 Y-0.4088 Z6.8514
N2455 X10.4619 Y-0.4035
N2460 X10.4639 Y-0.3982 Z6.8513
N2465 X10.4661 Y-0.393 Z6.8512
N2470 X10.4685 Y-0.3879 Z6.8511
N2475 X10.4711 Y-0.3829 Z6.851
N2480 X10.4741 Y-0.3779 Z6.8509
N2485 X10.4772 Y-0.373 Z6.8508
N2490 X10.4803 Y-0.3684 Z6.8507
N2495 X10.4838 Y-0.3638 Z6.8506
N2500 X10.4892 Y-0.3573 Z6.8504
N2505 X10.4967 Y-0.3486 Z6.8501
N2510 X10.5026 Y-0.3412 Z6.8499
N2515 X10.5084 Y-0.3335 Z6.8497
N2520 X10.5135 Y-0.3263 Z6.8495
N2525 X10.5188 Y-0.3181 Z6.8493
N2530 X10.5236 Y-0.3102 Z6.8492
N2535 X10.528 Y-0.3025 Z6.849
N2540 X10.5323 Y-0.2942 Z6.8489
N2545 X10.5361 Y-0.2863 Z6.8487
N2550 X10.5394 Y-0.2787 Z6.8486
N2555 X10.5426 Y-0.2709 Z6.8485
N2560 X10.5456 Y-0.2629 Z6.8484
N2565 X10.5484 Y-0.2548 Z6.8483
N2570 X10.5509 Y-0.2463 Z6.8482
N2575 X10.5531 Y-0.2382 Z6.8481
N2580 X10.5551 Y-0.23 Z6.848
N2585 X10.5569 Y-0.2209
N2590 X10.5583 Y-0.2125 Z6.8479
N2595 X10.5594 Y-0.2043
N2600 X10.5604 Y-0.1953
N2605 X10.5611 Y-0.1863 Z6.8478
N2610 X10.5615 Y-0.1791
N2615 X10.5618 Y-0.1687
N2620 Y-0.165
N2625 G0 Z7.3559
N2630 X10.2418 Y-0.165
N2635 Z6.9671
N2640 G1 Z6.8904 F1.
N2645 X10.2417 Y-0.1687 F3.
N2650 X10.2415 Y-0.1791
N2655 X10.2411 Y-0.1864
N2660 X10.2404 Y-0.1953 Z6.8905
N2665 X10.2394 Y-0.2043
N2670 X10.2383 Y-0.2125 Z6.8906
N2675 X10.2368 Y-0.2209
N2680 X10.235 Y-0.23 Z6.8907
N2685 X10.2331 Y-0.2382 Z6.8908
N2690 X10.2309 Y-0.2463 Z6.8909
N2695 X10.2283 Y-0.2548 Z6.891
N2700 X10.2256 Y-0.263 Z6.8911
N2705 X10.2226 Y-0.2709 Z6.8913
N2710 X10.2194 Y-0.2787 Z6.8914
N2715 X10.216 Y-0.2863 Z6.8916
N2720 X10.2122 Y-0.2942 Z6.8918
N2725 X10.208 Y-0.3025 Z6.892
N2730 X10.2036 Y-0.3102 Z6.8922
N2735 X10.1988 Y-0.3181 Z6.8924
N2740 X10.1935 Y-0.3263 Z6.8926
N2745 X10.1884 Y-0.3335 Z6.8929
N2750 X10.1826 Y-0.3412 Z6.8932
N2755 X10.1766 Y-0.3486 Z6.8934
N2760 X10.169 Y-0.3574 Z6.8938
N2765 X10.1637 Y-0.3639 Z6.894
N2770 X10.1602 Y-0.3685 Z6.8942
N2775 X10.1571 Y-0.373 Z6.8944
N2780 X10.154 Y-0.3779 Z6.8945
N2785 X10.151 Y-0.383 Z6.8946
N2790 X10.1484 Y-0.388 Z6.8948
N2795 X10.146 Y-0.393 Z6.8949
N2800 X10.1438 Y-0.3982 Z6.895
N2805 X10.1419 Y-0.4035 Z6.8951
N2810 X10.1401 Y-0.4089 Z6.8952
N2815 X10.1385 Y-0.4145
N2820 X10.1371 Y-0.4202 Z6.8953
N2825 X10.136 Y-0.4257
N2830 X10.1354 Y-0.4302 Z6.8954
N2835 X10.1344 Y-0.4383
N2840 X10.2161 Z6.8916
N2845 X10.2885 Z6.8884
N2850 Z6.8784 F1.
N2855 X10.2161 Z6.8816 F3.
N2860 X10.1344 Z6.8854
N2865 X10.1354 Y-0.4302
N2870 X10.136 Y-0.4257 Z6.8853
N2875 X10.1371 Y-0.4202
N2880 X10.1385 Y-0.4145 Z6.8852
N2885 X10.1401 Y-0.4089
N2890 X10.1419 Y-0.4035 Z6.8851
N2895 X10.1438 Y-0.3982 Z6.885
N2900 X10.146 Y-0.393 Z6.8849
N2905 X10.1484 Y-0.388 Z6.8848
N2910 X10.151 Y-0.383 Z6.8846
N2915 X10.154 Y-0.3779 Z6.8845
N2920 X10.1571 Y-0.373 Z6.8844
N2925 X10.1602 Y-0.3685 Z6.8842
N2930 X10.1637 Y-0.3639 Z6.884
N2935 X10.169 Y-0.3574 Z6.8838
N2940 X10.1766 Y-0.3486 Z6.8834
N2945 X10.1826 Y-0.3412 Z6.8832
N2950 X10.1884 Y-0.3335 Z6.8829
N2955 X10.1935 Y-0.3263 Z6.8826
N2960 X10.1988 Y-0.3181 Z6.8824
N2965 X10.2036 Y-0.3102 Z6.8822
N2970 X10.208 Y-0.3025 Z6.882
N2975 X10.2122 Y-0.2942 Z6.8818
N2980 X10.216 Y-0.2863 Z6.8816
N2985 X10.2194 Y-0.2787 Z6.8814
N2990 X10.2226 Y-0.2709 Z6.8813
N2995 X10.2256 Y-0.263 Z6.8811
N3000 X10.2283 Y-0.2548 Z6.881
N3005 X10.2309 Y-0.2463 Z6.8809
N3010 X10.2331 Y-0.2382 Z6.8808
N3015 X10.235 Y-0.23 Z6.8807
N3020 X10.2368 Y-0.2209 Z6.8806
N3025 X10.2383 Y-0.2125
N3030 X10.2394 Y-0.2043 Z6.8805
N3035 X10.2404 Y-0.1953
N3040 X10.2411 Y-0.1864 Z6.8804
N3045 X10.2415 Y-0.1791
N3050 X10.2417 Y-0.1687
N3055 X10.2418 Y-0.165
N3060 Z6.8704 F1.
N3065 X10.2417 Y-0.1687 F3.
N3070 X10.2415 Y-0.1791
N3075 X10.2411 Y-0.1864
N3080 X10.2404 Y-0.1953 Z6.8705
N3085 X10.2394 Y-0.2043
N3090 X10.2383 Y-0.2125 Z6.8706
N3095 X10.2368 Y-0.2209
N3100 X10.235 Y-0.23 Z6.8707
N3105 X10.2331 Y-0.2382 Z6.8708
N3110 X10.2309 Y-0.2463 Z6.8709
N3115 X10.2283 Y-0.2548 Z6.871
N3120 X10.2256 Y-0.263 Z6.8711
N3125 X10.2226 Y-0.2709 Z6.8713
N3130 X10.2194 Y-0.2787 Z6.8714
N3135 X10.216 Y-0.2863 Z6.8716
N3140 X10.2122 Y-0.2942 Z6.8718
N3145 X10.208 Y-0.3025 Z6.872
N3150 X10.2036 Y-0.3102 Z6.8722
N3155 X10.1988 Y-0.3181 Z6.8724
N3160 X10.1935 Y-0.3263 Z6.8726
N3165 X10.1884 Y-0.3335 Z6.8729
N3170 X10.1826 Y-0.3412 Z6.8732
N3175 X10.1766 Y-0.3486 Z6.8734
N3180 X10.169 Y-0.3574 Z6.8738
N3185 X10.1637 Y-0.3639 Z6.874
N3190 X10.1602 Y-0.3685 Z6.8742
N3195 X10.1571 Y-0.373 Z6.8744
N3200 X10.154 Y-0.3779 Z6.8745
N3205 X10.151 Y-0.383 Z6.8746
N3210 X10.1484 Y-0.388 Z6.8748
N3215 X10.146 Y-0.393 Z6.8749
N3220 X10.1438 Y-0.3982 Z6.875
N3225 X10.1419 Y-0.4035 Z6.8751
N3230 X10.1401 Y-0.4089 Z6.8752
N3235 X10.1385 Y-0.4145
N3240 X10.1371 Y-0.4202 Z6.8753
N3245 X10.136 Y-0.4257
N3250 X10.1354 Y-0.4302 Z6.8754
N3255 X10.1344 Y-0.4383
N3260 X10.2161 Z6.8716
N3265 X10.2885 Z6.8684
N3270 Z6.8584 F1.
N3275 X10.2161 Z6.8616 F3.
N3280 X10.1344 Z6.8654
N3285 X10.1354 Y-0.4302
N3290 X10.136 Y-0.4257 Z6.8653
N3295 X10.1371 Y-0.4202
N3300 X10.1385 Y-0.4145 Z6.8652
N3305 X10.1401 Y-0.4089
N3310 X10.1419 Y-0.4035 Z6.8651
N3315 X10.1438 Y-0.3982 Z6.865
N3320 X10.146 Y-0.393 Z6.8649
N3325 X10.1484 Y-0.388 Z6.8648
N3330 X10.151 Y-0.383 Z6.8646
N3335 X10.154 Y-0.3779 Z6.8645
N3340 X10.1571 Y-0.373 Z6.8644
N3345 X10.1602 Y-0.3685 Z6.8642
N3350 X10.1637 Y-0.3639 Z6.864
N3355 X10.169 Y-0.3574 Z6.8638
N3360 X10.1766 Y-0.3486 Z6.8634
N3365 X10.1826 Y-0.3412 Z6.8632
N3370 X10.1884 Y-0.3335 Z6.8629
N3375 X10.1935 Y-0.3263 Z6.8626
N3380 X10.1988 Y-0.3181 Z6.8624
N3385 X10.2036 Y-0.3102 Z6.8622
N3390 X10.208 Y-0.3025 Z6.862
N3395 X10.2122 Y-0.2942 Z6.8618
N3400 X10.216 Y-0.2863 Z6.8616
N3405 X10.2194 Y-0.2787 Z6.8614
N3410 X10.2226 Y-0.2709 Z6.8613
N3415 X10.2256 Y-0.263 Z6.8611
N3420 X10.2283 Y-0.2548 Z6.861
N3425 X10.2309 Y-0.2463 Z6.8609
N3430 X10.2331 Y-0.2382 Z6.8608
N3435 X10.235 Y-0.23 Z6.8607
N3440 X10.2368 Y-0.2209 Z6.8606
N3445 X10.2383 Y-0.2125
N3450 X10.2394 Y-0.2043 Z6.8605
N3455 X10.2404 Y-0.1953
N3460 X10.2411 Y-0.1864 Z6.8604
N3465 X10.2415 Y-0.1791
N3470 X10.2417 Y-0.1687
N3475 X10.2418 Y-0.165
N3480 G0 Z7.6059

N3485 M5
N3490 M9
N3495 G53 G0 Z0.
N3500 G53 G0 X0. Y0.
N3505 G49
N3510 G69
N3515 G0 A0. C0.
N3520 M99
