O1111 (EMTSERIALSUB-6666)
(T50 D=0.125 CR=0. TAPER=30DEG - CHAMFER MILL)
N10 G90 G94 G17 G49
N15 G20
N20 G53 G0 Z0.

(SERIAL ENGRAVE TIT)
N25 T50 M6
N30 S18000 M3
N35 G90 G94 G17
N40 G54.1 P2
N45 G68.2 X0. Y0. Z0. I107.642 J90. K180.
N50 G53.1 P2
N55 M8
N60 G0 X11.2496 Y-0.2677
N65 G43 Z7.6059 H50
N70 G0 Z6.9379
N75 G1 Z6.8625 F1.
N80 X11.248 Y-0.2732 Z6.8626 F3.
N85 X11.2466 Y-0.2775
N90 X11.2448 Y-0.282
N95 X11.2426 Y-0.2864
N100 X11.2402 Y-0.2906
N105 X11.2376 Y-0.2946 Z6.8627
N110 X11.2347 Y-0.2985
N115 X11.2315 Y-0.3022
N120 X11.2282 Y-0.3056 Z6.8628
N125 X11.2255 Y-0.3083
N130 X11.2222 Y-0.3111
N135 X11.2185 Y-0.3139 Z6.8629
N140 X11.2149 Y-0.3165
N145 X11.2111 Y-0.3188
N150 X11.2066 Y-0.3212 Z6.863
N155 X11.2018 Y-0.3234 Z6.8631
N160 X11.197 Y-0.3252
N165 X11.192 Y-0.3267 Z6.8632
N170 X11.1875 Y-0.3277 Z6.8633
N175 X11.1832 Y-0.3284
N180 X11.1798 Y-0.3289 Z6.8634
N185 X11.1752 Y-0.3291
N190 X11.1716 Y-0.3292 Z6.8635
N195 X11.1664 Y-0.3289
N200 X11.1631 Y-0.3286 Z6.8636
N205 X11.159 Y-0.328
N210 X11.1546 Y-0.3271 Z6.8637
N215 X11.1506 Y-0.326 Z6.8638
N220 X11.1466 Y-0.3246
N225 X11.1424 Y-0.3228 Z6.8639
N230 X11.1383 Y-0.3208
N235 X11.1348 Y-0.3189 Z6.864
N240 X11.1308 Y-0.3164
N245 X11.1267 Y-0.3135 Z6.8641
N250 X11.1227 Y-0.3102
N255 X11.1189 Y-0.3067 Z6.8642
N260 X11.1154 Y-0.3029
N265 X11.112 Y-0.2987 Z6.8643
N270 X11.109 Y-0.2946
N275 X11.1062 Y-0.2903 Z6.8644
N280 X11.1036 Y-0.2855
N285 X11.1013 Y-0.2807
N290 X11.0994 Y-0.276 Z6.8645
N295 X11.0977 Y-0.2709
N300 X11.0965 Y-0.2665
N305 X11.0956 Y-0.2624
N310 X11.095 Y-0.2584 Z6.8646
N315 X11.0945 Y-0.2541
N320 X11.0942 Y-0.2475
N325 X11.0943 Y-0.2427
N330 X11.0946 Y-0.2374
N335 X11.0953 Y-0.2325 Z6.8645
N340 X11.0962 Y-0.2278
N345 X11.0973 Y-0.2235
N350 X11.0986 Y-0.2193
N355 X11.1003 Y-0.2148
N360 X11.1022 Y-0.2105 Z6.8644
N365 X11.104 Y-0.2067
N370 X11.1065 Y-0.2024
N375 X11.1094 Y-0.1979 Z6.8643
N380 X11.1124 Y-0.1938
N385 X11.1157 Y-0.1897 Z6.8642
N390 X11.1193 Y-0.1859
N395 X11.1231 Y-0.1823 Z6.8641
N400 X11.1271 Y-0.179
N405 X11.1314 Y-0.176 Z6.864
N410 X11.1358 Y-0.1733
N415 X11.1404 Y-0.1709 Z6.8639
N420 X11.1451 Y-0.1688 Z6.8638
N425 X11.15 Y-0.1669
N430 X11.1543 Y-0.1657 Z6.8637
N435 X11.1583 Y-0.1647
N440 X11.1621 Y-0.164 Z6.8636
N445 X11.1661 Y-0.1636
N450 X11.1718 Y-0.1632 Z6.8635
N455 X11.1747 Z6.8634
N460 X11.1798 Y-0.1635
N465 X11.1828 Y-0.1637 Z6.8633
N470 X11.1869 Y-0.1644
N475 X11.1914 Y-0.1653 Z6.8632
N480 X11.1954 Y-0.1664 Z6.8631
N485 X11.1993 Y-0.1677
N490 X11.2034 Y-0.1693 Z6.863
N495 X11.2074 Y-0.1712
N500 X11.2112 Y-0.1733 Z6.8629
N505 X11.2152 Y-0.1758
N510 X11.2194 Y-0.1787
N515 X11.2234 Y-0.182 Z6.8628
N520 X11.2272 Y-0.1855
N525 X11.2308 Y-0.1892 Z6.8627
N530 X11.2341 Y-0.1932
N535 X11.2372 Y-0.1975
N540 X11.2401 Y-0.2019 Z6.8626
N545 X11.2427 Y-0.2065
N550 X11.2449 Y-0.2112
N555 X11.2469 Y-0.216
N560 X11.2487 Y-0.2212
N565 X11.25 Y-0.2258 Z6.8625
N570 X11.2509 Y-0.2299
N575 X11.2516 Y-0.2337
N580 X11.252 Y-0.2376
N585 X11.2523 Y-0.2432
N590 Y-0.2469
N595 X11.2521 Y-0.2538
N600 X11.2517 Y-0.2582
N605 X11.2511 Y-0.2617
N610 X11.25 Y-0.2662
N615 X11.2497 Y-0.2673
N620 Z6.8525 F1.
N625 X11.25 Y-0.2662 F3.
N630 X11.2511 Y-0.2617
N635 X11.2517 Y-0.2582
N640 X11.2521 Y-0.2538
N645 X11.2523 Y-0.2469
N650 Y-0.2432
N655 X11.252 Y-0.2376
N660 X11.2516 Y-0.2337
N665 X11.2509 Y-0.2299
N670 X11.25 Y-0.2258
N675 X11.2487 Y-0.2212 Z6.8526
N680 X11.2469 Y-0.216
N685 X11.2449 Y-0.2112
N690 X11.2427 Y-0.2065
N695 X11.2401 Y-0.2019
N700 X11.2372 Y-0.1975 Z6.8527
N705 X11.2341 Y-0.1932
N710 X11.2308 Y-0.1892
N715 X11.2272 Y-0.1855 Z6.8528
N720 X11.2234 Y-0.182
N725 X11.2194 Y-0.1787 Z6.8529
N730 X11.2152 Y-0.1758
N735 X11.2112 Y-0.1733
N740 X11.2074 Y-0.1712 Z6.853
N745 X11.2034 Y-0.1693
N750 X11.1993 Y-0.1677 Z6.8531
N755 X11.1954 Y-0.1664
N760 X11.1914 Y-0.1653 Z6.8532
N765 X11.1869 Y-0.1644 Z6.8533
N770 X11.1828 Y-0.1637
N775 X11.1798 Y-0.1635 Z6.8534
N780 X11.1747 Y-0.1632
N785 X11.1718 Z6.8535
N790 X11.1661 Y-0.1636 Z6.8536
N795 X11.1621 Y-0.164
N800 X11.1583 Y-0.1647 Z6.8537
N805 X11.1543 Y-0.1657
N810 X11.15 Y-0.1669 Z6.8538
N815 X11.1451 Y-0.1688
N820 X11.1404 Y-0.1709 Z6.8539
N825 X11.1358 Y-0.1733 Z6.854
N830 X11.1314 Y-0.176
N835 X11.1271 Y-0.179 Z6.8541
N840 X11.1231 Y-0.1823
N845 X11.1193 Y-0.1859 Z6.8542
N850 X11.1157 Y-0.1897
N855 X11.1124 Y-0.1938 Z6.8543
N860 X11.1094 Y-0.1979
N865 X11.1065 Y-0.2024 Z6.8544
N870 X11.104 Y-0.2067
N875 X11.1022 Y-0.2105
N880 X11.1003 Y-0.2148 Z6.8545
N885 X11.0986 Y-0.2193
N890 X11.0973 Y-0.2235
N895 X11.0962 Y-0.2278
N900 X11.0953 Y-0.2325
N905 X11.0946 Y-0.2374 Z6.8546
N910 X11.0943 Y-0.2427
N915 X11.0942 Y-0.2475
N920 X11.0945 Y-0.2541
N925 X11.095 Y-0.2584
N930 X11.0956 Y-0.2624 Z6.8545
N935 X11.0965 Y-0.2665
N940 X11.0977 Y-0.2709
N945 X11.0994 Y-0.276
N950 X11.1013 Y-0.2807 Z6.8544
N955 X11.1036 Y-0.2855
N960 X11.1062 Y-0.2903
N965 X11.109 Y-0.2946 Z6.8543
N970 X11.112 Y-0.2987
N975 X11.1154 Y-0.3029 Z6.8542
N980 X11.1189 Y-0.3067
N985 X11.1227 Y-0.3102 Z6.8541
N990 X11.1267 Y-0.3135
N995 X11.1308 Y-0.3164 Z6.854
N1000 X11.1348 Y-0.3189
N1005 X11.1383 Y-0.3208 Z6.8539
N1010 X11.1424 Y-0.3228
N1015 X11.1466 Y-0.3246 Z6.8538
N1020 X11.1506 Y-0.326
N1025 X11.1546 Y-0.3271 Z6.8537
N1030 X11.159 Y-0.328 Z6.8536
N1035 X11.1631 Y-0.3286
N1040 X11.1664 Y-0.3289 Z6.8535
N1045 X11.1716 Y-0.3292
N1050 X11.1752 Y-0.3291 Z6.8534
N1055 X11.1798 Y-0.3289
N1060 X11.1832 Y-0.3284 Z6.8533
N1065 X11.1875 Y-0.3277
N1070 X11.192 Y-0.3267 Z6.8532
N1075 X11.197 Y-0.3252 Z6.8531
N1080 X11.2018 Y-0.3234
N1085 X11.2066 Y-0.3212 Z6.853
N1090 X11.2111 Y-0.3188 Z6.8529
N1095 X11.2149 Y-0.3165
N1100 X11.2185 Y-0.3139
N1105 X11.2222 Y-0.3111 Z6.8528
N1110 X11.2255 Y-0.3083
N1115 X11.2282 Y-0.3056
N1120 X11.2315 Y-0.3022 Z6.8527
N1125 X11.2347 Y-0.2985
N1130 X11.2376 Y-0.2946
N1135 X11.2402 Y-0.2906 Z6.8526
N1140 X11.2426 Y-0.2864
N1145 X11.2448 Y-0.282
N1150 X11.2466 Y-0.2775
N1155 X11.248 Y-0.2732
N1160 X11.2496 Y-0.2677 Z6.8525
N1165 Z6.8425 F1.
N1170 X11.248 Y-0.2732 Z6.8426 F3.
N1175 X11.2466 Y-0.2775
N1180 X11.2448 Y-0.282
N1185 X11.2426 Y-0.2864
N1190 X11.2402 Y-0.2906
N1195 X11.2376 Y-0.2946 Z6.8427
N1200 X11.2347 Y-0.2985
N1205 X11.2315 Y-0.3022
N1210 X11.2282 Y-0.3056 Z6.8428
N1215 X11.2255 Y-0.3083
N1220 X11.2222 Y-0.3111
N1225 X11.2185 Y-0.3139 Z6.8429
N1230 X11.2149 Y-0.3165
N1235 X11.2111 Y-0.3188
N1240 X11.2066 Y-0.3212 Z6.843
N1245 X11.2018 Y-0.3234 Z6.8431
N1250 X11.197 Y-0.3252
N1255 X11.192 Y-0.3267 Z6.8432
N1260 X11.1875 Y-0.3277 Z6.8433
N1265 X11.1832 Y-0.3284
N1270 X11.1798 Y-0.3289 Z6.8434
N1275 X11.1752 Y-0.3291
N1280 X11.1716 Y-0.3292 Z6.8435
N1285 X11.1664 Y-0.3289
N1290 X11.1631 Y-0.3286 Z6.8436
N1295 X11.159 Y-0.328
N1300 X11.1546 Y-0.3271 Z6.8437
N1305 X11.1506 Y-0.326 Z6.8438
N1310 X11.1466 Y-0.3246
N1315 X11.1424 Y-0.3228 Z6.8439
N1320 X11.1383 Y-0.3208
N1325 X11.1348 Y-0.3189 Z6.844
N1330 X11.1308 Y-0.3164
N1335 X11.1267 Y-0.3135 Z6.8441
N1340 X11.1227 Y-0.3102
N1345 X11.1189 Y-0.3067 Z6.8442
N1350 X11.1154 Y-0.3029
N1355 X11.112 Y-0.2987 Z6.8443
N1360 X11.109 Y-0.2946
N1365 X11.1062 Y-0.2903 Z6.8444
N1370 X11.1036 Y-0.2855
N1375 X11.1013 Y-0.2807
N1380 X11.0994 Y-0.276 Z6.8445
N1385 X11.0977 Y-0.2709
N1390 X11.0965 Y-0.2665
N1395 X11.0956 Y-0.2624
N1400 X11.095 Y-0.2584 Z6.8446
N1405 X11.0945 Y-0.2541
N1410 X11.0942 Y-0.2475
N1415 X11.0943 Y-0.2427
N1420 X11.0946 Y-0.2374
N1425 X11.0953 Y-0.2325 Z6.8445
N1430 X11.0962 Y-0.2278
N1435 X11.0973 Y-0.2235
N1440 X11.0986 Y-0.2193
N1445 X11.1003 Y-0.2148
N1450 X11.1022 Y-0.2105 Z6.8444
N1455 X11.104 Y-0.2067
N1460 X11.1065 Y-0.2024
N1465 X11.1094 Y-0.1979 Z6.8443
N1470 X11.1124 Y-0.1938
N1475 X11.1157 Y-0.1897 Z6.8442
N1480 X11.1193 Y-0.1859
N1485 X11.1231 Y-0.1823 Z6.8441
N1490 X11.1271 Y-0.179
N1495 X11.1314 Y-0.176 Z6.844
N1500 X11.1358 Y-0.1733
N1505 X11.1404 Y-0.1709 Z6.8439
N1510 X11.1451 Y-0.1688 Z6.8438
N1515 X11.15 Y-0.1669
N1520 X11.1543 Y-0.1657 Z6.8437
N1525 X11.1583 Y-0.1647
N1530 X11.1621 Y-0.164 Z6.8436
N1535 X11.1661 Y-0.1636
N1540 X11.1718 Y-0.1632 Z6.8435
N1545 X11.1747 Z6.8434
N1550 X11.1798 Y-0.1635
N1555 X11.1828 Y-0.1637 Z6.8433
N1560 X11.1869 Y-0.1644
N1565 X11.1914 Y-0.1653 Z6.8432
N1570 X11.1954 Y-0.1664 Z6.8431
N1575 X11.1993 Y-0.1677
N1580 X11.2034 Y-0.1693 Z6.843
N1585 X11.2074 Y-0.1712
N1590 X11.2112 Y-0.1733 Z6.8429
N1595 X11.2152 Y-0.1758
N1600 X11.2194 Y-0.1787
N1605 X11.2234 Y-0.182 Z6.8428
N1610 X11.2272 Y-0.1855
N1615 X11.2308 Y-0.1892 Z6.8427
N1620 X11.2341 Y-0.1932
N1625 X11.2372 Y-0.1975
N1630 X11.2401 Y-0.2019 Z6.8426
N1635 X11.2427 Y-0.2065
N1640 X11.2449 Y-0.2112
N1645 X11.2469 Y-0.216
N1650 X11.2487 Y-0.2212
N1655 X11.25 Y-0.2258 Z6.8425
N1660 X11.2509 Y-0.2299
N1665 X11.2516 Y-0.2337
N1670 X11.252 Y-0.2376
N1675 X11.2523 Y-0.2432
N1680 Y-0.2469
N1685 X11.2521 Y-0.2538
N1690 X11.2517 Y-0.2582
N1695 X11.2511 Y-0.2617
N1700 X11.25 Y-0.2662
N1705 X11.2497 Y-0.2673
N1710 Z6.8325 F1.
N1715 X11.25 Y-0.2662 F3.
N1720 X11.2511 Y-0.2617
N1725 X11.2517 Y-0.2582
N1730 X11.2521 Y-0.2538
N1735 X11.2523 Y-0.2469
N1740 Y-0.2432
N1745 X11.252 Y-0.2376
N1750 X11.2516 Y-0.2337
N1755 X11.2509 Y-0.2299
N1760 X11.25 Y-0.2258
N1765 X11.2487 Y-0.2212 Z6.8326
N1770 X11.2469 Y-0.216
N1775 X11.2449 Y-0.2112
N1780 X11.2427 Y-0.2065
N1785 X11.2401 Y-0.2019
N1790 X11.2372 Y-0.1975 Z6.8327
N1795 X11.2341 Y-0.1932
N1800 X11.2308 Y-0.1892
N1805 X11.2272 Y-0.1855 Z6.8328
N1810 X11.2234 Y-0.182
N1815 X11.2194 Y-0.1787 Z6.8329
N1820 X11.2152 Y-0.1758
N1825 X11.2112 Y-0.1733
N1830 X11.2074 Y-0.1712 Z6.833
N1835 X11.2034 Y-0.1693
N1840 X11.1993 Y-0.1677 Z6.8331
N1845 X11.1954 Y-0.1664
N1850 X11.1914 Y-0.1653 Z6.8332
N1855 X11.1869 Y-0.1644 Z6.8333
N1860 X11.1828 Y-0.1637
N1865 X11.1798 Y-0.1635 Z6.8334
N1870 X11.1747 Y-0.1632
N1875 X11.1718 Z6.8335
N1880 X11.1661 Y-0.1636 Z6.8336
N1885 X11.1621 Y-0.164
N1890 X11.1583 Y-0.1647 Z6.8337
N1895 X11.1543 Y-0.1657
N1900 X11.15 Y-0.1669 Z6.8338
N1905 X11.1451 Y-0.1688
N1910 X11.1404 Y-0.1709 Z6.8339
N1915 X11.1358 Y-0.1733 Z6.834
N1920 X11.1314 Y-0.176
N1925 X11.1271 Y-0.179 Z6.8341
N1930 X11.1231 Y-0.1823
N1935 X11.1193 Y-0.1859 Z6.8342
N1940 X11.1157 Y-0.1897
N1945 X11.1124 Y-0.1938 Z6.8343
N1950 X11.1094 Y-0.1979
N1955 X11.1065 Y-0.2024 Z6.8344
N1960 X11.104 Y-0.2067
N1965 X11.1022 Y-0.2105
N1970 X11.1003 Y-0.2148 Z6.8345
N1975 X11.0986 Y-0.2193
N1980 X11.0973 Y-0.2235
N1985 X11.0962 Y-0.2278
N1990 X11.0953 Y-0.2325
N1995 X11.0946 Y-0.2374 Z6.8346
N2000 X11.0943 Y-0.2427
N2005 X11.0942 Y-0.2475
N2010 X11.0945 Y-0.2541
N2015 X11.095 Y-0.2584
N2020 X11.0956 Y-0.2624 Z6.8345
N2025 X11.0965 Y-0.2665
N2030 X11.0977 Y-0.2709
N2035 X11.0994 Y-0.276
N2040 X11.1013 Y-0.2807 Z6.8344
N2045 X11.1036 Y-0.2855
N2050 X11.1062 Y-0.2903
N2055 X11.109 Y-0.2946 Z6.8343
N2060 X11.112 Y-0.2987
N2065 X11.1154 Y-0.3029 Z6.8342
N2070 X11.1189 Y-0.3067
N2075 X11.1227 Y-0.3102 Z6.8341
N2080 X11.1267 Y-0.3135
N2085 X11.1308 Y-0.3164 Z6.834
N2090 X11.1348 Y-0.3189
N2095 X11.1383 Y-0.3208 Z6.8339
N2100 X11.1424 Y-0.3228
N2105 X11.1466 Y-0.3246 Z6.8338
N2110 X11.1506 Y-0.326
N2115 X11.1546 Y-0.3271 Z6.8337
N2120 X11.159 Y-0.328 Z6.8336
N2125 X11.1631 Y-0.3286
N2130 X11.1664 Y-0.3289 Z6.8335
N2135 X11.1716 Y-0.3292
N2140 X11.1752 Y-0.3291 Z6.8334
N2145 X11.1798 Y-0.3289
N2150 X11.1832 Y-0.3284 Z6.8333
N2155 X11.1875 Y-0.3277
N2160 X11.192 Y-0.3267 Z6.8332
N2165 X11.197 Y-0.3252 Z6.8331
N2170 X11.2018 Y-0.3234
N2175 X11.2066 Y-0.3212 Z6.833
N2180 X11.2111 Y-0.3188 Z6.8329
N2185 X11.2149 Y-0.3165
N2190 X11.2185 Y-0.3139
N2195 X11.2222 Y-0.3111 Z6.8328
N2200 X11.2255 Y-0.3083
N2205 X11.2282 Y-0.3056
N2210 X11.2315 Y-0.3022 Z6.8327
N2215 X11.2347 Y-0.2985
N2220 X11.2376 Y-0.2946
N2225 X11.2402 Y-0.2906 Z6.8326
N2230 X11.2426 Y-0.2864
N2235 X11.2448 Y-0.282
N2240 X11.2466 Y-0.2775
N2245 X11.248 Y-0.2732
N2250 X11.2496 Y-0.2677 Z6.8325
N2255 G0 Z7.3559
N2260 X11.2497 Y-0.2673
N2265 Z6.9379
N2270 G1 Z6.8625 F1.
N2275 X11.2468 Y-0.2782 Z6.8626 F3.
N2280 X11.2443 Y-0.2865
N2285 X11.2413 Y-0.2956
N2290 X11.2381 Y-0.3046 Z6.8627
N2295 X11.2349 Y-0.3128
N2300 X11.2315 Y-0.3211
N2305 X11.2275 Y-0.3299 Z6.8628
N2310 X11.2236 Y-0.3382
N2315 X11.2191 Y-0.3469 Z6.8629
N2320 X11.2142 Y-0.3558
N2325 X11.209 Y-0.3645 Z6.863
N2330 X11.2037 Y-0.3729
N2335 X11.1982 Y-0.381 Z6.8631
N2340 X11.1923 Y-0.3892 Z6.8632
N2345 X11.1863 Y-0.397 Z6.8633
N2350 X11.1801 Y-0.4045 Z6.8634
N2355 X11.1731 Y-0.4124 Z6.8635
N2360 X11.1671 Y-0.4186
N2365 X11.1617 Y-0.424 Z6.8636
N2370 X11.1559 Y-0.4295 Z6.8637
N2375 X11.1467 Y-0.4376 Z6.8638
N2380 X11.146 Y-0.4383
N2385 Z6.8538 F1.
N2390 X11.1467 Y-0.4376 F3.
N2395 X11.1559 Y-0.4295 Z6.8537
N2400 X11.1617 Y-0.424 Z6.8536
N2405 X11.1671 Y-0.4186 Z6.8535
N2410 X11.1731 Y-0.4124
N2415 X11.1801 Y-0.4045 Z6.8534
N2420 X11.1863 Y-0.397 Z6.8533
N2425 X11.1923 Y-0.3892 Z6.8532
N2430 X11.1982 Y-0.381 Z6.8531
N2435 X11.2037 Y-0.3729 Z6.853
N2440 X11.209 Y-0.3645
N2445 X11.2142 Y-0.3558 Z6.8529
N2450 X11.2191 Y-0.3469
N2455 X11.2236 Y-0.3382 Z6.8528
N2460 X11.2275 Y-0.3299
N2465 X11.2315 Y-0.3211 Z6.8527
N2470 X11.2349 Y-0.3128
N2475 X11.2381 Y-0.3046
N2480 X11.2413 Y-0.2956 Z6.8526
N2485 X11.2443 Y-0.2865
N2490 X11.2468 Y-0.2782
N2495 X11.2497 Y-0.2673 Z6.8525
N2500 Z6.8425 F1.
N2505 X11.2468 Y-0.2782 Z6.8426 F3.
N2510 X11.2443 Y-0.2865
N2515 X11.2413 Y-0.2956
N2520 X11.2381 Y-0.3046 Z6.8427
N2525 X11.2349 Y-0.3128
N2530 X11.2315 Y-0.3211
N2535 X11.2275 Y-0.3299 Z6.8428
N2540 X11.2236 Y-0.3382
N2545 X11.2191 Y-0.3469 Z6.8429
N2550 X11.2142 Y-0.3558
N2555 X11.209 Y-0.3645 Z6.843
N2560 X11.2037 Y-0.3729
N2565 X11.1982 Y-0.381 Z6.8431
N2570 X11.1923 Y-0.3892 Z6.8432
N2575 X11.1863 Y-0.397 Z6.8433
N2580 X11.1801 Y-0.4045 Z6.8434
N2585 X11.1731 Y-0.4124 Z6.8435
N2590 X11.1671 Y-0.4186
N2595 X11.1617 Y-0.424 Z6.8436
N2600 X11.1559 Y-0.4295 Z6.8437
N2605 X11.1467 Y-0.4376 Z6.8438
N2610 X11.146 Y-0.4383
N2615 Z6.8338 F1.
N2620 X11.1467 Y-0.4376 F3.
N2625 X11.1559 Y-0.4295 Z6.8337
N2630 X11.1617 Y-0.424 Z6.8336
N2635 X11.1671 Y-0.4186 Z6.8335
N2640 X11.1731 Y-0.4124
N2645 X11.1801 Y-0.4045 Z6.8334
N2650 X11.1863 Y-0.397 Z6.8333
N2655 X11.1923 Y-0.3892 Z6.8332
N2660 X11.1982 Y-0.381 Z6.8331
N2665 X11.2037 Y-0.3729 Z6.833
N2670 X11.209 Y-0.3645
N2675 X11.2142 Y-0.3558 Z6.8329
N2680 X11.2191 Y-0.3469
N2685 X11.2236 Y-0.3382 Z6.8328
N2690 X11.2275 Y-0.3299
N2695 X11.2315 Y-0.3211 Z6.8327
N2700 X11.2349 Y-0.3128
N2705 X11.2381 Y-0.3046
N2710 X11.2413 Y-0.2956 Z6.8326
N2715 X11.2443 Y-0.2865
N2720 X11.2468 Y-0.2782
N2725 X11.2497 Y-0.2673 Z6.8325
N2730 G0 Z7.3559
N2735 X10.9297 Y-0.2673
N2740 Z6.9434
N2745 G1 Z6.8677 F1.
N2750 X10.93 Y-0.2662 F3.
N2755 X10.931 Y-0.2617 Z6.8676
N2760 X10.9316 Y-0.2582
N2765 X10.932 Y-0.2538
N2770 X10.9323 Y-0.2469
N2775 Y-0.2432
N2780 X10.932 Y-0.2376
N2785 X10.9315 Y-0.2337
N2790 X10.9309 Y-0.2298
N2795 X10.9299 Y-0.2258 Z6.8677
N2800 X10.9287 Y-0.2212
N2805 X10.9269 Y-0.216
N2810 X10.9249 Y-0.2112 Z6.8678
N2815 X10.9226 Y-0.2065
N2820 X10.92 Y-0.2019 Z6.8679
N2825 X10.9172 Y-0.1975
N2830 X10.9141 Y-0.1932 Z6.868
N2835 X10.9107 Y-0.1892 Z6.8681
N2840 X10.9072 Y-0.1855
N2845 X10.9033 Y-0.1819 Z6.8682
N2850 X10.8993 Y-0.1787 Z6.8683
N2855 X10.8952 Y-0.1758 Z6.8684
N2860 X10.8911 Y-0.1732 Z6.8685
N2865 X10.8874 Y-0.1712 Z6.8686
N2870 X10.8834 Y-0.1693 Z6.8687
N2875 X10.8793 Y-0.1677 Z6.8688
N2880 X10.8754 Y-0.1664 Z6.8689
N2885 X10.8714 Y-0.1653
N2890 X10.8668 Y-0.1643 Z6.8691
N2895 X10.8627 Y-0.1637 Z6.8692
N2900 X10.8596 Y-0.1635
N2905 X10.8546 Y-0.1632 Z6.8694
N2910 X10.8517
N2915 X10.846 Y-0.1636 Z6.8696
N2920 X10.842 Y-0.164 Z6.8697
N2925 X10.8382 Y-0.1647 Z6.8698
N2930 X10.8342 Y-0.1657 Z6.8699
N2935 X10.83 Y-0.1669 Z6.87
N2940 X10.8251 Y-0.1688 Z6.8701
N2945 X10.8204 Y-0.1709 Z6.8702
N2950 X10.8158 Y-0.1733 Z6.8703
N2955 X10.8113 Y-0.176 Z6.8704
N2960 X10.8071 Y-0.179 Z6.8705
N2965 X10.8031 Y-0.1823 Z6.8706
N2970 X10.7993 Y-0.1859 Z6.8707
N2975 X10.7957 Y-0.1897 Z6.8708
N2980 X10.7923 Y-0.1938 Z6.8709
N2985 X10.7893 Y-0.1979 Z6.871
N2990 X10.7865 Y-0.2024 Z6.8711
N2995 X10.784 Y-0.2068
N3000 X10.7821 Y-0.2105 Z6.8712
N3005 X10.7802 Y-0.2148
N3010 X10.7785 Y-0.2193 Z6.8713
N3015 X10.7772 Y-0.2235
N3020 X10.7762 Y-0.2278
N3025 X10.7753 Y-0.2325
N3030 X10.7746 Y-0.2375 Z6.8714
N3035 X10.7742 Y-0.2431
N3040 X10.7741 Y-0.2475
N3045 X10.7745 Y-0.2541
N3050 X10.7749 Y-0.2584 Z6.8713
N3055 X10.7756 Y-0.2624
N3060 X10.7765 Y-0.2665
N3065 X10.7776 Y-0.2709
N3070 X10.7794 Y-0.276 Z6.8712
N3075 X10.7813 Y-0.2807
N3080 X10.7836 Y-0.2855 Z6.8711
N3085 X10.7862 Y-0.2903
N3090 X10.789 Y-0.2946 Z6.871
N3095 X10.7919 Y-0.2987 Z6.8709
N3100 X10.7953 Y-0.3029 Z6.8708
N3105 X10.7989 Y-0.3067 Z6.8707
N3110 X10.8026 Y-0.3102
N3115 X10.8067 Y-0.3135 Z6.8706
N3120 X10.8108 Y-0.3165 Z6.8705
N3125 X10.8148 Y-0.3189 Z6.8704
N3130 X10.8183 Y-0.3208 Z6.8703
N3135 X10.8224 Y-0.3228 Z6.8702
N3140 X10.8266 Y-0.3246 Z6.8701
N3145 X10.8306 Y-0.326 Z6.87
N3150 X10.8346 Y-0.3271 Z6.8699
N3155 X10.839 Y-0.328 Z6.8698
N3160 X10.8432 Y-0.3286 Z6.8696
N3165 X10.8465 Y-0.3289
N3170 X10.8516 Y-0.3292 Z6.8694
N3175 X10.8552 Y-0.3291
N3180 X10.8597 Y-0.3289 Z6.8692
N3185 X10.8633 Y-0.3284
N3190 X10.8675 Y-0.3277 Z6.869
N3195 X10.872 Y-0.3267 Z6.8689
N3200 X10.877 Y-0.3252 Z6.8688
N3205 X10.8818 Y-0.3234 Z6.8687
N3210 X10.8866 Y-0.3212 Z6.8686
N3215 X10.8911 Y-0.3188 Z6.8685
N3220 X10.8949 Y-0.3164 Z6.8684
N3225 X10.8985 Y-0.3139 Z6.8683
N3230 X10.9022 Y-0.3111
N3235 X10.9054 Y-0.3083 Z6.8682
N3240 X10.9082 Y-0.3056 Z6.8681
N3245 X10.9115 Y-0.3022
N3250 X10.9146 Y-0.2985 Z6.868
N3255 X10.9176 Y-0.2946 Z6.8679
N3260 X10.9202 Y-0.2906
N3265 X10.9226 Y-0.2863 Z6.8678
N3270 X10.9247 Y-0.282
N3275 X10.9266 Y-0.2775 Z6.8677
N3280 X10.928 Y-0.2732
N3285 X10.9296 Y-0.2677
N3290 Z6.8577 F1.
N3295 X10.928 Y-0.2732 F3.
N3300 X10.9266 Y-0.2775
N3305 X10.9247 Y-0.282 Z6.8578
N3310 X10.9226 Y-0.2863
N3315 X10.9202 Y-0.2906 Z6.8579
N3320 X10.9176 Y-0.2946
N3325 X10.9146 Y-0.2985 Z6.858
N3330 X10.9115 Y-0.3022 Z6.8581
N3335 X10.9082 Y-0.3056
N3340 X10.9054 Y-0.3083 Z6.8582
N3345 X10.9022 Y-0.3111 Z6.8583
N3350 X10.8985 Y-0.3139
N3355 X10.8949 Y-0.3164 Z6.8584
N3360 X10.8911 Y-0.3188 Z6.8585
N3365 X10.8866 Y-0.3212 Z6.8586
N3370 X10.8818 Y-0.3234 Z6.8587
N3375 X10.877 Y-0.3252 Z6.8588
N3380 X10.872 Y-0.3267 Z6.8589
N3385 X10.8675 Y-0.3277 Z6.859
N3390 X10.8633 Y-0.3284 Z6.8592
N3395 X10.8597 Y-0.3289
N3400 X10.8552 Y-0.3291 Z6.8594
N3405 X10.8516 Y-0.3292
N3410 X10.8465 Y-0.3289 Z6.8596
N3415 X10.8432 Y-0.3286
N3420 X10.839 Y-0.328 Z6.8598
N3425 X10.8346 Y-0.3271 Z6.8599
N3430 X10.8306 Y-0.326 Z6.86
N3435 X10.8266 Y-0.3246 Z6.8601
N3440 X10.8224 Y-0.3228 Z6.8602
N3445 X10.8183 Y-0.3208 Z6.8603
N3450 X10.8148 Y-0.3189 Z6.8604
N3455 X10.8108 Y-0.3165 Z6.8605
N3460 X10.8067 Y-0.3135 Z6.8606
N3465 X10.8026 Y-0.3102 Z6.8607
N3470 X10.7989 Y-0.3067
N3475 X10.7953 Y-0.3029 Z6.8608
N3480 X10.7919 Y-0.2987 Z6.8609
N3485 X10.789 Y-0.2946 Z6.861
N3490 X10.7862 Y-0.2903 Z6.8611
N3495 X10.7836 Y-0.2855
N3500 X10.7813 Y-0.2807 Z6.8612
N3505 X10.7794 Y-0.276
N3510 X10.7776 Y-0.2709 Z6.8613
N3515 X10.7765 Y-0.2665
N3520 X10.7756 Y-0.2624
N3525 X10.7749 Y-0.2584
N3530 X10.7745 Y-0.2541 Z6.8614
N3535 X10.7741 Y-0.2475
N3540 X10.7742 Y-0.2431
N3545 X10.7746 Y-0.2375
N3550 X10.7753 Y-0.2325 Z6.8613
N3555 X10.7762 Y-0.2278
N3560 X10.7772 Y-0.2235
N3565 X10.7785 Y-0.2193
N3570 X10.7802 Y-0.2148 Z6.8612
N3575 X10.7821 Y-0.2105
N3580 X10.784 Y-0.2068 Z6.8611
N3585 X10.7865 Y-0.2024
N3590 X10.7893 Y-0.1979 Z6.861
N3595 X10.7923 Y-0.1938 Z6.8609
N3600 X10.7957 Y-0.1897 Z6.8608
N3605 X10.7993 Y-0.1859 Z6.8607
N3610 X10.8031 Y-0.1823 Z6.8606
N3615 X10.8071 Y-0.179 Z6.8605
N3620 X10.8113 Y-0.176 Z6.8604
N3625 X10.8158 Y-0.1733 Z6.8603
N3630 X10.8204 Y-0.1709 Z6.8602
N3635 X10.8251 Y-0.1688 Z6.8601
N3640 X10.83 Y-0.1669 Z6.86
N3645 X10.8342 Y-0.1657 Z6.8599
N3650 X10.8382 Y-0.1647 Z6.8598
N3655 X10.842 Y-0.164 Z6.8597
N3660 X10.846 Y-0.1636 Z6.8596
N3665 X10.8517 Y-0.1632 Z6.8594
N3670 X10.8546
N3675 X10.8596 Y-0.1635 Z6.8592
N3680 X10.8627 Y-0.1637
N3685 X10.8668 Y-0.1643 Z6.8591
N3690 X10.8714 Y-0.1653 Z6.8589
N3695 X10.8754 Y-0.1664
N3700 X10.8793 Y-0.1677 Z6.8588
N3705 X10.8834 Y-0.1693 Z6.8587
N3710 X10.8874 Y-0.1712 Z6.8586
N3715 X10.8911 Y-0.1732 Z6.8585
N3720 X10.8952 Y-0.1758 Z6.8584
N3725 X10.8993 Y-0.1787 Z6.8583
N3730 X10.9033 Y-0.1819 Z6.8582
N3735 X10.9072 Y-0.1855 Z6.8581
N3740 X10.9107 Y-0.1892
N3745 X10.9141 Y-0.1932 Z6.858
N3750 X10.9172 Y-0.1975 Z6.8579
N3755 X10.92 Y-0.2019
N3760 X10.9226 Y-0.2065 Z6.8578
N3765 X10.9249 Y-0.2112
N3770 X10.9269 Y-0.216 Z6.8577
N3775 X10.9287 Y-0.2212
N3780 X10.9299 Y-0.2258
N3785 X10.9309 Y-0.2298 Z6.8576
N3790 X10.9315 Y-0.2337
N3795 X10.932 Y-0.2376
N3800 X10.9323 Y-0.2432
N3805 Y-0.2469
N3810 X10.932 Y-0.2538
N3815 X10.9316 Y-0.2582
N3820 X10.931 Y-0.2617
N3825 X10.93 Y-0.2662 Z6.8577
N3830 X10.9297 Y-0.2673
N3835 Z6.8477 F1.
N3840 X10.93 Y-0.2662 F3.
N3845 X10.931 Y-0.2617 Z6.8476
N3850 X10.9316 Y-0.2582
N3855 X10.932 Y-0.2538
N3860 X10.9323 Y-0.2469
N3865 Y-0.2432
N3870 X10.932 Y-0.2376
N3875 X10.9315 Y-0.2337
N3880 X10.9309 Y-0.2298
N3885 X10.9299 Y-0.2258 Z6.8477
N3890 X10.9287 Y-0.2212
N3895 X10.9269 Y-0.216
N3900 X10.9249 Y-0.2112 Z6.8478
N3905 X10.9226 Y-0.2065
N3910 X10.92 Y-0.2019 Z6.8479
N3915 X10.9172 Y-0.1975
N3920 X10.9141 Y-0.1932 Z6.848
N3925 X10.9107 Y-0.1892 Z6.8481
N3930 X10.9072 Y-0.1855
N3935 X10.9033 Y-0.1819 Z6.8482
N3940 X10.8993 Y-0.1787 Z6.8483
N3945 X10.8952 Y-0.1758 Z6.8484
N3950 X10.8911 Y-0.1732 Z6.8485
N3955 X10.8874 Y-0.1712 Z6.8486
N3960 X10.8834 Y-0.1693 Z6.8487
N3965 X10.8793 Y-0.1677 Z6.8488
N3970 X10.8754 Y-0.1664 Z6.8489
N3975 X10.8714 Y-0.1653
N3980 X10.8668 Y-0.1643 Z6.8491
N3985 X10.8627 Y-0.1637 Z6.8492
N3990 X10.8596 Y-0.1635
N3995 X10.8546 Y-0.1632 Z6.8494
N4000 X10.8517
N4005 X10.846 Y-0.1636 Z6.8496
N4010 X10.842 Y-0.164 Z6.8497
N4015 X10.8382 Y-0.1647 Z6.8498
N4020 X10.8342 Y-0.1657 Z6.8499
N4025 X10.83 Y-0.1669 Z6.85
N4030 X10.8251 Y-0.1688 Z6.8501
N4035 X10.8204 Y-0.1709 Z6.8502
N4040 X10.8158 Y-0.1733 Z6.8503
N4045 X10.8113 Y-0.176 Z6.8504
N4050 X10.8071 Y-0.179 Z6.8505
N4055 X10.8031 Y-0.1823 Z6.8506
N4060 X10.7993 Y-0.1859 Z6.8507
N4065 X10.7957 Y-0.1897 Z6.8508
N4070 X10.7923 Y-0.1938 Z6.8509
N4075 X10.7893 Y-0.1979 Z6.851
N4080 X10.7865 Y-0.2024 Z6.8511
N4085 X10.784 Y-0.2068
N4090 X10.7821 Y-0.2105 Z6.8512
N4095 X10.7802 Y-0.2148
N4100 X10.7785 Y-0.2193 Z6.8513
N4105 X10.7772 Y-0.2235
N4110 X10.7762 Y-0.2278
N4115 X10.7753 Y-0.2325
N4120 X10.7746 Y-0.2375 Z6.8514
N4125 X10.7742 Y-0.2431
N4130 X10.7741 Y-0.2475
N4135 X10.7745 Y-0.2541
N4140 X10.7749 Y-0.2584 Z6.8513
N4145 X10.7756 Y-0.2624
N4150 X10.7765 Y-0.2665
N4155 X10.7776 Y-0.2709
N4160 X10.7794 Y-0.276 Z6.8512
N4165 X10.7813 Y-0.2807
N4170 X10.7836 Y-0.2855 Z6.8511
N4175 X10.7862 Y-0.2903
N4180 X10.789 Y-0.2946 Z6.851
N4185 X10.7919 Y-0.2987 Z6.8509
N4190 X10.7953 Y-0.3029 Z6.8508
N4195 X10.7989 Y-0.3067 Z6.8507
N4200 X10.8026 Y-0.3102
N4205 X10.8067 Y-0.3135 Z6.8506
N4210 X10.8108 Y-0.3165 Z6.8505
N4215 X10.8148 Y-0.3189 Z6.8504
N4220 X10.8183 Y-0.3208 Z6.8503
N4225 X10.8224 Y-0.3228 Z6.8502
N4230 X10.8266 Y-0.3246 Z6.8501
N4235 X10.8306 Y-0.326 Z6.85
N4240 X10.8346 Y-0.3271 Z6.8499
N4245 X10.839 Y-0.328 Z6.8498
N4250 X10.8432 Y-0.3286 Z6.8496
N4255 X10.8465 Y-0.3289
N4260 X10.8516 Y-0.3292 Z6.8494
N4265 X10.8552 Y-0.3291
N4270 X10.8597 Y-0.3289 Z6.8492
N4275 X10.8633 Y-0.3284
N4280 X10.8675 Y-0.3277 Z6.849
N4285 X10.872 Y-0.3267 Z6.8489
N4290 X10.877 Y-0.3252 Z6.8488
N4295 X10.8818 Y-0.3234 Z6.8487
N4300 X10.8866 Y-0.3212 Z6.8486
N4305 X10.8911 Y-0.3188 Z6.8485
N4310 X10.8949 Y-0.3164 Z6.8484
N4315 X10.8985 Y-0.3139 Z6.8483
N4320 X10.9022 Y-0.3111
N4325 X10.9054 Y-0.3083 Z6.8482
N4330 X10.9082 Y-0.3056 Z6.8481
N4335 X10.9115 Y-0.3022
N4340 X10.9146 Y-0.2985 Z6.848
N4345 X10.9176 Y-0.2946 Z6.8479
N4350 X10.9202 Y-0.2906
N4355 X10.9226 Y-0.2863 Z6.8478
N4360 X10.9247 Y-0.282
N4365 X10.9266 Y-0.2775 Z6.8477
N4370 X10.928 Y-0.2732
N4375 X10.9296 Y-0.2677
N4380 Z6.8377 F1.
N4385 X10.928 Y-0.2732 F3.
N4390 X10.9266 Y-0.2775
N4395 X10.9247 Y-0.282 Z6.8378
N4400 X10.9226 Y-0.2863
N4405 X10.9202 Y-0.2906 Z6.8379
N4410 X10.9176 Y-0.2946
N4415 X10.9146 Y-0.2985 Z6.838
N4420 X10.9115 Y-0.3022 Z6.8381
N4425 X10.9082 Y-0.3056
N4430 X10.9054 Y-0.3083 Z6.8382
N4435 X10.9022 Y-0.3111 Z6.8383
N4440 X10.8985 Y-0.3139
N4445 X10.8949 Y-0.3164 Z6.8384
N4450 X10.8911 Y-0.3188 Z6.8385
N4455 X10.8866 Y-0.3212 Z6.8386
N4460 X10.8818 Y-0.3234 Z6.8387
N4465 X10.877 Y-0.3252 Z6.8388
N4470 X10.872 Y-0.3267 Z6.8389
N4475 X10.8675 Y-0.3277 Z6.839
N4480 X10.8633 Y-0.3284 Z6.8392
N4485 X10.8597 Y-0.3289
N4490 X10.8552 Y-0.3291 Z6.8394
N4495 X10.8516 Y-0.3292
N4500 X10.8465 Y-0.3289 Z6.8396
N4505 X10.8432 Y-0.3286
N4510 X10.839 Y-0.328 Z6.8398
N4515 X10.8346 Y-0.3271 Z6.8399
N4520 X10.8306 Y-0.326 Z6.84
N4525 X10.8266 Y-0.3246 Z6.8401
N4530 X10.8224 Y-0.3228 Z6.8402
N4535 X10.8183 Y-0.3208 Z6.8403
N4540 X10.8148 Y-0.3189 Z6.8404
N4545 X10.8108 Y-0.3165 Z6.8405
N4550 X10.8067 Y-0.3135 Z6.8406
N4555 X10.8026 Y-0.3102 Z6.8407
N4560 X10.7989 Y-0.3067
N4565 X10.7953 Y-0.3029 Z6.8408
N4570 X10.7919 Y-0.2987 Z6.8409
N4575 X10.789 Y-0.2946 Z6.841
N4580 X10.7862 Y-0.2903 Z6.8411
N4585 X10.7836 Y-0.2855
N4590 X10.7813 Y-0.2807 Z6.8412
N4595 X10.7794 Y-0.276
N4600 X10.7776 Y-0.2709 Z6.8413
N4605 X10.7765 Y-0.2665
N4610 X10.7756 Y-0.2624
N4615 X10.7749 Y-0.2584
N4620 X10.7745 Y-0.2541 Z6.8414
N4625 X10.7741 Y-0.2475
N4630 X10.7742 Y-0.2431
N4635 X10.7746 Y-0.2375
N4640 X10.7753 Y-0.2325 Z6.8413
N4645 X10.7762 Y-0.2278
N4650 X10.7772 Y-0.2235
N4655 X10.7785 Y-0.2193
N4660 X10.7802 Y-0.2148 Z6.8412
N4665 X10.7821 Y-0.2105
N4670 X10.784 Y-0.2068 Z6.8411
N4675 X10.7865 Y-0.2024
N4680 X10.7893 Y-0.1979 Z6.841
N4685 X10.7923 Y-0.1938 Z6.8409
N4690 X10.7957 Y-0.1897 Z6.8408
N4695 X10.7993 Y-0.1859 Z6.8407
N4700 X10.8031 Y-0.1823 Z6.8406
N4705 X10.8071 Y-0.179 Z6.8405
N4710 X10.8113 Y-0.176 Z6.8404
N4715 X10.8158 Y-0.1733 Z6.8403
N4720 X10.8204 Y-0.1709 Z6.8402
N4725 X10.8251 Y-0.1688 Z6.8401
N4730 X10.83 Y-0.1669 Z6.84
N4735 X10.8342 Y-0.1657 Z6.8399
N4740 X10.8382 Y-0.1647 Z6.8398
N4745 X10.842 Y-0.164 Z6.8397
N4750 X10.846 Y-0.1636 Z6.8396
N4755 X10.8517 Y-0.1632 Z6.8394
N4760 X10.8546
N4765 X10.8596 Y-0.1635 Z6.8392
N4770 X10.8627 Y-0.1637
N4775 X10.8668 Y-0.1643 Z6.8391
N4780 X10.8714 Y-0.1653 Z6.8389
N4785 X10.8754 Y-0.1664
N4790 X10.8793 Y-0.1677 Z6.8388
N4795 X10.8834 Y-0.1693 Z6.8387
N4800 X10.8874 Y-0.1712 Z6.8386
N4805 X10.8911 Y-0.1732 Z6.8385
N4810 X10.8952 Y-0.1758 Z6.8384
N4815 X10.8993 Y-0.1787 Z6.8383
N4820 X10.9033 Y-0.1819 Z6.8382
N4825 X10.9072 Y-0.1855 Z6.8381
N4830 X10.9107 Y-0.1892
N4835 X10.9141 Y-0.1932 Z6.838
N4840 X10.9172 Y-0.1975 Z6.8379
N4845 X10.92 Y-0.2019
N4850 X10.9226 Y-0.2065 Z6.8378
N4855 X10.9249 Y-0.2112
N4860 X10.9269 Y-0.216 Z6.8377
N4865 X10.9287 Y-0.2212
N4870 X10.9299 Y-0.2258
N4875 X10.9309 Y-0.2298 Z6.8376
N4880 X10.9315 Y-0.2337
N4885 X10.932 Y-0.2376
N4890 X10.9323 Y-0.2432
N4895 Y-0.2469
N4900 X10.932 Y-0.2538
N4905 X10.9316 Y-0.2582
N4910 X10.931 Y-0.2617
N4915 X10.93 Y-0.2662 Z6.8377
N4920 X10.9297 Y-0.2673
N4925 Z6.8677
N4930 X10.9267 Y-0.2782
N4935 X10.9243 Y-0.2864 Z6.8678
N4940 X10.9213 Y-0.2956
N4945 X10.9181 Y-0.3046 Z6.8679
N4950 X10.9149 Y-0.3128 Z6.868
N4955 X10.9114 Y-0.3211 Z6.8681
N4960 X10.9075 Y-0.3299
N4965 X10.9035 Y-0.3382 Z6.8682
N4970 X10.899 Y-0.3469 Z6.8683
N4975 X10.8941 Y-0.3558 Z6.8684
N4980 X10.889 Y-0.3645 Z6.8685
N4985 X10.8837 Y-0.3728 Z6.8686
N4990 X10.8782 Y-0.381 Z6.8688
N4995 X10.8723 Y-0.3891 Z6.8689
N5000 X10.8662 Y-0.397 Z6.8691
N5005 X10.86 Y-0.4045 Z6.8692
N5010 X10.8531 Y-0.4123 Z6.8694
N5015 X10.8471 Y-0.4186 Z6.8696
N5020 X10.8417 Y-0.424 Z6.8697
N5025 X10.8359 Y-0.4295 Z6.8698
N5030 X10.8269 Y-0.4375 Z6.8701
N5035 X10.826 Y-0.4383
N5040 Z6.8601 F1.
N5045 X10.8269 Y-0.4375 F3.
N5050 X10.8359 Y-0.4295 Z6.8598
N5055 X10.8417 Y-0.424 Z6.8597
N5060 X10.8471 Y-0.4186 Z6.8596
N5065 X10.8531 Y-0.4123 Z6.8594
N5070 X10.86 Y-0.4045 Z6.8592
N5075 X10.8662 Y-0.397 Z6.8591
N5080 X10.8723 Y-0.3891 Z6.8589
N5085 X10.8782 Y-0.381 Z6.8588
N5090 X10.8837 Y-0.3728 Z6.8586
N5095 X10.889 Y-0.3645 Z6.8585
N5100 X10.8941 Y-0.3558 Z6.8584
N5105 X10.899 Y-0.3469 Z6.8583
N5110 X10.9035 Y-0.3382 Z6.8582
N5115 X10.9075 Y-0.3299 Z6.8581
N5120 X10.9114 Y-0.3211
N5125 X10.9149 Y-0.3128 Z6.858
N5130 X10.9181 Y-0.3046 Z6.8579
N5135 X10.9213 Y-0.2956 Z6.8578
N5140 X10.9243 Y-0.2864
N5145 X10.9267 Y-0.2782 Z6.8577
N5150 X10.9297 Y-0.2673
N5155 Z6.8477 F1.
N5160 X10.9267 Y-0.2782 F3.
N5165 X10.9243 Y-0.2864 Z6.8478
N5170 X10.9213 Y-0.2956
N5175 X10.9181 Y-0.3046 Z6.8479
N5180 X10.9149 Y-0.3128 Z6.848
N5185 X10.9114 Y-0.3211 Z6.8481
N5190 X10.9075 Y-0.3299
N5195 X10.9035 Y-0.3382 Z6.8482
N5200 X10.899 Y-0.3469 Z6.8483
N5205 X10.8941 Y-0.3558 Z6.8484
N5210 X10.889 Y-0.3645 Z6.8485
N5215 X10.8837 Y-0.3728 Z6.8486
N5220 X10.8782 Y-0.381 Z6.8488
N5225 X10.8723 Y-0.3891 Z6.8489
N5230 X10.8662 Y-0.397 Z6.8491
N5235 X10.86 Y-0.4045 Z6.8492
N5240 X10.8531 Y-0.4123 Z6.8494
N5245 X10.8471 Y-0.4186 Z6.8496
N5250 X10.8417 Y-0.424 Z6.8497
N5255 X10.8359 Y-0.4295 Z6.8498
N5260 X10.8269 Y-0.4375 Z6.8501
N5265 X10.826 Y-0.4383
N5270 Z6.8401 F1.
N5275 X10.8269 Y-0.4375 F3.
N5280 X10.8359 Y-0.4295 Z6.8398
N5285 X10.8417 Y-0.424 Z6.8397
N5290 X10.8471 Y-0.4186 Z6.8396
N5295 X10.8531 Y-0.4123 Z6.8394
N5300 X10.86 Y-0.4045 Z6.8392
N5305 X10.8662 Y-0.397 Z6.8391
N5310 X10.8723 Y-0.3891 Z6.8389
N5315 X10.8782 Y-0.381 Z6.8388
N5320 X10.8837 Y-0.3728 Z6.8386
N5325 X10.889 Y-0.3645 Z6.8385
N5330 X10.8941 Y-0.3558 Z6.8384
N5335 X10.899 Y-0.3469 Z6.8383
N5340 X10.9035 Y-0.3382 Z6.8382
N5345 X10.9075 Y-0.3299 Z6.8381
N5350 X10.9114 Y-0.3211
N5355 X10.9149 Y-0.3128 Z6.838
N5360 X10.9181 Y-0.3046 Z6.8379
N5365 X10.9213 Y-0.2956 Z6.8378
N5370 X10.9243 Y-0.2864
N5375 X10.9267 Y-0.2782 Z6.8377
N5380 X10.9297 Y-0.2673
N5385 G0 Z7.3559
N5390 X10.6096 Y-0.2673
N5395 Z6.9524
N5400 G1 Z6.8763 F1.
N5405 X10.6099 Y-0.2661 F3.
N5410 X10.611 Y-0.2617 Z6.8762
N5415 X10.6116 Y-0.2582
N5420 X10.612 Y-0.2538
N5425 X10.6122 Y-0.2469
N5430 Y-0.2432
N5435 X10.6119 Y-0.2376
N5440 X10.6115 Y-0.2337
N5445 X10.6108 Y-0.2298
N5450 X10.6099 Y-0.2258 Z6.8763
N5455 X10.6086 Y-0.2212
N5460 X10.6068 Y-0.2159 Z6.8764
N5465 X10.6049 Y-0.2112
N5470 X10.6026 Y-0.2065 Z6.8765
N5475 X10.6 Y-0.2019 Z6.8766
N5480 X10.5971 Y-0.1974 Z6.8767
N5485 X10.594 Y-0.1932 Z6.8768
N5490 X10.5907 Y-0.1892 Z6.8769
N5495 X10.5871 Y-0.1855 Z6.877
N5500 X10.5833 Y-0.1819 Z6.8771
N5505 X10.5792 Y-0.1786 Z6.8772
N5510 X10.5751 Y-0.1757 Z6.8774
N5515 X10.571 Y-0.1732 Z6.8775
N5520 X10.5673 Y-0.1712 Z6.8776
N5525 X10.5633 Y-0.1693 Z6.8778
N5530 X10.5592 Y-0.1677 Z6.8779
N5535 X10.5553 Y-0.1664 Z6.878
N5540 X10.5513 Y-0.1653 Z6.8782
N5545 X10.5468 Y-0.1643 Z6.8783
N5550 X10.5426 Y-0.1637 Z6.8785
N5555 X10.5394 Y-0.1634 Z6.8786
N5560 X10.5344 Y-0.1632 Z6.8788
N5565 X10.5315 Y-0.1633 Z6.8789
N5570 X10.5259 Y-0.1636 Z6.8791
N5575 X10.5219 Y-0.1641 Z6.8792
N5580 X10.5181 Y-0.1647 Z6.8794
N5585 X10.5142 Y-0.1657 Z6.8795
N5590 X10.5099 Y-0.167 Z6.8797
N5595 X10.505 Y-0.1688 Z6.8798
N5600 X10.5003 Y-0.1709 Z6.88
N5605 X10.4957 Y-0.1733 Z6.8802
N5610 X10.4913 Y-0.176 Z6.8803
N5615 X10.487 Y-0.179 Z6.8805
N5620 X10.4831 Y-0.1823 Z6.8806
N5625 X10.4793 Y-0.1859 Z6.8808
N5630 X10.4756 Y-0.1897 Z6.8809
N5635 X10.4723 Y-0.1938 Z6.881
N5640 X10.4693 Y-0.1979 Z6.8811
N5645 X10.4664 Y-0.2024 Z6.8812
N5650 X10.4639 Y-0.2068 Z6.8813
N5655 X10.462 Y-0.2106 Z6.8814
N5660 X10.4602 Y-0.2149
N5665 X10.4585 Y-0.2193 Z6.8815
N5670 X10.4572 Y-0.2235
N5675 X10.4561 Y-0.2278 Z6.8816
N5680 X10.4552 Y-0.2326
N5685 X10.4545 Y-0.2378
N5690 X10.4542 Y-0.2439 Z6.8817
N5695 X10.4541 Y-0.2477
N5700 X10.4544 Y-0.2542 Z6.8816
N5705 X10.4549 Y-0.2584
N5710 X10.4555 Y-0.2625
N5715 X10.4564 Y-0.2665
N5720 X10.4576 Y-0.2709 Z6.8815
N5725 X10.4593 Y-0.276
N5730 X10.4613 Y-0.2807 Z6.8814
N5735 X10.4635 Y-0.2855 Z6.8813
N5740 X10.4662 Y-0.2903 Z6.8812
N5745 X10.4689 Y-0.2946 Z6.8811
N5750 X10.4719 Y-0.2987 Z6.881
N5755 X10.4753 Y-0.3029 Z6.8809
N5760 X10.4789 Y-0.3067 Z6.8808
N5765 X10.4826 Y-0.3102 Z6.8806
N5770 X10.4866 Y-0.3135 Z6.8805
N5775 X10.4908 Y-0.3165 Z6.8803
N5780 X10.4948 Y-0.319 Z6.8802
N5785 X10.4983 Y-0.3209 Z6.8801
N5790 X10.5023 Y-0.3228 Z6.8799
N5795 X10.5066 Y-0.3246 Z6.8798
N5800 X10.5106 Y-0.326 Z6.8796
N5805 X10.5146 Y-0.3271 Z6.8795
N5810 X10.519 Y-0.328 Z6.8793
N5815 X10.5231 Y-0.3286 Z6.8792
N5820 X10.5265 Y-0.3289 Z6.8791
N5825 X10.5316 Y-0.3292 Z6.8789
N5830 X10.5352 Y-0.3291 Z6.8788
N5835 X10.5398 Y-0.3289 Z6.8786
N5840 X10.5433 Y-0.3284 Z6.8785
N5845 X10.5474 Y-0.3277 Z6.8783
N5850 X10.552 Y-0.3267 Z6.8782
N5855 X10.557 Y-0.3252 Z6.878
N5860 X10.5618 Y-0.3234 Z6.8778
N5865 X10.5665 Y-0.3212 Z6.8777
N5870 X10.571 Y-0.3188 Z6.8775
N5875 X10.5748 Y-0.3164 Z6.8774
N5880 X10.5785 Y-0.3139 Z6.8773
N5885 X10.5822 Y-0.3111 Z6.8772
N5890 X10.5854 Y-0.3083 Z6.877
N5895 X10.5882 Y-0.3056
N5900 X10.5915 Y-0.3022 Z6.8769
N5905 X10.5946 Y-0.2985 Z6.8768
N5910 X10.5975 Y-0.2946 Z6.8767
N5915 X10.6002 Y-0.2905 Z6.8766
N5920 X10.6026 Y-0.2863 Z6.8765
N5925 X10.6047 Y-0.282 Z6.8764
N5930 X10.6065 Y-0.2775
N5935 X10.608 Y-0.2732 Z6.8763
N5940 X10.6095 Y-0.2677
N5945 Z6.8663 F1.
N5950 X10.608 Y-0.2732 F3.
N5955 X10.6065 Y-0.2775 Z6.8664
N5960 X10.6047 Y-0.282
N5965 X10.6026 Y-0.2863 Z6.8665
N5970 X10.6002 Y-0.2905 Z6.8666
N5975 X10.5975 Y-0.2946 Z6.8667
N5980 X10.5946 Y-0.2985 Z6.8668
N5985 X10.5915 Y-0.3022 Z6.8669
N5990 X10.5882 Y-0.3056 Z6.867
N5995 X10.5854 Y-0.3083
N6000 X10.5822 Y-0.3111 Z6.8672
N6005 X10.5785 Y-0.3139 Z6.8673
N6010 X10.5748 Y-0.3164 Z6.8674
N6015 X10.571 Y-0.3188 Z6.8675
N6020 X10.5665 Y-0.3212 Z6.8677
N6025 X10.5618 Y-0.3234 Z6.8678
N6030 X10.557 Y-0.3252 Z6.868
N6035 X10.552 Y-0.3267 Z6.8682
N6040 X10.5474 Y-0.3277 Z6.8683
N6045 X10.5433 Y-0.3284 Z6.8685
N6050 X10.5398 Y-0.3289 Z6.8686
N6055 X10.5352 Y-0.3291 Z6.8688
N6060 X10.5316 Y-0.3292 Z6.8689
N6065 X10.5265 Y-0.3289 Z6.8691
N6070 X10.5231 Y-0.3286 Z6.8692
N6075 X10.519 Y-0.328 Z6.8693
N6080 X10.5146 Y-0.3271 Z6.8695
N6085 X10.5106 Y-0.326 Z6.8696
N6090 X10.5066 Y-0.3246 Z6.8698
N6095 X10.5023 Y-0.3228 Z6.8699
N6100 X10.4983 Y-0.3209 Z6.8701
N6105 X10.4948 Y-0.319 Z6.8702
N6110 X10.4908 Y-0.3165 Z6.8703
N6115 X10.4866 Y-0.3135 Z6.8705
N6120 X10.4826 Y-0.3102 Z6.8706
N6125 X10.4789 Y-0.3067 Z6.8708
N6130 X10.4753 Y-0.3029 Z6.8709
N6135 X10.4719 Y-0.2987 Z6.871
N6140 X10.4689 Y-0.2946 Z6.8711
N6145 X10.4662 Y-0.2903 Z6.8712
N6150 X10.4635 Y-0.2855 Z6.8713
N6155 X10.4613 Y-0.2807 Z6.8714
N6160 X10.4593 Y-0.276 Z6.8715
N6165 X10.4576 Y-0.2709
N6170 X10.4564 Y-0.2665 Z6.8716
N6175 X10.4555 Y-0.2625
N6180 X10.4549 Y-0.2584
N6185 X10.4544 Y-0.2542
N6190 X10.4541 Y-0.2477 Z6.8717
N6195 X10.4542 Y-0.2439
N6200 X10.4545 Y-0.2378 Z6.8716
N6205 X10.4552 Y-0.2326
N6210 X10.4561 Y-0.2278
N6215 X10.4572 Y-0.2235 Z6.8715
N6220 X10.4585 Y-0.2193
N6225 X10.4602 Y-0.2149 Z6.8714
N6230 X10.462 Y-0.2106
N6235 X10.4639 Y-0.2068 Z6.8713
N6240 X10.4664 Y-0.2024 Z6.8712
N6245 X10.4693 Y-0.1979 Z6.8711
N6250 X10.4723 Y-0.1938 Z6.871
N6255 X10.4756 Y-0.1897 Z6.8709
N6260 X10.4793 Y-0.1859 Z6.8708
N6265 X10.4831 Y-0.1823 Z6.8706
N6270 X10.487 Y-0.179 Z6.8705
N6275 X10.4913 Y-0.176 Z6.8703
N6280 X10.4957 Y-0.1733 Z6.8702
N6285 X10.5003 Y-0.1709 Z6.87
N6290 X10.505 Y-0.1688 Z6.8698
N6295 X10.5099 Y-0.167 Z6.8697
N6300 X10.5142 Y-0.1657 Z6.8695
N6305 X10.5181 Y-0.1647 Z6.8694
N6310 X10.5219 Y-0.1641 Z6.8692
N6315 X10.5259 Y-0.1636 Z6.8691
N6320 X10.5315 Y-0.1633 Z6.8689
N6325 X10.5344 Y-0.1632 Z6.8688
N6330 X10.5394 Y-0.1634 Z6.8686
N6335 X10.5426 Y-0.1637 Z6.8685
N6340 X10.5468 Y-0.1643 Z6.8683
N6345 X10.5513 Y-0.1653 Z6.8682
N6350 X10.5553 Y-0.1664 Z6.868
N6355 X10.5592 Y-0.1677 Z6.8679
N6360 X10.5633 Y-0.1693 Z6.8678
N6365 X10.5673 Y-0.1712 Z6.8676
N6370 X10.571 Y-0.1732 Z6.8675
N6375 X10.5751 Y-0.1757 Z6.8674
N6380 X10.5792 Y-0.1786 Z6.8672
N6385 X10.5833 Y-0.1819 Z6.8671
N6390 X10.5871 Y-0.1855 Z6.867
N6395 X10.5907 Y-0.1892 Z6.8669
N6400 X10.594 Y-0.1932 Z6.8668
N6405 X10.5971 Y-0.1974 Z6.8667
N6410 X10.6 Y-0.2019 Z6.8666
N6415 X10.6026 Y-0.2065 Z6.8665
N6420 X10.6049 Y-0.2112 Z6.8664
N6425 X10.6068 Y-0.2159
N6430 X10.6086 Y-0.2212 Z6.8663
N6435 X10.6099 Y-0.2258
N6440 X10.6108 Y-0.2298 Z6.8662
N6445 X10.6115 Y-0.2337
N6450 X10.6119 Y-0.2376
N6455 X10.6122 Y-0.2432
N6460 Y-0.2469
N6465 X10.612 Y-0.2538
N6470 X10.6116 Y-0.2582
N6475 X10.611 Y-0.2617
N6480 X10.6099 Y-0.2661 Z6.8663
N6485 X10.6096 Y-0.2673
N6490 Z6.8563 F1.
N6495 X10.6099 Y-0.2661 F3.
N6500 X10.611 Y-0.2617 Z6.8562
N6505 X10.6116 Y-0.2582
N6510 X10.612 Y-0.2538
N6515 X10.6122 Y-0.2469
N6520 Y-0.2432
N6525 X10.6119 Y-0.2376
N6530 X10.6115 Y-0.2337
N6535 X10.6108 Y-0.2298
N6540 X10.6099 Y-0.2258 Z6.8563
N6545 X10.6086 Y-0.2212
N6550 X10.6068 Y-0.2159 Z6.8564
N6555 X10.6049 Y-0.2112
N6560 X10.6026 Y-0.2065 Z6.8565
N6565 X10.6 Y-0.2019 Z6.8566
N6570 X10.5971 Y-0.1974 Z6.8567
N6575 X10.594 Y-0.1932 Z6.8568
N6580 X10.5907 Y-0.1892 Z6.8569
N6585 X10.5871 Y-0.1855 Z6.857
N6590 X10.5833 Y-0.1819 Z6.8571
N6595 X10.5792 Y-0.1786 Z6.8572
N6600 X10.5751 Y-0.1757 Z6.8574
N6605 X10.571 Y-0.1732 Z6.8575
N6610 X10.5673 Y-0.1712 Z6.8576
N6615 X10.5633 Y-0.1693 Z6.8578
N6620 X10.5592 Y-0.1677 Z6.8579
N6625 X10.5553 Y-0.1664 Z6.858
N6630 X10.5513 Y-0.1653 Z6.8582
N6635 X10.5468 Y-0.1643 Z6.8583
N6640 X10.5426 Y-0.1637 Z6.8585
N6645 X10.5394 Y-0.1634 Z6.8586
N6650 X10.5344 Y-0.1632 Z6.8588
N6655 X10.5315 Y-0.1633 Z6.8589
N6660 X10.5259 Y-0.1636 Z6.8591
N6665 X10.5219 Y-0.1641 Z6.8592
N6670 X10.5181 Y-0.1647 Z6.8594
N6675 X10.5142 Y-0.1657 Z6.8595
N6680 X10.5099 Y-0.167 Z6.8597
N6685 X10.505 Y-0.1688 Z6.8598
N6690 X10.5003 Y-0.1709 Z6.86
N6695 X10.4957 Y-0.1733 Z6.8602
N6700 X10.4913 Y-0.176 Z6.8603
N6705 X10.487 Y-0.179 Z6.8605
N6710 X10.4831 Y-0.1823 Z6.8606
N6715 X10.4793 Y-0.1859 Z6.8608
N6720 X10.4756 Y-0.1897 Z6.8609
N6725 X10.4723 Y-0.1938 Z6.861
N6730 X10.4693 Y-0.1979 Z6.8611
N6735 X10.4664 Y-0.2024 Z6.8612
N6740 X10.4639 Y-0.2068 Z6.8613
N6745 X10.462 Y-0.2106 Z6.8614
N6750 X10.4602 Y-0.2149
N6755 X10.4585 Y-0.2193 Z6.8615
N6760 X10.4572 Y-0.2235
N6765 X10.4561 Y-0.2278 Z6.8616
N6770 X10.4552 Y-0.2326
N6775 X10.4545 Y-0.2378
N6780 X10.4542 Y-0.2439 Z6.8617
N6785 X10.4541 Y-0.2477
N6790 X10.4544 Y-0.2542 Z6.8616
N6795 X10.4549 Y-0.2584
N6800 X10.4555 Y-0.2625
N6805 X10.4564 Y-0.2665
N6810 X10.4576 Y-0.2709 Z6.8615
N6815 X10.4593 Y-0.276
N6820 X10.4613 Y-0.2807 Z6.8614
N6825 X10.4635 Y-0.2855 Z6.8613
N6830 X10.4662 Y-0.2903 Z6.8612
N6835 X10.4689 Y-0.2946 Z6.8611
N6840 X10.4719 Y-0.2987 Z6.861
N6845 X10.4753 Y-0.3029 Z6.8609
N6850 X10.4789 Y-0.3067 Z6.8608
N6855 X10.4826 Y-0.3102 Z6.8606
N6860 X10.4866 Y-0.3135 Z6.8605
N6865 X10.4908 Y-0.3165 Z6.8603
N6870 X10.4948 Y-0.319 Z6.8602
N6875 X10.4983 Y-0.3209 Z6.8601
N6880 X10.5023 Y-0.3228 Z6.8599
N6885 X10.5066 Y-0.3246 Z6.8598
N6890 X10.5106 Y-0.326 Z6.8596
N6895 X10.5146 Y-0.3271 Z6.8595
N6900 X10.519 Y-0.328 Z6.8593
N6905 X10.5231 Y-0.3286 Z6.8592
N6910 X10.5265 Y-0.3289 Z6.8591
N6915 X10.5316 Y-0.3292 Z6.8589
N6920 X10.5352 Y-0.3291 Z6.8588
N6925 X10.5398 Y-0.3289 Z6.8586
N6930 X10.5433 Y-0.3284 Z6.8585
N6935 X10.5474 Y-0.3277 Z6.8583
N6940 X10.552 Y-0.3267 Z6.8582
N6945 X10.557 Y-0.3252 Z6.858
N6950 X10.5618 Y-0.3234 Z6.8578
N6955 X10.5665 Y-0.3212 Z6.8577
N6960 X10.571 Y-0.3188 Z6.8575
N6965 X10.5748 Y-0.3164 Z6.8574
N6970 X10.5785 Y-0.3139 Z6.8573
N6975 X10.5822 Y-0.3111 Z6.8572
N6980 X10.5854 Y-0.3083 Z6.857
N6985 X10.5882 Y-0.3056
N6990 X10.5915 Y-0.3022 Z6.8569
N6995 X10.5946 Y-0.2985 Z6.8568
N7000 X10.5975 Y-0.2946 Z6.8567
N7005 X10.6002 Y-0.2905 Z6.8566
N7010 X10.6026 Y-0.2863 Z6.8565
N7015 X10.6047 Y-0.282 Z6.8564
N7020 X10.6065 Y-0.2775
N7025 X10.608 Y-0.2732 Z6.8563
N7030 X10.6095 Y-0.2677
N7035 Z6.8463 F1.
N7040 X10.608 Y-0.2732 F3.
N7045 X10.6065 Y-0.2775 Z6.8464
N7050 X10.6047 Y-0.282
N7055 X10.6026 Y-0.2863 Z6.8465
N7060 X10.6002 Y-0.2905 Z6.8466
N7065 X10.5975 Y-0.2946 Z6.8467
N7070 X10.5946 Y-0.2985 Z6.8468
N7075 X10.5915 Y-0.3022 Z6.8469
N7080 X10.5882 Y-0.3056 Z6.847
N7085 X10.5854 Y-0.3083
N7090 X10.5822 Y-0.3111 Z6.8472
N7095 X10.5785 Y-0.3139 Z6.8473
N7100 X10.5748 Y-0.3164 Z6.8474
N7105 X10.571 Y-0.3188 Z6.8475
N7110 X10.5665 Y-0.3212 Z6.8477
N7115 X10.5618 Y-0.3234 Z6.8478
N7120 X10.557 Y-0.3252 Z6.848
N7125 X10.552 Y-0.3267 Z6.8482
N7130 X10.5474 Y-0.3277 Z6.8483
N7135 X10.5433 Y-0.3284 Z6.8485
N7140 X10.5398 Y-0.3289 Z6.8486
N7145 X10.5352 Y-0.3291 Z6.8488
N7150 X10.5316 Y-0.3292 Z6.8489
N7155 X10.5265 Y-0.3289 Z6.8491
N7160 X10.5231 Y-0.3286 Z6.8492
N7165 X10.519 Y-0.328 Z6.8493
N7170 X10.5146 Y-0.3271 Z6.8495
N7175 X10.5106 Y-0.326 Z6.8496
N7180 X10.5066 Y-0.3246 Z6.8498
N7185 X10.5023 Y-0.3228 Z6.8499
N7190 X10.4983 Y-0.3209 Z6.8501
N7195 X10.4948 Y-0.319 Z6.8502
N7200 X10.4908 Y-0.3165 Z6.8503
N7205 X10.4866 Y-0.3135 Z6.8505
N7210 X10.4826 Y-0.3102 Z6.8506
N7215 X10.4789 Y-0.3067 Z6.8508
N7220 X10.4753 Y-0.3029 Z6.8509
N7225 X10.4719 Y-0.2987 Z6.851
N7230 X10.4689 Y-0.2946 Z6.8511
N7235 X10.4662 Y-0.2903 Z6.8512
N7240 X10.4635 Y-0.2855 Z6.8513
N7245 X10.4613 Y-0.2807 Z6.8514
N7250 X10.4593 Y-0.276 Z6.8515
N7255 X10.4576 Y-0.2709
N7260 X10.4564 Y-0.2665 Z6.8516
N7265 X10.4555 Y-0.2625
N7270 X10.4549 Y-0.2584
N7275 X10.4544 Y-0.2542
N7280 X10.4541 Y-0.2477 Z6.8517
N7285 X10.4542 Y-0.2439
N7290 X10.4545 Y-0.2378 Z6.8516
N7295 X10.4552 Y-0.2326
N7300 X10.4561 Y-0.2278
N7305 X10.4572 Y-0.2235 Z6.8515
N7310 X10.4585 Y-0.2193
N7315 X10.4602 Y-0.2149 Z6.8514
N7320 X10.462 Y-0.2106
N7325 X10.4639 Y-0.2068 Z6.8513
N7330 X10.4664 Y-0.2024 Z6.8512
N7335 X10.4693 Y-0.1979 Z6.8511
N7340 X10.4723 Y-0.1938 Z6.851
N7345 X10.4756 Y-0.1897 Z6.8509
N7350 X10.4793 Y-0.1859 Z6.8508
N7355 X10.4831 Y-0.1823 Z6.8506
N7360 X10.487 Y-0.179 Z6.8505
N7365 X10.4913 Y-0.176 Z6.8503
N7370 X10.4957 Y-0.1733 Z6.8502
N7375 X10.5003 Y-0.1709 Z6.85
N7380 X10.505 Y-0.1688 Z6.8498
N7385 X10.5099 Y-0.167 Z6.8497
N7390 X10.5142 Y-0.1657 Z6.8495
N7395 X10.5181 Y-0.1647 Z6.8494
N7400 X10.5219 Y-0.1641 Z6.8492
N7405 X10.5259 Y-0.1636 Z6.8491
N7410 X10.5315 Y-0.1633 Z6.8489
N7415 X10.5344 Y-0.1632 Z6.8488
N7420 X10.5394 Y-0.1634 Z6.8486
N7425 X10.5426 Y-0.1637 Z6.8485
N7430 X10.5468 Y-0.1643 Z6.8483
N7435 X10.5513 Y-0.1653 Z6.8482
N7440 X10.5553 Y-0.1664 Z6.848
N7445 X10.5592 Y-0.1677 Z6.8479
N7450 X10.5633 Y-0.1693 Z6.8478
N7455 X10.5673 Y-0.1712 Z6.8476
N7460 X10.571 Y-0.1732 Z6.8475
N7465 X10.5751 Y-0.1757 Z6.8474
N7470 X10.5792 Y-0.1786 Z6.8472
N7475 X10.5833 Y-0.1819 Z6.8471
N7480 X10.5871 Y-0.1855 Z6.847
N7485 X10.5907 Y-0.1892 Z6.8469
N7490 X10.594 Y-0.1932 Z6.8468
N7495 X10.5971 Y-0.1974 Z6.8467
N7500 X10.6 Y-0.2019 Z6.8466
N7505 X10.6026 Y-0.2065 Z6.8465
N7510 X10.6049 Y-0.2112 Z6.8464
N7515 X10.6068 Y-0.2159
N7520 X10.6086 Y-0.2212 Z6.8463
N7525 X10.6099 Y-0.2258
N7530 X10.6108 Y-0.2298 Z6.8462
N7535 X10.6115 Y-0.2337
N7540 X10.6119 Y-0.2376
N7545 X10.6122 Y-0.2432
N7550 Y-0.2469
N7555 X10.612 Y-0.2538
N7560 X10.6116 Y-0.2582
N7565 X10.611 Y-0.2617
N7570 X10.6099 Y-0.2661 Z6.8463
N7575 X10.6096 Y-0.2673
N7580 Z6.8763
N7585 X10.6067 Y-0.2781 Z6.8764
N7590 X10.6042 Y-0.2864
N7595 X10.6012 Y-0.2956 Z6.8765
N7600 X10.598 Y-0.3046 Z6.8766
N7605 X10.5949 Y-0.3128 Z6.8767
N7610 X10.5914 Y-0.3211 Z6.8769
N7615 X10.5875 Y-0.3299 Z6.877
N7620 X10.5835 Y-0.3382 Z6.8771
N7625 X10.579 Y-0.3469 Z6.8773
N7630 X10.5741 Y-0.3558 Z6.8774
N7635 X10.569 Y-0.3645 Z6.8776
N7640 X10.5637 Y-0.3728 Z6.8777
N7645 X10.5582 Y-0.381 Z6.8779
N7650 X10.5523 Y-0.3891 Z6.8781
N7655 X10.5462 Y-0.3969 Z6.8784
N7660 X10.54 Y-0.4045 Z6.8786
N7665 X10.533 Y-0.4123 Z6.8788
N7670 X10.5271 Y-0.4185 Z6.879
N7675 X10.5217 Y-0.4239 Z6.8792
N7680 X10.5159 Y-0.4295 Z6.8794
N7685 X10.5069 Y-0.4374 Z6.8798
N7690 X10.5059 Y-0.4383
N7695 Z6.8698 F1.
N7700 X10.5069 Y-0.4374 F3.
N7705 X10.5159 Y-0.4295 Z6.8694
N7710 X10.5217 Y-0.4239 Z6.8692
N7715 X10.5271 Y-0.4185 Z6.869
N7720 X10.533 Y-0.4123 Z6.8688
N7725 X10.54 Y-0.4045 Z6.8686
N7730 X10.5462 Y-0.3969 Z6.8684
N7735 X10.5523 Y-0.3891 Z6.8681
N7740 X10.5582 Y-0.381 Z6.8679
N7745 X10.5637 Y-0.3728 Z6.8677
N7750 X10.569 Y-0.3645 Z6.8676
N7755 X10.5741 Y-0.3558 Z6.8674
N7760 X10.579 Y-0.3469 Z6.8673
N7765 X10.5835 Y-0.3382 Z6.8671
N7770 X10.5875 Y-0.3299 Z6.867
N7775 X10.5914 Y-0.3211 Z6.8669
N7780 X10.5949 Y-0.3128 Z6.8667
N7785 X10.598 Y-0.3046 Z6.8666
N7790 X10.6012 Y-0.2956 Z6.8665
N7795 X10.6042 Y-0.2864 Z6.8664
N7800 X10.6067 Y-0.2781
N7805 X10.6096 Y-0.2673 Z6.8663
N7810 Z6.8563 F1.
N7815 X10.6067 Y-0.2781 Z6.8564 F3.
N7820 X10.6042 Y-0.2864
N7825 X10.6012 Y-0.2956 Z6.8565
N7830 X10.598 Y-0.3046 Z6.8566
N7835 X10.5949 Y-0.3128 Z6.8567
N7840 X10.5914 Y-0.3211 Z6.8569
N7845 X10.5875 Y-0.3299 Z6.857
N7850 X10.5835 Y-0.3382 Z6.8571
N7855 X10.579 Y-0.3469 Z6.8573
N7860 X10.5741 Y-0.3558 Z6.8574
N7865 X10.569 Y-0.3645 Z6.8576
N7870 X10.5637 Y-0.3728 Z6.8577
N7875 X10.5582 Y-0.381 Z6.8579
N7880 X10.5523 Y-0.3891 Z6.8581
N7885 X10.5462 Y-0.3969 Z6.8584
N7890 X10.54 Y-0.4045 Z6.8586
N7895 X10.533 Y-0.4123 Z6.8588
N7900 X10.5271 Y-0.4185 Z6.859
N7905 X10.5217 Y-0.4239 Z6.8592
N7910 X10.5159 Y-0.4295 Z6.8594
N7915 X10.5069 Y-0.4374 Z6.8598
N7920 X10.5059 Y-0.4383
N7925 Z6.8498 F1.
N7930 X10.5069 Y-0.4374 F3.
N7935 X10.5159 Y-0.4295 Z6.8494
N7940 X10.5217 Y-0.4239 Z6.8492
N7945 X10.5271 Y-0.4185 Z6.849
N7950 X10.533 Y-0.4123 Z6.8488
N7955 X10.54 Y-0.4045 Z6.8486
N7960 X10.5462 Y-0.3969 Z6.8484
N7965 X10.5523 Y-0.3891 Z6.8481
N7970 X10.5582 Y-0.381 Z6.8479
N7975 X10.5637 Y-0.3728 Z6.8477
N7980 X10.569 Y-0.3645 Z6.8476
N7985 X10.5741 Y-0.3558 Z6.8474
N7990 X10.579 Y-0.3469 Z6.8473
N7995 X10.5835 Y-0.3382 Z6.8471
N8000 X10.5875 Y-0.3299 Z6.847
N8005 X10.5914 Y-0.3211 Z6.8469
N8010 X10.5949 Y-0.3128 Z6.8467
N8015 X10.598 Y-0.3046 Z6.8466
N8020 X10.6012 Y-0.2956 Z6.8465
N8025 X10.6042 Y-0.2864 Z6.8464
N8030 X10.6067 Y-0.2781
N8035 X10.6096 Y-0.2673 Z6.8463
N8040 G0 Z7.3559
N8045 X10.2896 Y-0.2673
N8050 Z6.9649
N8055 G1 Z6.8883 F1.
N8060 X10.2899 Y-0.2661 F3.
N8065 X10.291 Y-0.2617
N8070 X10.2916 Y-0.2582
N8075 X10.292 Y-0.2538 Z6.8882
N8080 X10.2922 Y-0.2468
N8085 Y-0.2431
N8090 X10.2919 Y-0.2376
N8095 X10.2914 Y-0.2336 Z6.8883
N8100 X10.2908 Y-0.2298
N8105 X10.2899 Y-0.2258
N8110 X10.2886 Y-0.2212 Z6.8884
N8115 X10.2868 Y-0.2159 Z6.8885
N8120 X10.2848 Y-0.2112
N8125 X10.2825 Y-0.2065 Z6.8886
N8130 X10.2799 Y-0.2019 Z6.8888
N8135 X10.2771 Y-0.1974 Z6.8889
N8140 X10.274 Y-0.1932 Z6.889
N8145 X10.2706 Y-0.1892 Z6.8892
N8150 X10.267 Y-0.1854 Z6.8893
N8155 X10.2632 Y-0.1819 Z6.8895
N8160 X10.2592 Y-0.1786 Z6.8897
N8165 X10.2551 Y-0.1757 Z6.8898
N8170 X10.251 Y-0.1732 Z6.89
N8175 X10.2472 Y-0.1712 Z6.8902
N8180 X10.2432 Y-0.1693 Z6.8903
N8185 X10.2392 Y-0.1677 Z6.8905
N8190 X10.2353 Y-0.1664 Z6.8907
N8195 X10.2313 Y-0.1653 Z6.8909
N8200 X10.2267 Y-0.1643 Z6.8911
N8205 X10.2225 Y-0.1637 Z6.8913
N8210 X10.2193 Y-0.1634 Z6.8914
N8215 X10.2143 Y-0.1632 Z6.8917
N8220 X10.2115 Y-0.1633 Z6.8918
N8225 X10.2059 Y-0.1636 Z6.8921
N8230 X10.2019 Y-0.1641 Z6.8923
N8235 X10.198 Y-0.1648 Z6.8924
N8240 X10.1941 Y-0.1657 Z6.8926
N8245 X10.1899 Y-0.167 Z6.8928
N8250 X10.1849 Y-0.1688 Z6.893
N8255 X10.1803 Y-0.1709 Z6.8933
N8260 X10.1757 Y-0.1733 Z6.8935
N8265 X10.1712 Y-0.176 Z6.8937
N8270 X10.167 Y-0.1791 Z6.8939
N8275 X10.163 Y-0.1824 Z6.8941
N8280 X10.1592 Y-0.1859 Z6.8943
N8285 X10.1556 Y-0.1897 Z6.8944
N8290 X10.1522 Y-0.1938 Z6.8946
N8295 X10.1492 Y-0.198 Z6.8947
N8300 X10.1464 Y-0.2024 Z6.8949
N8305 X10.1439 Y-0.2069 Z6.895
N8310 X10.142 Y-0.2106 Z6.8951
N8315 X10.1401 Y-0.2149
N8320 X10.1384 Y-0.2193 Z6.8952
N8325 X10.1371 Y-0.2235 Z6.8953
N8330 X10.1361 Y-0.2277
N8335 X10.1353 Y-0.2321 Z6.8954
N8340 X10.1347 Y-0.2356
N8345 X10.1344 Y-0.2389
N8350 X10.1341 Y-0.2444
N8355 Y-0.2478
N8360 X10.1344 Y-0.2542
N8365 X10.1349 Y-0.2585
N8370 X10.1355 Y-0.2625
N8375 X10.1364 Y-0.2666 Z6.8953
N8380 X10.1376 Y-0.2709
N8385 X10.1393 Y-0.276 Z6.8952
N8390 X10.1413 Y-0.2808 Z6.8951
N8395 X10.1435 Y-0.2855 Z6.895
N8400 X10.1461 Y-0.2903 Z6.8949
N8405 X10.1489 Y-0.2947 Z6.8947
N8410 X10.1519 Y-0.2988 Z6.8946
N8415 X10.1553 Y-0.3029 Z6.8944
N8420 X10.1588 Y-0.3067 Z6.8943
N8425 X10.1626 Y-0.3102 Z6.8941
N8430 X10.1666 Y-0.3135 Z6.8939
N8435 X10.1707 Y-0.3165 Z6.8937
N8440 X10.1748 Y-0.319 Z6.8935
N8445 X10.1783 Y-0.3209 Z6.8934
N8450 X10.1824 Y-0.3228 Z6.8932
N8455 X10.1866 Y-0.3246 Z6.893
N8460 X10.1905 Y-0.326 Z6.8928
N8465 X10.1946 Y-0.3271 Z6.8926
N8470 X10.1989 Y-0.328 Z6.8924
N8475 X10.2031 Y-0.3286 Z6.8922
N8480 X10.2065 Y-0.3289 Z6.892
N8485 X10.2116 Y-0.3292 Z6.8918
N8490 X10.2152 Y-0.3291 Z6.8916
N8495 X10.2198 Y-0.3288 Z6.8914
N8500 X10.2233 Y-0.3284 Z6.8912
N8505 X10.2274 Y-0.3277 Z6.8911
N8510 X10.2319 Y-0.3267 Z6.8908
N8515 X10.2369 Y-0.3252 Z6.8906
N8520 X10.2417 Y-0.3234 Z6.8904
N8525 X10.2465 Y-0.3212 Z6.8902
N8530 X10.251 Y-0.3188 Z6.89
N8535 X10.2548 Y-0.3164 Z6.8898
N8540 X10.2585 Y-0.3139 Z6.8897
N8545 X10.2622 Y-0.3111 Z6.8895
N8550 X10.2654 Y-0.3083 Z6.8894
N8555 X10.2682 Y-0.3056 Z6.8893
N8560 X10.2714 Y-0.3022 Z6.8891
N8565 X10.2746 Y-0.2985 Z6.889
N8570 X10.2775 Y-0.2946 Z6.8889
N8575 X10.2802 Y-0.2905 Z6.8888
N8580 X10.2825 Y-0.2863 Z6.8886
N8585 X10.2846 Y-0.282
N8590 X10.2865 Y-0.2775 Z6.8885
N8595 X10.2879 Y-0.2732 Z6.8884
N8600 X10.2895 Y-0.2677 Z6.8883
N8605 Z6.8783 F1.
N8610 X10.2879 Y-0.2732 Z6.8784 F3.
N8615 X10.2865 Y-0.2775 Z6.8785
N8620 X10.2846 Y-0.282 Z6.8786
N8625 X10.2825 Y-0.2863
N8630 X10.2802 Y-0.2905 Z6.8788
N8635 X10.2775 Y-0.2946 Z6.8789
N8640 X10.2746 Y-0.2985 Z6.879
N8645 X10.2714 Y-0.3022 Z6.8791
N8650 X10.2682 Y-0.3056 Z6.8793
N8655 X10.2654 Y-0.3083 Z6.8794
N8660 X10.2622 Y-0.3111 Z6.8795
N8665 X10.2585 Y-0.3139 Z6.8797
N8670 X10.2548 Y-0.3164 Z6.8798
N8675 X10.251 Y-0.3188 Z6.88
N8680 X10.2465 Y-0.3212 Z6.8802
N8685 X10.2417 Y-0.3234 Z6.8804
N8690 X10.2369 Y-0.3252 Z6.8806
N8695 X10.2319 Y-0.3267 Z6.8808
N8700 X10.2274 Y-0.3277 Z6.8811
N8705 X10.2233 Y-0.3284 Z6.8812
N8710 X10.2198 Y-0.3288 Z6.8814
N8715 X10.2152 Y-0.3291 Z6.8816
N8720 X10.2116 Y-0.3292 Z6.8818
N8725 X10.2065 Y-0.3289 Z6.882
N8730 X10.2031 Y-0.3286 Z6.8822
N8735 X10.1989 Y-0.328 Z6.8824
N8740 X10.1946 Y-0.3271 Z6.8826
N8745 X10.1905 Y-0.326 Z6.8828
N8750 X10.1866 Y-0.3246 Z6.883
N8755 X10.1824 Y-0.3228 Z6.8832
N8760 X10.1783 Y-0.3209 Z6.8834
N8765 X10.1748 Y-0.319 Z6.8835
N8770 X10.1707 Y-0.3165 Z6.8837
N8775 X10.1666 Y-0.3135 Z6.8839
N8780 X10.1626 Y-0.3102 Z6.8841
N8785 X10.1588 Y-0.3067 Z6.8843
N8790 X10.1553 Y-0.3029 Z6.8844
N8795 X10.1519 Y-0.2988 Z6.8846
N8800 X10.1489 Y-0.2947 Z6.8847
N8805 X10.1461 Y-0.2903 Z6.8849
N8810 X10.1435 Y-0.2855 Z6.885
N8815 X10.1413 Y-0.2808 Z6.8851
N8820 X10.1393 Y-0.276 Z6.8852
N8825 X10.1376 Y-0.2709 Z6.8853
N8830 X10.1364 Y-0.2666
N8835 X10.1355 Y-0.2625 Z6.8854
N8840 X10.1349 Y-0.2585
N8845 X10.1344 Y-0.2542
N8850 X10.1341 Y-0.2478
N8855 Y-0.2444
N8860 X10.1344 Y-0.2389
N8865 X10.1347 Y-0.2356
N8870 X10.1353 Y-0.2321
N8875 X10.1361 Y-0.2277 Z6.8853
N8880 X10.1371 Y-0.2235
N8885 X10.1384 Y-0.2193 Z6.8852
N8890 X10.1401 Y-0.2149 Z6.8851
N8895 X10.142 Y-0.2106
N8900 X10.1439 Y-0.2069 Z6.885
N8905 X10.1464 Y-0.2024 Z6.8849
N8910 X10.1492 Y-0.198 Z6.8847
N8915 X10.1522 Y-0.1938 Z6.8846
N8920 X10.1556 Y-0.1897 Z6.8844
N8925 X10.1592 Y-0.1859 Z6.8843
N8930 X10.163 Y-0.1824 Z6.8841
N8935 X10.167 Y-0.1791 Z6.8839
N8940 X10.1712 Y-0.176 Z6.8837
N8945 X10.1757 Y-0.1733 Z6.8835
N8950 X10.1803 Y-0.1709 Z6.8833
N8955 X10.1849 Y-0.1688 Z6.883
N8960 X10.1899 Y-0.167 Z6.8828
N8965 X10.1941 Y-0.1657 Z6.8826
N8970 X10.198 Y-0.1648 Z6.8824
N8975 X10.2019 Y-0.1641 Z6.8823
N8980 X10.2059 Y-0.1636 Z6.8821
N8985 X10.2115 Y-0.1633 Z6.8818
N8990 X10.2143 Y-0.1632 Z6.8817
N8995 X10.2193 Y-0.1634 Z6.8814
N9000 X10.2225 Y-0.1637 Z6.8813
N9005 X10.2267 Y-0.1643 Z6.8811
N9010 X10.2313 Y-0.1653 Z6.8809
N9015 X10.2353 Y-0.1664 Z6.8807
N9020 X10.2392 Y-0.1677 Z6.8805
N9025 X10.2432 Y-0.1693 Z6.8803
N9030 X10.2472 Y-0.1712 Z6.8802
N9035 X10.251 Y-0.1732 Z6.88
N9040 X10.2551 Y-0.1757 Z6.8798
N9045 X10.2592 Y-0.1786 Z6.8797
N9050 X10.2632 Y-0.1819 Z6.8795
N9055 X10.267 Y-0.1854 Z6.8793
N9060 X10.2706 Y-0.1892 Z6.8792
N9065 X10.274 Y-0.1932 Z6.879
N9070 X10.2771 Y-0.1974 Z6.8789
N9075 X10.2799 Y-0.2019 Z6.8788
N9080 X10.2825 Y-0.2065 Z6.8786
N9085 X10.2848 Y-0.2112 Z6.8785
N9090 X10.2868 Y-0.2159
N9095 X10.2886 Y-0.2212 Z6.8784
N9100 X10.2899 Y-0.2258 Z6.8783
N9105 X10.2908 Y-0.2298
N9110 X10.2914 Y-0.2336
N9115 X10.2919 Y-0.2376 Z6.8782
N9120 X10.2922 Y-0.2431
N9125 Y-0.2468
N9130 X10.292 Y-0.2538
N9135 X10.2916 Y-0.2582 Z6.8783
N9140 X10.291 Y-0.2617
N9145 X10.2899 Y-0.2661
N9150 X10.2896 Y-0.2673
N9155 Z6.8683 F1.
N9160 X10.2899 Y-0.2661 F3.
N9165 X10.291 Y-0.2617
N9170 X10.2916 Y-0.2582
N9175 X10.292 Y-0.2538 Z6.8682
N9180 X10.2922 Y-0.2468
N9185 Y-0.2431
N9190 X10.2919 Y-0.2376
N9195 X10.2914 Y-0.2336 Z6.8683
N9200 X10.2908 Y-0.2298
N9205 X10.2899 Y-0.2258
N9210 X10.2886 Y-0.2212 Z6.8684
N9215 X10.2868 Y-0.2159 Z6.8685
N9220 X10.2848 Y-0.2112
N9225 X10.2825 Y-0.2065 Z6.8686
N9230 X10.2799 Y-0.2019 Z6.8688
N9235 X10.2771 Y-0.1974 Z6.8689
N9240 X10.274 Y-0.1932 Z6.869
N9245 X10.2706 Y-0.1892 Z6.8692
N9250 X10.267 Y-0.1854 Z6.8693
N9255 X10.2632 Y-0.1819 Z6.8695
N9260 X10.2592 Y-0.1786 Z6.8697
N9265 X10.2551 Y-0.1757 Z6.8698
N9270 X10.251 Y-0.1732 Z6.87
N9275 X10.2472 Y-0.1712 Z6.8702
N9280 X10.2432 Y-0.1693 Z6.8703
N9285 X10.2392 Y-0.1677 Z6.8705
N9290 X10.2353 Y-0.1664 Z6.8707
N9295 X10.2313 Y-0.1653 Z6.8709
N9300 X10.2267 Y-0.1643 Z6.8711
N9305 X10.2225 Y-0.1637 Z6.8713
N9310 X10.2193 Y-0.1634 Z6.8714
N9315 X10.2143 Y-0.1632 Z6.8717
N9320 X10.2115 Y-0.1633 Z6.8718
N9325 X10.2059 Y-0.1636 Z6.8721
N9330 X10.2019 Y-0.1641 Z6.8723
N9335 X10.198 Y-0.1648 Z6.8724
N9340 X10.1941 Y-0.1657 Z6.8726
N9345 X10.1899 Y-0.167 Z6.8728
N9350 X10.1849 Y-0.1688 Z6.873
N9355 X10.1803 Y-0.1709 Z6.8733
N9360 X10.1757 Y-0.1733 Z6.8735
N9365 X10.1712 Y-0.176 Z6.8737
N9370 X10.167 Y-0.1791 Z6.8739
N9375 X10.163 Y-0.1824 Z6.8741
N9380 X10.1592 Y-0.1859 Z6.8743
N9385 X10.1556 Y-0.1897 Z6.8744
N9390 X10.1522 Y-0.1938 Z6.8746
N9395 X10.1492 Y-0.198 Z6.8747
N9400 X10.1464 Y-0.2024 Z6.8749
N9405 X10.1439 Y-0.2069 Z6.875
N9410 X10.142 Y-0.2106 Z6.8751
N9415 X10.1401 Y-0.2149
N9420 X10.1384 Y-0.2193 Z6.8752
N9425 X10.1371 Y-0.2235 Z6.8753
N9430 X10.1361 Y-0.2277
N9435 X10.1353 Y-0.2321 Z6.8754
N9440 X10.1347 Y-0.2356
N9445 X10.1344 Y-0.2389
N9450 X10.1341 Y-0.2444
N9455 Y-0.2478
N9460 X10.1344 Y-0.2542
N9465 X10.1349 Y-0.2585
N9470 X10.1355 Y-0.2625
N9475 X10.1364 Y-0.2666 Z6.8753
N9480 X10.1376 Y-0.2709
N9485 X10.1393 Y-0.276 Z6.8752
N9490 X10.1413 Y-0.2808 Z6.8751
N9495 X10.1435 Y-0.2855 Z6.875
N9500 X10.1461 Y-0.2903 Z6.8749
N9505 X10.1489 Y-0.2947 Z6.8747
N9510 X10.1519 Y-0.2988 Z6.8746
N9515 X10.1553 Y-0.3029 Z6.8744
N9520 X10.1588 Y-0.3067 Z6.8743
N9525 X10.1626 Y-0.3102 Z6.8741
N9530 X10.1666 Y-0.3135 Z6.8739
N9535 X10.1707 Y-0.3165 Z6.8737
N9540 X10.1748 Y-0.319 Z6.8735
N9545 X10.1783 Y-0.3209 Z6.8734
N9550 X10.1824 Y-0.3228 Z6.8732
N9555 X10.1866 Y-0.3246 Z6.873
N9560 X10.1905 Y-0.326 Z6.8728
N9565 X10.1946 Y-0.3271 Z6.8726
N9570 X10.1989 Y-0.328 Z6.8724
N9575 X10.2031 Y-0.3286 Z6.8722
N9580 X10.2065 Y-0.3289 Z6.872
N9585 X10.2116 Y-0.3292 Z6.8718
N9590 X10.2152 Y-0.3291 Z6.8716
N9595 X10.2198 Y-0.3288 Z6.8714
N9600 X10.2233 Y-0.3284 Z6.8712
N9605 X10.2274 Y-0.3277 Z6.8711
N9610 X10.2319 Y-0.3267 Z6.8708
N9615 X10.2369 Y-0.3252 Z6.8706
N9620 X10.2417 Y-0.3234 Z6.8704
N9625 X10.2465 Y-0.3212 Z6.8702
N9630 X10.251 Y-0.3188 Z6.87
N9635 X10.2548 Y-0.3164 Z6.8698
N9640 X10.2585 Y-0.3139 Z6.8697
N9645 X10.2622 Y-0.3111 Z6.8695
N9650 X10.2654 Y-0.3083 Z6.8694
N9655 X10.2682 Y-0.3056 Z6.8693
N9660 X10.2714 Y-0.3022 Z6.8691
N9665 X10.2746 Y-0.2985 Z6.869
N9670 X10.2775 Y-0.2946 Z6.8689
N9675 X10.2802 Y-0.2905 Z6.8688
N9680 X10.2825 Y-0.2863 Z6.8686
N9685 X10.2846 Y-0.282
N9690 X10.2865 Y-0.2775 Z6.8685
N9695 X10.2879 Y-0.2732 Z6.8684
N9700 X10.2895 Y-0.2677 Z6.8683
N9705 Z6.8583 F1.
N9710 X10.2879 Y-0.2732 Z6.8584 F3.
N9715 X10.2865 Y-0.2775 Z6.8585
N9720 X10.2846 Y-0.282 Z6.8586
N9725 X10.2825 Y-0.2863
N9730 X10.2802 Y-0.2905 Z6.8588
N9735 X10.2775 Y-0.2946 Z6.8589
N9740 X10.2746 Y-0.2985 Z6.859
N9745 X10.2714 Y-0.3022 Z6.8591
N9750 X10.2682 Y-0.3056 Z6.8593
N9755 X10.2654 Y-0.3083 Z6.8594
N9760 X10.2622 Y-0.3111 Z6.8595
N9765 X10.2585 Y-0.3139 Z6.8597
N9770 X10.2548 Y-0.3164 Z6.8598
N9775 X10.251 Y-0.3188 Z6.86
N9780 X10.2465 Y-0.3212 Z6.8602
N9785 X10.2417 Y-0.3234 Z6.8604
N9790 X10.2369 Y-0.3252 Z6.8606
N9795 X10.2319 Y-0.3267 Z6.8608
N9800 X10.2274 Y-0.3277 Z6.8611
N9805 X10.2233 Y-0.3284 Z6.8612
N9810 X10.2198 Y-0.3288 Z6.8614
N9815 X10.2152 Y-0.3291 Z6.8616
N9820 X10.2116 Y-0.3292 Z6.8618
N9825 X10.2065 Y-0.3289 Z6.862
N9830 X10.2031 Y-0.3286 Z6.8622
N9835 X10.1989 Y-0.328 Z6.8624
N9840 X10.1946 Y-0.3271 Z6.8626
N9845 X10.1905 Y-0.326 Z6.8628
N9850 X10.1866 Y-0.3246 Z6.863
N9855 X10.1824 Y-0.3228 Z6.8632
N9860 X10.1783 Y-0.3209 Z6.8634
N9865 X10.1748 Y-0.319 Z6.8635
N9870 X10.1707 Y-0.3165 Z6.8637
N9875 X10.1666 Y-0.3135 Z6.8639
N9880 X10.1626 Y-0.3102 Z6.8641
N9885 X10.1588 Y-0.3067 Z6.8643
N9890 X10.1553 Y-0.3029 Z6.8644
N9895 X10.1519 Y-0.2988 Z6.8646
N9900 X10.1489 Y-0.2947 Z6.8647
N9905 X10.1461 Y-0.2903 Z6.8649
N9910 X10.1435 Y-0.2855 Z6.865
N9915 X10.1413 Y-0.2808 Z6.8651
N9920 X10.1393 Y-0.276 Z6.8652
N9925 X10.1376 Y-0.2709 Z6.8653
N9930 X10.1364 Y-0.2666
N9935 X10.1355 Y-0.2625 Z6.8654
N9940 X10.1349 Y-0.2585
N9945 X10.1344 Y-0.2542
N9950 X10.1341 Y-0.2478
N9955 Y-0.2444
N9960 X10.1344 Y-0.2389
N9965 X10.1347 Y-0.2356
N9970 X10.1353 Y-0.2321
N9975 X10.1361 Y-0.2277 Z6.8653
N9980 X10.1371 Y-0.2235
N9985 X10.1384 Y-0.2193 Z6.8652
N9990 X10.1401 Y-0.2149 Z6.8651
N9995 X10.142 Y-0.2106
N10000 X10.1439 Y-0.2069 Z6.865
N10005 X10.1464 Y-0.2024 Z6.8649
N10010 X10.1492 Y-0.198 Z6.8647
N10015 X10.1522 Y-0.1938 Z6.8646
N10020 X10.1556 Y-0.1897 Z6.8644
N10025 X10.1592 Y-0.1859 Z6.8643
N10030 X10.163 Y-0.1824 Z6.8641
N10035 X10.167 Y-0.1791 Z6.8639
N10040 X10.1712 Y-0.176 Z6.8637
N10045 X10.1757 Y-0.1733 Z6.8635
N10050 X10.1803 Y-0.1709 Z6.8633
N10055 X10.1849 Y-0.1688 Z6.863
N10060 X10.1899 Y-0.167 Z6.8628
N10065 X10.1941 Y-0.1657 Z6.8626
N10070 X10.198 Y-0.1648 Z6.8624
N10075 X10.2019 Y-0.1641 Z6.8623
N10080 X10.2059 Y-0.1636 Z6.8621
N10085 X10.2115 Y-0.1633 Z6.8618
N10090 X10.2143 Y-0.1632 Z6.8617
N10095 X10.2193 Y-0.1634 Z6.8614
N10100 X10.2225 Y-0.1637 Z6.8613
N10105 X10.2267 Y-0.1643 Z6.8611
N10110 X10.2313 Y-0.1653 Z6.8609
N10115 X10.2353 Y-0.1664 Z6.8607
N10120 X10.2392 Y-0.1677 Z6.8605
N10125 X10.2432 Y-0.1693 Z6.8603
N10130 X10.2472 Y-0.1712 Z6.8602
N10135 X10.251 Y-0.1732 Z6.86
N10140 X10.2551 Y-0.1757 Z6.8598
N10145 X10.2592 Y-0.1786 Z6.8597
N10150 X10.2632 Y-0.1819 Z6.8595
N10155 X10.267 Y-0.1854 Z6.8593
N10160 X10.2706 Y-0.1892 Z6.8592
N10165 X10.274 Y-0.1932 Z6.859
N10170 X10.2771 Y-0.1974 Z6.8589
N10175 X10.2799 Y-0.2019 Z6.8588
N10180 X10.2825 Y-0.2065 Z6.8586
N10185 X10.2848 Y-0.2112 Z6.8585
N10190 X10.2868 Y-0.2159
N10195 X10.2886 Y-0.2212 Z6.8584
N10200 X10.2899 Y-0.2258 Z6.8583
N10205 X10.2908 Y-0.2298
N10210 X10.2914 Y-0.2336
N10215 X10.2919 Y-0.2376 Z6.8582
N10220 X10.2922 Y-0.2431
N10225 Y-0.2468
N10230 X10.292 Y-0.2538
N10235 X10.2916 Y-0.2582 Z6.8583
N10240 X10.291 Y-0.2617
N10245 X10.2899 Y-0.2661
N10250 X10.2896 Y-0.2673
N10255 Z6.8883
N10260 X10.2867 Y-0.2781 Z6.8885
N10265 X10.2842 Y-0.2864 Z6.8886
N10270 X10.2812 Y-0.2956 Z6.8887
N10275 X10.278 Y-0.3045 Z6.8888
N10280 X10.2749 Y-0.3127 Z6.889
N10285 X10.2714 Y-0.3211 Z6.8891
N10290 X10.2675 Y-0.3298 Z6.8893
N10295 X10.2635 Y-0.3382 Z6.8895
N10300 X10.259 Y-0.3469 Z6.8897
N10305 X10.2541 Y-0.3558 Z6.8899
N10310 X10.2489 Y-0.3644 Z6.8901
N10315 X10.2436 Y-0.3728 Z6.8903
N10320 X10.2381 Y-0.381 Z6.8906
N10325 X10.2322 Y-0.3891 Z6.8908
N10330 X10.2262 Y-0.3969 Z6.8911
N10335 X10.22 Y-0.4045 Z6.8914
N10340 X10.213 Y-0.4123 Z6.8917
N10345 X10.2071 Y-0.4185 Z6.892
N10350 X10.2017 Y-0.4239 Z6.8923
N10355 X10.1959 Y-0.4294 Z6.8925
N10360 X10.1871 Y-0.4372 Z6.8929
N10365 X10.1859 Y-0.4383 Z6.893
N10370 Z6.883 F1.
N10375 X10.1871 Y-0.4372 Z6.8829 F3.
N10380 X10.1959 Y-0.4294 Z6.8825
N10385 X10.2017 Y-0.4239 Z6.8823
N10390 X10.2071 Y-0.4185 Z6.882
N10395 X10.213 Y-0.4123 Z6.8817
N10400 X10.22 Y-0.4045 Z6.8814
N10405 X10.2262 Y-0.3969 Z6.8811
N10410 X10.2322 Y-0.3891 Z6.8808
N10415 X10.2381 Y-0.381 Z6.8806
N10420 X10.2436 Y-0.3728 Z6.8803
N10425 X10.2489 Y-0.3644 Z6.8801
N10430 X10.2541 Y-0.3558 Z6.8799
N10435 X10.259 Y-0.3469 Z6.8797
N10440 X10.2635 Y-0.3382 Z6.8795
N10445 X10.2675 Y-0.3298 Z6.8793
N10450 X10.2714 Y-0.3211 Z6.8791
N10455 X10.2749 Y-0.3127 Z6.879
N10460 X10.278 Y-0.3045 Z6.8788
N10465 X10.2812 Y-0.2956 Z6.8787
N10470 X10.2842 Y-0.2864 Z6.8786
N10475 X10.2867 Y-0.2781 Z6.8785
N10480 X10.2896 Y-0.2673 Z6.8783
N10485 Z6.8683 F1.
N10490 X10.2867 Y-0.2781 Z6.8685 F3.
N10495 X10.2842 Y-0.2864 Z6.8686
N10500 X10.2812 Y-0.2956 Z6.8687
N10505 X10.278 Y-0.3045 Z6.8688
N10510 X10.2749 Y-0.3127 Z6.869
N10515 X10.2714 Y-0.3211 Z6.8691
N10520 X10.2675 Y-0.3298 Z6.8693
N10525 X10.2635 Y-0.3382 Z6.8695
N10530 X10.259 Y-0.3469 Z6.8697
N10535 X10.2541 Y-0.3558 Z6.8699
N10540 X10.2489 Y-0.3644 Z6.8701
N10545 X10.2436 Y-0.3728 Z6.8703
N10550 X10.2381 Y-0.381 Z6.8706
N10555 X10.2322 Y-0.3891 Z6.8708
N10560 X10.2262 Y-0.3969 Z6.8711
N10565 X10.22 Y-0.4045 Z6.8714
N10570 X10.213 Y-0.4123 Z6.8717
N10575 X10.2071 Y-0.4185 Z6.872
N10580 X10.2017 Y-0.4239 Z6.8723
N10585 X10.1959 Y-0.4294 Z6.8725
N10590 X10.1871 Y-0.4372 Z6.8729
N10595 X10.1859 Y-0.4383 Z6.873
N10600 Z6.863 F1.
N10605 X10.1871 Y-0.4372 Z6.8629 F3.
N10610 X10.1959 Y-0.4294 Z6.8625
N10615 X10.2017 Y-0.4239 Z6.8623
N10620 X10.2071 Y-0.4185 Z6.862
N10625 X10.213 Y-0.4123 Z6.8617
N10630 X10.22 Y-0.4045 Z6.8614
N10635 X10.2262 Y-0.3969 Z6.8611
N10640 X10.2322 Y-0.3891 Z6.8608
N10645 X10.2381 Y-0.381 Z6.8606
N10650 X10.2436 Y-0.3728 Z6.8603
N10655 X10.2489 Y-0.3644 Z6.8601
N10660 X10.2541 Y-0.3558 Z6.8599
N10665 X10.259 Y-0.3469 Z6.8597
N10670 X10.2635 Y-0.3382 Z6.8595
N10675 X10.2675 Y-0.3298 Z6.8593
N10680 X10.2714 Y-0.3211 Z6.8591
N10685 X10.2749 Y-0.3127 Z6.859
N10690 X10.278 Y-0.3045 Z6.8588
N10695 X10.2812 Y-0.2956 Z6.8587
N10700 X10.2842 Y-0.2864 Z6.8586
N10705 X10.2867 Y-0.2781 Z6.8585
N10710 X10.2896 Y-0.2673 Z6.8583
N10715 G0 Z7.6059

N10720 M5
N10725 M9
N10730 G53 G0 Z0.
N10735 G53 G0 X0. Y0.
N10740 G49
N10745 G69
N10750 G0 A0. C0.
N10755 M99
