O1111 (EMTSERIALSUB-9999)
(T50 D=0.125 CR=0. TAPER=30DEG - CHAMFER MILL)
N10 G90 G94 G17 G49
N15 G20
N20 G53 G0 Z0.

(SERIAL ENGRAVE TIT)
N25 T50 M6
N30 S18000 M3
N35 G90 G94 G17
N40 G54.1 P2
N45 G68.2 X0. Y0. Z0. I107.642 J90. K180.
N50 G53.1 P2
N55 M8
N60 G0 X11.0968 Y-0.3364
N65 G43 Z7.6059 H50
N70 G0 Z6.9401
N75 G1 Z6.8645 F1.
N80 X11.0952 Y-0.3441 F3.
N85 X11.0945 Y-0.3485 Z6.8646
N90 X11.0942 Y-0.3515
N95 Y-0.3552
N100 X11.0945 Y-0.3615
N105 X11.0948 Y-0.3655
N110 X11.0954 Y-0.3694 Z6.8645
N115 X11.0962 Y-0.3737
N120 X11.0974 Y-0.379
N125 X11.099 Y-0.3846
N130 X11.1009 Y-0.3899 Z6.8644
N135 X11.103 Y-0.3949
N140 X11.1054 Y-0.3997
N145 X11.1081 Y-0.4043 Z6.8643
N150 X11.111 Y-0.4086
N155 X11.1138 Y-0.4123
N160 X11.1169 Y-0.416 Z6.8642
N165 X11.1201 Y-0.4192
N170 X11.1232 Y-0.422 Z6.8641
N175 X11.1267 Y-0.4249
N180 X11.1305 Y-0.4276 Z6.864
N185 X11.1344 Y-0.43
N190 X11.1384 Y-0.4322 Z6.8639
N195 X11.1424 Y-0.4342
N200 X11.1465 Y-0.4358 Z6.8638
N205 X11.1505 Y-0.4371
N210 X11.1543 Y-0.438 Z6.8637
N215 X11.1575 Y-0.4387
N220 X11.161 Y-0.4392 Z6.8636
N225 X11.1653 Y-0.4397
N230 X11.1724 Y-0.44 Z6.8635
N235 X11.1753 Z6.8634
N240 X11.1803 Y-0.4397
N245 X11.1839 Y-0.4392 Z6.8633
N250 X11.1878 Y-0.4385
N255 X11.192 Y-0.4376 Z6.8632
N260 X11.1963 Y-0.4363 Z6.8631
N265 X11.2011 Y-0.4346
N270 X11.2059 Y-0.4325 Z6.863
N275 X11.2105 Y-0.4302 Z6.8629
N280 X11.215 Y-0.4276
N285 X11.2193 Y-0.4246
N290 X11.2233 Y-0.4215 Z6.8628
N295 X11.2271 Y-0.4181
N300 X11.2308 Y-0.4143 Z6.8627
N305 X11.2342 Y-0.4104
N310 X11.2373 Y-0.4063
N315 X11.2402 Y-0.4019 Z6.8626
N320 X11.2428 Y-0.3976
N325 X11.2448 Y-0.3937
N330 X11.2467 Y-0.3896
N335 X11.2483 Y-0.3854
N340 X11.2496 Y-0.3812 Z6.8625
N345 X11.2506 Y-0.3773
N350 X11.2513 Y-0.3739
N355 X11.2518 Y-0.3703
N360 X11.2523 Y-0.366
N365 X11.2526 Y-0.3594
N370 Y-0.356
N375 X11.2523 Y-0.3505
N380 X11.252 Y-0.3471
N385 X11.2513 Y-0.343
N390 X11.2504 Y-0.3381
N395 X11.2492 Y-0.3335 Z6.8626
N400 X11.2475 Y-0.3284
N405 X11.2456 Y-0.3235
N410 X11.2434 Y-0.3186
N415 X11.2408 Y-0.3139
N420 X11.2381 Y-0.3093 Z6.8627
N425 X11.235 Y-0.305
N430 X11.2317 Y-0.3008
N435 X11.2282 Y-0.297 Z6.8628
N440 X11.2244 Y-0.2933
N445 X11.2204 Y-0.2899
N450 X11.2163 Y-0.2869 Z6.8629
N455 X11.212 Y-0.2842
N460 X11.2083 Y-0.2821 Z6.863
N465 X11.2043 Y-0.2802
N470 X11.2003 Y-0.2786 Z6.8631
N475 X11.1963 Y-0.2773
N480 X11.1921 Y-0.2761 Z6.8632
N485 X11.1879 Y-0.2753 Z6.8633
N490 X11.1841 Y-0.2747
N495 X11.1809 Y-0.2744
N500 X11.1748 Y-0.2741 Z6.8634
N505 X11.1712 Y-0.2742 Z6.8635
N510 X11.1669 Y-0.2744
N515 X11.1636 Y-0.2748 Z6.8636
N520 X11.159 Y-0.2756
N525 X11.1546 Y-0.2766 Z6.8637
N530 X11.1506 Y-0.2777 Z6.8638
N535 X11.1469 Y-0.2791
N540 X11.1429 Y-0.2807 Z6.8639
N545 X11.1387 Y-0.2827
N550 X11.1348 Y-0.2848 Z6.864
N555 X11.131 Y-0.2872
N560 X11.1266 Y-0.2903 Z6.8641
N565 X11.1225 Y-0.2936 Z6.8642
N570 X11.1186 Y-0.2972
N575 X11.1151 Y-0.301 Z6.8643
N580 X11.1118 Y-0.305
N585 X11.109 Y-0.3089
N590 X11.1063 Y-0.313 Z6.8644
N595 X11.1039 Y-0.3172
N600 X11.1018 Y-0.3216
N605 X11.1 Y-0.3261 Z6.8645
N610 X11.0985 Y-0.3304
N615 X11.0969 Y-0.336
N620 Z6.8545 F1.
N625 X11.0985 Y-0.3304 F3.
N630 X11.1 Y-0.3261
N635 X11.1018 Y-0.3216 Z6.8544
N640 X11.1039 Y-0.3172
N645 X11.1063 Y-0.313
N650 X11.109 Y-0.3089 Z6.8543
N655 X11.1118 Y-0.305
N660 X11.1151 Y-0.301
N665 X11.1186 Y-0.2972 Z6.8542
N670 X11.1225 Y-0.2936
N675 X11.1266 Y-0.2903 Z6.8541
N680 X11.131 Y-0.2872 Z6.854
N685 X11.1348 Y-0.2848
N690 X11.1387 Y-0.2827 Z6.8539
N695 X11.1429 Y-0.2807
N700 X11.1469 Y-0.2791 Z6.8538
N705 X11.1506 Y-0.2777
N710 X11.1546 Y-0.2766 Z6.8537
N715 X11.159 Y-0.2756 Z6.8536
N720 X11.1636 Y-0.2748
N725 X11.1669 Y-0.2744 Z6.8535
N730 X11.1712 Y-0.2742
N735 X11.1748 Y-0.2741 Z6.8534
N740 X11.1809 Y-0.2744 Z6.8533
N745 X11.1841 Y-0.2747
N750 X11.1879 Y-0.2753
N755 X11.1921 Y-0.2761 Z6.8532
N760 X11.1963 Y-0.2773 Z6.8531
N765 X11.2003 Y-0.2786
N770 X11.2043 Y-0.2802 Z6.853
N775 X11.2083 Y-0.2821
N780 X11.212 Y-0.2842 Z6.8529
N785 X11.2163 Y-0.2869
N790 X11.2204 Y-0.2899 Z6.8528
N795 X11.2244 Y-0.2933
N800 X11.2282 Y-0.297
N805 X11.2317 Y-0.3008 Z6.8527
N810 X11.235 Y-0.305
N815 X11.2381 Y-0.3093
N820 X11.2408 Y-0.3139 Z6.8526
N825 X11.2434 Y-0.3186
N830 X11.2456 Y-0.3235
N835 X11.2475 Y-0.3284
N840 X11.2492 Y-0.3335
N845 X11.2504 Y-0.3381 Z6.8525
N850 X11.2513 Y-0.343
N855 X11.252 Y-0.3471
N860 X11.2523 Y-0.3505
N865 X11.2526 Y-0.356
N870 Y-0.3594
N875 X11.2523 Y-0.366
N880 X11.2518 Y-0.3703
N885 X11.2513 Y-0.3739
N890 X11.2506 Y-0.3773
N895 X11.2496 Y-0.3812
N900 X11.2483 Y-0.3854 Z6.8526
N905 X11.2467 Y-0.3896
N910 X11.2448 Y-0.3937
N915 X11.2428 Y-0.3976
N920 X11.2402 Y-0.4019
N925 X11.2373 Y-0.4063 Z6.8527
N930 X11.2342 Y-0.4104
N935 X11.2308 Y-0.4143
N940 X11.2271 Y-0.4181 Z6.8528
N945 X11.2233 Y-0.4215
N950 X11.2193 Y-0.4246 Z6.8529
N955 X11.215 Y-0.4276
N960 X11.2105 Y-0.4302
N965 X11.2059 Y-0.4325 Z6.853
N970 X11.2011 Y-0.4346 Z6.8531
N975 X11.1963 Y-0.4363
N980 X11.192 Y-0.4376 Z6.8532
N985 X11.1878 Y-0.4385 Z6.8533
N990 X11.1839 Y-0.4392
N995 X11.1803 Y-0.4397 Z6.8534
N1000 X11.1753 Y-0.44
N1005 X11.1724 Z6.8535
N1010 X11.1653 Y-0.4397 Z6.8536
N1015 X11.161 Y-0.4392
N1020 X11.1575 Y-0.4387 Z6.8537
N1025 X11.1543 Y-0.438
N1030 X11.1505 Y-0.4371 Z6.8538
N1035 X11.1465 Y-0.4358
N1040 X11.1424 Y-0.4342 Z6.8539
N1045 X11.1384 Y-0.4322
N1050 X11.1344 Y-0.43 Z6.854
N1055 X11.1305 Y-0.4276
N1060 X11.1267 Y-0.4249 Z6.8541
N1065 X11.1232 Y-0.422
N1070 X11.1201 Y-0.4192 Z6.8542
N1075 X11.1169 Y-0.416
N1080 X11.1138 Y-0.4123 Z6.8543
N1085 X11.111 Y-0.4086
N1090 X11.1081 Y-0.4043
N1095 X11.1054 Y-0.3997 Z6.8544
N1100 X11.103 Y-0.3949
N1105 X11.1009 Y-0.3899
N1110 X11.099 Y-0.3846 Z6.8545
N1115 X11.0974 Y-0.379
N1120 X11.0962 Y-0.3737
N1125 X11.0954 Y-0.3694
N1130 X11.0948 Y-0.3655 Z6.8546
N1135 X11.0945 Y-0.3615
N1140 X11.0942 Y-0.3552
N1145 Y-0.3515
N1150 X11.0945 Y-0.3485
N1155 X11.0952 Y-0.3441 Z6.8545
N1160 X11.0968 Y-0.3364
N1165 Z6.8445 F1.
N1170 X11.0952 Y-0.3441 F3.
N1175 X11.0945 Y-0.3485 Z6.8446
N1180 X11.0942 Y-0.3515
N1185 Y-0.3552
N1190 X11.0945 Y-0.3615
N1195 X11.0948 Y-0.3655
N1200 X11.0954 Y-0.3694 Z6.8445
N1205 X11.0962 Y-0.3737
N1210 X11.0974 Y-0.379
N1215 X11.099 Y-0.3846
N1220 X11.1009 Y-0.3899 Z6.8444
N1225 X11.103 Y-0.3949
N1230 X11.1054 Y-0.3997
N1235 X11.1081 Y-0.4043 Z6.8443
N1240 X11.111 Y-0.4086
N1245 X11.1138 Y-0.4123
N1250 X11.1169 Y-0.416 Z6.8442
N1255 X11.1201 Y-0.4192
N1260 X11.1232 Y-0.422 Z6.8441
N1265 X11.1267 Y-0.4249
N1270 X11.1305 Y-0.4276 Z6.844
N1275 X11.1344 Y-0.43
N1280 X11.1384 Y-0.4322 Z6.8439
N1285 X11.1424 Y-0.4342
N1290 X11.1465 Y-0.4358 Z6.8438
N1295 X11.1505 Y-0.4371
N1300 X11.1543 Y-0.438 Z6.8437
N1305 X11.1575 Y-0.4387
N1310 X11.161 Y-0.4392 Z6.8436
N1315 X11.1653 Y-0.4397
N1320 X11.1724 Y-0.44 Z6.8435
N1325 X11.1753 Z6.8434
N1330 X11.1803 Y-0.4397
N1335 X11.1839 Y-0.4392 Z6.8433
N1340 X11.1878 Y-0.4385
N1345 X11.192 Y-0.4376 Z6.8432
N1350 X11.1963 Y-0.4363 Z6.8431
N1355 X11.2011 Y-0.4346
N1360 X11.2059 Y-0.4325 Z6.843
N1365 X11.2105 Y-0.4302 Z6.8429
N1370 X11.215 Y-0.4276
N1375 X11.2193 Y-0.4246
N1380 X11.2233 Y-0.4215 Z6.8428
N1385 X11.2271 Y-0.4181
N1390 X11.2308 Y-0.4143 Z6.8427
N1395 X11.2342 Y-0.4104
N1400 X11.2373 Y-0.4063
N1405 X11.2402 Y-0.4019 Z6.8426
N1410 X11.2428 Y-0.3976
N1415 X11.2448 Y-0.3937
N1420 X11.2467 Y-0.3896
N1425 X11.2483 Y-0.3854
N1430 X11.2496 Y-0.3812 Z6.8425
N1435 X11.2506 Y-0.3773
N1440 X11.2513 Y-0.3739
N1445 X11.2518 Y-0.3703
N1450 X11.2523 Y-0.366
N1455 X11.2526 Y-0.3594
N1460 Y-0.356
N1465 X11.2523 Y-0.3505
N1470 X11.252 Y-0.3471
N1475 X11.2513 Y-0.343
N1480 X11.2504 Y-0.3381
N1485 X11.2492 Y-0.3335 Z6.8426
N1490 X11.2475 Y-0.3284
N1495 X11.2456 Y-0.3235
N1500 X11.2434 Y-0.3186
N1505 X11.2408 Y-0.3139
N1510 X11.2381 Y-0.3093 Z6.8427
N1515 X11.235 Y-0.305
N1520 X11.2317 Y-0.3008
N1525 X11.2282 Y-0.297 Z6.8428
N1530 X11.2244 Y-0.2933
N1535 X11.2204 Y-0.2899
N1540 X11.2163 Y-0.2869 Z6.8429
N1545 X11.212 Y-0.2842
N1550 X11.2083 Y-0.2821 Z6.843
N1555 X11.2043 Y-0.2802
N1560 X11.2003 Y-0.2786 Z6.8431
N1565 X11.1963 Y-0.2773
N1570 X11.1921 Y-0.2761 Z6.8432
N1575 X11.1879 Y-0.2753 Z6.8433
N1580 X11.1841 Y-0.2747
N1585 X11.1809 Y-0.2744
N1590 X11.1748 Y-0.2741 Z6.8434
N1595 X11.1712 Y-0.2742 Z6.8435
N1600 X11.1669 Y-0.2744
N1605 X11.1636 Y-0.2748 Z6.8436
N1610 X11.159 Y-0.2756
N1615 X11.1546 Y-0.2766 Z6.8437
N1620 X11.1506 Y-0.2777 Z6.8438
N1625 X11.1469 Y-0.2791
N1630 X11.1429 Y-0.2807 Z6.8439
N1635 X11.1387 Y-0.2827
N1640 X11.1348 Y-0.2848 Z6.844
N1645 X11.131 Y-0.2872
N1650 X11.1266 Y-0.2903 Z6.8441
N1655 X11.1225 Y-0.2936 Z6.8442
N1660 X11.1186 Y-0.2972
N1665 X11.1151 Y-0.301 Z6.8443
N1670 X11.1118 Y-0.305
N1675 X11.109 Y-0.3089
N1680 X11.1063 Y-0.313 Z6.8444
N1685 X11.1039 Y-0.3172
N1690 X11.1018 Y-0.3216
N1695 X11.1 Y-0.3261 Z6.8445
N1700 X11.0985 Y-0.3304
N1705 X11.0969 Y-0.336
N1710 Z6.8345 F1.
N1715 X11.0985 Y-0.3304 F3.
N1720 X11.1 Y-0.3261
N1725 X11.1018 Y-0.3216 Z6.8344
N1730 X11.1039 Y-0.3172
N1735 X11.1063 Y-0.313
N1740 X11.109 Y-0.3089 Z6.8343
N1745 X11.1118 Y-0.305
N1750 X11.1151 Y-0.301
N1755 X11.1186 Y-0.2972 Z6.8342
N1760 X11.1225 Y-0.2936
N1765 X11.1266 Y-0.2903 Z6.8341
N1770 X11.131 Y-0.2872 Z6.834
N1775 X11.1348 Y-0.2848
N1780 X11.1387 Y-0.2827 Z6.8339
N1785 X11.1429 Y-0.2807
N1790 X11.1469 Y-0.2791 Z6.8338
N1795 X11.1506 Y-0.2777
N1800 X11.1546 Y-0.2766 Z6.8337
N1805 X11.159 Y-0.2756 Z6.8336
N1810 X11.1636 Y-0.2748
N1815 X11.1669 Y-0.2744 Z6.8335
N1820 X11.1712 Y-0.2742
N1825 X11.1748 Y-0.2741 Z6.8334
N1830 X11.1809 Y-0.2744 Z6.8333
N1835 X11.1841 Y-0.2747
N1840 X11.1879 Y-0.2753
N1845 X11.1921 Y-0.2761 Z6.8332
N1850 X11.1963 Y-0.2773 Z6.8331
N1855 X11.2003 Y-0.2786
N1860 X11.2043 Y-0.2802 Z6.833
N1865 X11.2083 Y-0.2821
N1870 X11.212 Y-0.2842 Z6.8329
N1875 X11.2163 Y-0.2869
N1880 X11.2204 Y-0.2899 Z6.8328
N1885 X11.2244 Y-0.2933
N1890 X11.2282 Y-0.297
N1895 X11.2317 Y-0.3008 Z6.8327
N1900 X11.235 Y-0.305
N1905 X11.2381 Y-0.3093
N1910 X11.2408 Y-0.3139 Z6.8326
N1915 X11.2434 Y-0.3186
N1920 X11.2456 Y-0.3235
N1925 X11.2475 Y-0.3284
N1930 X11.2492 Y-0.3335
N1935 X11.2504 Y-0.3381 Z6.8325
N1940 X11.2513 Y-0.343
N1945 X11.252 Y-0.3471
N1950 X11.2523 Y-0.3505
N1955 X11.2526 Y-0.356
N1960 Y-0.3594
N1965 X11.2523 Y-0.366
N1970 X11.2518 Y-0.3703
N1975 X11.2513 Y-0.3739
N1980 X11.2506 Y-0.3773
N1985 X11.2496 Y-0.3812
N1990 X11.2483 Y-0.3854 Z6.8326
N1995 X11.2467 Y-0.3896
N2000 X11.2448 Y-0.3937
N2005 X11.2428 Y-0.3976
N2010 X11.2402 Y-0.4019
N2015 X11.2373 Y-0.4063 Z6.8327
N2020 X11.2342 Y-0.4104
N2025 X11.2308 Y-0.4143
N2030 X11.2271 Y-0.4181 Z6.8328
N2035 X11.2233 Y-0.4215
N2040 X11.2193 Y-0.4246 Z6.8329
N2045 X11.215 Y-0.4276
N2050 X11.2105 Y-0.4302
N2055 X11.2059 Y-0.4325 Z6.833
N2060 X11.2011 Y-0.4346 Z6.8331
N2065 X11.1963 Y-0.4363
N2070 X11.192 Y-0.4376 Z6.8332
N2075 X11.1878 Y-0.4385 Z6.8333
N2080 X11.1839 Y-0.4392
N2085 X11.1803 Y-0.4397 Z6.8334
N2090 X11.1753 Y-0.44
N2095 X11.1724 Z6.8335
N2100 X11.1653 Y-0.4397 Z6.8336
N2105 X11.161 Y-0.4392
N2110 X11.1575 Y-0.4387 Z6.8337
N2115 X11.1543 Y-0.438
N2120 X11.1505 Y-0.4371 Z6.8338
N2125 X11.1465 Y-0.4358
N2130 X11.1424 Y-0.4342 Z6.8339
N2135 X11.1384 Y-0.4322
N2140 X11.1344 Y-0.43 Z6.834
N2145 X11.1305 Y-0.4276
N2150 X11.1267 Y-0.4249 Z6.8341
N2155 X11.1232 Y-0.422
N2160 X11.1201 Y-0.4192 Z6.8342
N2165 X11.1169 Y-0.416
N2170 X11.1138 Y-0.4123 Z6.8343
N2175 X11.111 Y-0.4086
N2180 X11.1081 Y-0.4043
N2185 X11.1054 Y-0.3997 Z6.8344
N2190 X11.103 Y-0.3949
N2195 X11.1009 Y-0.3899
N2200 X11.099 Y-0.3846 Z6.8345
N2205 X11.0974 Y-0.379
N2210 X11.0962 Y-0.3737
N2215 X11.0954 Y-0.3694
N2220 X11.0948 Y-0.3655 Z6.8346
N2225 X11.0945 Y-0.3615
N2230 X11.0942 Y-0.3552
N2235 Y-0.3515
N2240 X11.0945 Y-0.3485
N2245 X11.0952 Y-0.3441 Z6.8345
N2250 X11.0968 Y-0.3364
N2255 Z6.8645
N2260 X11.1 Y-0.3245
N2265 X11.1023 Y-0.3166 Z6.8644
N2270 X11.105 Y-0.3081
N2275 X11.1081 Y-0.2994 Z6.8643
N2280 X11.1113 Y-0.291
N2285 X11.1147 Y-0.2827
N2290 X11.1186 Y-0.274 Z6.8642
N2295 X11.1227 Y-0.2655 Z6.8641
N2300 X11.1273 Y-0.2567
N2305 X11.1323 Y-0.2479 Z6.864
N2310 X11.1375 Y-0.2392 Z6.8639
N2315 X11.1431 Y-0.2307
N2320 X11.1489 Y-0.2223 Z6.8638
N2325 X11.1548 Y-0.2143 Z6.8637
N2330 X11.1608 Y-0.2067 Z6.8636
N2335 X11.1672 Y-0.199 Z6.8635
N2340 X11.1743 Y-0.1911 Z6.8634
N2345 X11.1813 Y-0.1837 Z6.8633
N2350 X11.1879 Y-0.177 Z6.8632
N2355 X11.1938 Y-0.1714
N2360 X11.2009 Y-0.165 Z6.8631
N2365 Z6.8531 F1.
N2370 X11.1938 Y-0.1714 Z6.8532 F3.
N2375 X11.1879 Y-0.177
N2380 X11.1813 Y-0.1837 Z6.8533
N2385 X11.1743 Y-0.1911 Z6.8534
N2390 X11.1672 Y-0.199 Z6.8535
N2395 X11.1608 Y-0.2067 Z6.8536
N2400 X11.1548 Y-0.2143 Z6.8537
N2405 X11.1489 Y-0.2223 Z6.8538
N2410 X11.1431 Y-0.2307 Z6.8539
N2415 X11.1375 Y-0.2392
N2420 X11.1323 Y-0.2479 Z6.854
N2425 X11.1273 Y-0.2567 Z6.8541
N2430 X11.1227 Y-0.2655
N2435 X11.1186 Y-0.274 Z6.8542
N2440 X11.1147 Y-0.2827 Z6.8543
N2445 X11.1113 Y-0.291
N2450 X11.1081 Y-0.2994
N2455 X11.105 Y-0.3081 Z6.8544
N2460 X11.1023 Y-0.3166
N2465 X11.1 Y-0.3245 Z6.8545
N2470 X11.0968 Y-0.3364
N2475 Z6.8445 F1.
N2480 X11.1 Y-0.3245 F3.
N2485 X11.1023 Y-0.3166 Z6.8444
N2490 X11.105 Y-0.3081
N2495 X11.1081 Y-0.2994 Z6.8443
N2500 X11.1113 Y-0.291
N2505 X11.1147 Y-0.2827
N2510 X11.1186 Y-0.274 Z6.8442
N2515 X11.1227 Y-0.2655 Z6.8441
N2520 X11.1273 Y-0.2567
N2525 X11.1323 Y-0.2479 Z6.844
N2530 X11.1375 Y-0.2392 Z6.8439
N2535 X11.1431 Y-0.2307
N2540 X11.1489 Y-0.2223 Z6.8438
N2545 X11.1548 Y-0.2143 Z6.8437
N2550 X11.1608 Y-0.2067 Z6.8436
N2555 X11.1672 Y-0.199 Z6.8435
N2560 X11.1743 Y-0.1911 Z6.8434
N2565 X11.1813 Y-0.1837 Z6.8433
N2570 X11.1879 Y-0.177 Z6.8432
N2575 X11.1938 Y-0.1714
N2580 X11.2009 Y-0.165 Z6.8431
N2585 Z6.8331 F1.
N2590 X11.1938 Y-0.1714 Z6.8332 F3.
N2595 X11.1879 Y-0.177
N2600 X11.1813 Y-0.1837 Z6.8333
N2605 X11.1743 Y-0.1911 Z6.8334
N2610 X11.1672 Y-0.199 Z6.8335
N2615 X11.1608 Y-0.2067 Z6.8336
N2620 X11.1548 Y-0.2143 Z6.8337
N2625 X11.1489 Y-0.2223 Z6.8338
N2630 X11.1431 Y-0.2307 Z6.8339
N2635 X11.1375 Y-0.2392
N2640 X11.1323 Y-0.2479 Z6.834
N2645 X11.1273 Y-0.2567 Z6.8341
N2650 X11.1227 Y-0.2655
N2655 X11.1186 Y-0.274 Z6.8342
N2660 X11.1147 Y-0.2827 Z6.8343
N2665 X11.1113 Y-0.291
N2670 X11.1081 Y-0.2994
N2675 X11.105 Y-0.3081 Z6.8344
N2680 X11.1023 Y-0.3166
N2685 X11.1 Y-0.3245 Z6.8345
N2690 X11.0968 Y-0.3364
N2695 G0 Z7.3559
N2700 X10.7769 Y-0.336
N2705 Z6.9473
N2710 G1 Z6.8713 F1.
N2715 X10.7785 Y-0.3304 F3.
N2720 X10.7799 Y-0.3261 Z6.8712
N2725 X10.7818 Y-0.3216
N2730 X10.7839 Y-0.3172 Z6.8711
N2735 X10.7863 Y-0.313
N2740 X10.7889 Y-0.3089 Z6.871
N2745 X10.7918 Y-0.305 Z6.8709
N2750 X10.7951 Y-0.301 Z6.8708
N2755 X10.7986 Y-0.2972
N2760 X10.8024 Y-0.2936 Z6.8707
N2765 X10.8066 Y-0.2903 Z6.8706
N2770 X10.8109 Y-0.2872 Z6.8704
N2775 X10.8148 Y-0.2848
N2780 X10.8186 Y-0.2827 Z6.8703
N2785 X10.8228 Y-0.2807 Z6.8702
N2790 X10.8268 Y-0.2791 Z6.8701
N2795 X10.8306 Y-0.2777 Z6.87
N2800 X10.8345 Y-0.2766 Z6.8699
N2805 X10.8389 Y-0.2756 Z6.8698
N2810 X10.8435 Y-0.2748 Z6.8696
N2815 X10.8467 Y-0.2744
N2820 X10.8512 Y-0.2742 Z6.8695
N2825 X10.8548 Y-0.2741 Z6.8694
N2830 X10.8608 Y-0.2744 Z6.8692
N2835 X10.864 Y-0.2747 Z6.8691
N2840 X10.8678 Y-0.2753 Z6.869
N2845 X10.872 Y-0.2761 Z6.8689
N2850 X10.8762 Y-0.2772 Z6.8688
N2855 X10.8803 Y-0.2786 Z6.8687
N2860 X10.8843 Y-0.2802 Z6.8686
N2865 X10.8882 Y-0.2821 Z6.8685
N2870 X10.892 Y-0.2842
N2875 X10.8962 Y-0.2869 Z6.8684
N2880 X10.9003 Y-0.2899 Z6.8683
N2885 X10.9044 Y-0.2933 Z6.8682
N2890 X10.9081 Y-0.297 Z6.8681
N2895 X10.9117 Y-0.3008
N2900 X10.915 Y-0.305 Z6.868
N2905 X10.918 Y-0.3093 Z6.8679
N2910 X10.9208 Y-0.3139
N2915 X10.9233 Y-0.3186 Z6.8678
N2920 X10.9256 Y-0.3235
N2925 X10.9275 Y-0.3284 Z6.8677
N2930 X10.9291 Y-0.3335
N2935 X10.9303 Y-0.3381
N2940 X10.9313 Y-0.343 Z6.8676
N2945 X10.9319 Y-0.3471
N2950 X10.9323 Y-0.3505
N2955 X10.9326 Y-0.356
N2960 Y-0.3594
N2965 X10.9323 Y-0.366
N2970 X10.9318 Y-0.3703
N2975 X10.9312 Y-0.3739
N2980 X10.9306 Y-0.3773 Z6.8677
N2985 X10.9296 Y-0.3812
N2990 X10.9283 Y-0.3853
N2995 X10.9267 Y-0.3895
N3000 X10.9248 Y-0.3937 Z6.8678
N3005 X10.9228 Y-0.3976
N3010 X10.9202 Y-0.4019 Z6.8679
N3015 X10.9172 Y-0.4063
N3020 X10.9142 Y-0.4104 Z6.868
N3025 X10.9108 Y-0.4143 Z6.8681
N3030 X10.907 Y-0.4181
N3035 X10.9033 Y-0.4215 Z6.8682
N3040 X10.8992 Y-0.4246 Z6.8683
N3045 X10.8949 Y-0.4276 Z6.8684
N3050 X10.8905 Y-0.4302 Z6.8685
N3055 X10.8859 Y-0.4325 Z6.8686
N3060 X10.8811 Y-0.4346 Z6.8687
N3065 X10.8762 Y-0.4363 Z6.8688
N3070 X10.872 Y-0.4375 Z6.8689
N3075 X10.8678 Y-0.4385 Z6.869
N3080 X10.8639 Y-0.4392 Z6.8691
N3085 X10.8604 Y-0.4397 Z6.8692
N3090 X10.8553 Y-0.44 Z6.8693
N3095 X10.8524 Z6.8694
N3100 X10.8454 Y-0.4397 Z6.8696
N3105 X10.8413 Y-0.4393 Z6.8697
N3110 X10.8382 Y-0.4388 Z6.8698
N3115 X10.8346 Y-0.4381 Z6.8699
N3120 X10.8305 Y-0.4371 Z6.87
N3125 X10.8264 Y-0.4358 Z6.8701
N3130 X10.8224 Y-0.4342 Z6.8702
N3135 X10.8183 Y-0.4322 Z6.8703
N3140 X10.8144 Y-0.43 Z6.8704
N3145 X10.8105 Y-0.4276 Z6.8705
N3150 X10.8067 Y-0.4249 Z6.8706
N3155 X10.8032 Y-0.4221
N3160 X10.8 Y-0.4192 Z6.8707
N3165 X10.7969 Y-0.416 Z6.8708
N3170 X10.7938 Y-0.4124 Z6.8709
N3175 X10.791 Y-0.4086
N3180 X10.7881 Y-0.4043 Z6.871
N3185 X10.7854 Y-0.3997 Z6.8711
N3190 X10.783 Y-0.3949
N3195 X10.7808 Y-0.3899 Z6.8712
N3200 X10.779 Y-0.3846
N3205 X10.7774 Y-0.379 Z6.8713
N3210 X10.7761 Y-0.3737
N3215 X10.7754 Y-0.3695
N3220 X10.7748 Y-0.3657
N3225 X10.7744 Y-0.3617 Z6.8714
N3230 X10.7741 Y-0.3554
N3235 X10.7742 Y-0.3518
N3240 X10.7745 Y-0.3486
N3245 X10.7752 Y-0.3442 Z6.8713
N3250 X10.7768 Y-0.3364
N3255 Z6.8613 F1.
N3260 X10.7752 Y-0.3442 F3.
N3265 X10.7745 Y-0.3486 Z6.8614
N3270 X10.7742 Y-0.3518
N3275 X10.7741 Y-0.3554
N3280 X10.7744 Y-0.3617
N3285 X10.7748 Y-0.3657 Z6.8613
N3290 X10.7754 Y-0.3695
N3295 X10.7761 Y-0.3737
N3300 X10.7774 Y-0.379
N3305 X10.779 Y-0.3846 Z6.8612
N3310 X10.7808 Y-0.3899
N3315 X10.783 Y-0.3949 Z6.8611
N3320 X10.7854 Y-0.3997
N3325 X10.7881 Y-0.4043 Z6.861
N3330 X10.791 Y-0.4086 Z6.8609
N3335 X10.7938 Y-0.4124
N3340 X10.7969 Y-0.416 Z6.8608
N3345 X10.8 Y-0.4192 Z6.8607
N3350 X10.8032 Y-0.4221 Z6.8606
N3355 X10.8067 Y-0.4249
N3360 X10.8105 Y-0.4276 Z6.8605
N3365 X10.8144 Y-0.43 Z6.8604
N3370 X10.8183 Y-0.4322 Z6.8603
N3375 X10.8224 Y-0.4342 Z6.8602
N3380 X10.8264 Y-0.4358 Z6.8601
N3385 X10.8305 Y-0.4371 Z6.86
N3390 X10.8346 Y-0.4381 Z6.8599
N3395 X10.8382 Y-0.4388 Z6.8598
N3400 X10.8413 Y-0.4393 Z6.8597
N3405 X10.8454 Y-0.4397 Z6.8596
N3410 X10.8524 Y-0.44 Z6.8594
N3415 X10.8553 Z6.8593
N3420 X10.8604 Y-0.4397 Z6.8592
N3425 X10.8639 Y-0.4392 Z6.8591
N3430 X10.8678 Y-0.4385 Z6.859
N3435 X10.872 Y-0.4375 Z6.8589
N3440 X10.8762 Y-0.4363 Z6.8588
N3445 X10.8811 Y-0.4346 Z6.8587
N3450 X10.8859 Y-0.4325 Z6.8586
N3455 X10.8905 Y-0.4302 Z6.8585
N3460 X10.8949 Y-0.4276 Z6.8584
N3465 X10.8992 Y-0.4246 Z6.8583
N3470 X10.9033 Y-0.4215 Z6.8582
N3475 X10.907 Y-0.4181 Z6.8581
N3480 X10.9108 Y-0.4143
N3485 X10.9142 Y-0.4104 Z6.858
N3490 X10.9172 Y-0.4063 Z6.8579
N3495 X10.9202 Y-0.4019
N3500 X10.9228 Y-0.3976 Z6.8578
N3505 X10.9248 Y-0.3937
N3510 X10.9267 Y-0.3895 Z6.8577
N3515 X10.9283 Y-0.3853
N3520 X10.9296 Y-0.3812
N3525 X10.9306 Y-0.3773
N3530 X10.9312 Y-0.3739 Z6.8576
N3535 X10.9318 Y-0.3703
N3540 X10.9323 Y-0.366
N3545 X10.9326 Y-0.3594
N3550 Y-0.356
N3555 X10.9323 Y-0.3505
N3560 X10.9319 Y-0.3471
N3565 X10.9313 Y-0.343
N3570 X10.9303 Y-0.3381 Z6.8577
N3575 X10.9291 Y-0.3335
N3580 X10.9275 Y-0.3284
N3585 X10.9256 Y-0.3235 Z6.8578
N3590 X10.9233 Y-0.3186
N3595 X10.9208 Y-0.3139 Z6.8579
N3600 X10.918 Y-0.3093
N3605 X10.915 Y-0.305 Z6.858
N3610 X10.9117 Y-0.3008 Z6.8581
N3615 X10.9081 Y-0.297
N3620 X10.9044 Y-0.2933 Z6.8582
N3625 X10.9003 Y-0.2899 Z6.8583
N3630 X10.8962 Y-0.2869 Z6.8584
N3635 X10.892 Y-0.2842 Z6.8585
N3640 X10.8882 Y-0.2821
N3645 X10.8843 Y-0.2802 Z6.8586
N3650 X10.8803 Y-0.2786 Z6.8587
N3655 X10.8762 Y-0.2772 Z6.8588
N3660 X10.872 Y-0.2761 Z6.8589
N3665 X10.8678 Y-0.2753 Z6.859
N3670 X10.864 Y-0.2747 Z6.8591
N3675 X10.8608 Y-0.2744 Z6.8592
N3680 X10.8548 Y-0.2741 Z6.8594
N3685 X10.8512 Y-0.2742 Z6.8595
N3690 X10.8467 Y-0.2744 Z6.8596
N3695 X10.8435 Y-0.2748
N3700 X10.8389 Y-0.2756 Z6.8598
N3705 X10.8345 Y-0.2766 Z6.8599
N3710 X10.8306 Y-0.2777 Z6.86
N3715 X10.8268 Y-0.2791 Z6.8601
N3720 X10.8228 Y-0.2807 Z6.8602
N3725 X10.8186 Y-0.2827 Z6.8603
N3730 X10.8148 Y-0.2848 Z6.8604
N3735 X10.8109 Y-0.2872
N3740 X10.8066 Y-0.2903 Z6.8606
N3745 X10.8024 Y-0.2936 Z6.8607
N3750 X10.7986 Y-0.2972 Z6.8608
N3755 X10.7951 Y-0.301
N3760 X10.7918 Y-0.305 Z6.8609
N3765 X10.7889 Y-0.3089 Z6.861
N3770 X10.7863 Y-0.313 Z6.8611
N3775 X10.7839 Y-0.3172
N3780 X10.7818 Y-0.3216 Z6.8612
N3785 X10.7799 Y-0.3261
N3790 X10.7785 Y-0.3304 Z6.8613
N3795 X10.7769 Y-0.336
N3800 Z6.8513 F1.
N3805 X10.7785 Y-0.3304 F3.
N3810 X10.7799 Y-0.3261 Z6.8512
N3815 X10.7818 Y-0.3216
N3820 X10.7839 Y-0.3172 Z6.8511
N3825 X10.7863 Y-0.313
N3830 X10.7889 Y-0.3089 Z6.851
N3835 X10.7918 Y-0.305 Z6.8509
N3840 X10.7951 Y-0.301 Z6.8508
N3845 X10.7986 Y-0.2972
N3850 X10.8024 Y-0.2936 Z6.8507
N3855 X10.8066 Y-0.2903 Z6.8506
N3860 X10.8109 Y-0.2872 Z6.8504
N3865 X10.8148 Y-0.2848
N3870 X10.8186 Y-0.2827 Z6.8503
N3875 X10.8228 Y-0.2807 Z6.8502
N3880 X10.8268 Y-0.2791 Z6.8501
N3885 X10.8306 Y-0.2777 Z6.85
N3890 X10.8345 Y-0.2766 Z6.8499
N3895 X10.8389 Y-0.2756 Z6.8498
N3900 X10.8435 Y-0.2748 Z6.8496
N3905 X10.8467 Y-0.2744
N3910 X10.8512 Y-0.2742 Z6.8495
N3915 X10.8548 Y-0.2741 Z6.8494
N3920 X10.8608 Y-0.2744 Z6.8492
N3925 X10.864 Y-0.2747 Z6.8491
N3930 X10.8678 Y-0.2753 Z6.849
N3935 X10.872 Y-0.2761 Z6.8489
N3940 X10.8762 Y-0.2772 Z6.8488
N3945 X10.8803 Y-0.2786 Z6.8487
N3950 X10.8843 Y-0.2802 Z6.8486
N3955 X10.8882 Y-0.2821 Z6.8485
N3960 X10.892 Y-0.2842
N3965 X10.8962 Y-0.2869 Z6.8484
N3970 X10.9003 Y-0.2899 Z6.8483
N3975 X10.9044 Y-0.2933 Z6.8482
N3980 X10.9081 Y-0.297 Z6.8481
N3985 X10.9117 Y-0.3008
N3990 X10.915 Y-0.305 Z6.848
N3995 X10.918 Y-0.3093 Z6.8479
N4000 X10.9208 Y-0.3139
N4005 X10.9233 Y-0.3186 Z6.8478
N4010 X10.9256 Y-0.3235
N4015 X10.9275 Y-0.3284 Z6.8477
N4020 X10.9291 Y-0.3335
N4025 X10.9303 Y-0.3381
N4030 X10.9313 Y-0.343 Z6.8476
N4035 X10.9319 Y-0.3471
N4040 X10.9323 Y-0.3505
N4045 X10.9326 Y-0.356
N4050 Y-0.3594
N4055 X10.9323 Y-0.366
N4060 X10.9318 Y-0.3703
N4065 X10.9312 Y-0.3739
N4070 X10.9306 Y-0.3773 Z6.8477
N4075 X10.9296 Y-0.3812
N4080 X10.9283 Y-0.3853
N4085 X10.9267 Y-0.3895
N4090 X10.9248 Y-0.3937 Z6.8478
N4095 X10.9228 Y-0.3976
N4100 X10.9202 Y-0.4019 Z6.8479
N4105 X10.9172 Y-0.4063
N4110 X10.9142 Y-0.4104 Z6.848
N4115 X10.9108 Y-0.4143 Z6.8481
N4120 X10.907 Y-0.4181
N4125 X10.9033 Y-0.4215 Z6.8482
N4130 X10.8992 Y-0.4246 Z6.8483
N4135 X10.8949 Y-0.4276 Z6.8484
N4140 X10.8905 Y-0.4302 Z6.8485
N4145 X10.8859 Y-0.4325 Z6.8486
N4150 X10.8811 Y-0.4346 Z6.8487
N4155 X10.8762 Y-0.4363 Z6.8488
N4160 X10.872 Y-0.4375 Z6.8489
N4165 X10.8678 Y-0.4385 Z6.849
N4170 X10.8639 Y-0.4392 Z6.8491
N4175 X10.8604 Y-0.4397 Z6.8492
N4180 X10.8553 Y-0.44 Z6.8493
N4185 X10.8524 Z6.8494
N4190 X10.8454 Y-0.4397 Z6.8496
N4195 X10.8413 Y-0.4393 Z6.8497
N4200 X10.8382 Y-0.4388 Z6.8498
N4205 X10.8346 Y-0.4381 Z6.8499
N4210 X10.8305 Y-0.4371 Z6.85
N4215 X10.8264 Y-0.4358 Z6.8501
N4220 X10.8224 Y-0.4342 Z6.8502
N4225 X10.8183 Y-0.4322 Z6.8503
N4230 X10.8144 Y-0.43 Z6.8504
N4235 X10.8105 Y-0.4276 Z6.8505
N4240 X10.8067 Y-0.4249 Z6.8506
N4245 X10.8032 Y-0.4221
N4250 X10.8 Y-0.4192 Z6.8507
N4255 X10.7969 Y-0.416 Z6.8508
N4260 X10.7938 Y-0.4124 Z6.8509
N4265 X10.791 Y-0.4086
N4270 X10.7881 Y-0.4043 Z6.851
N4275 X10.7854 Y-0.3997 Z6.8511
N4280 X10.783 Y-0.3949
N4285 X10.7808 Y-0.3899 Z6.8512
N4290 X10.779 Y-0.3846
N4295 X10.7774 Y-0.379 Z6.8513
N4300 X10.7761 Y-0.3737
N4305 X10.7754 Y-0.3695
N4310 X10.7748 Y-0.3657
N4315 X10.7744 Y-0.3617 Z6.8514
N4320 X10.7741 Y-0.3554
N4325 X10.7742 Y-0.3518
N4330 X10.7745 Y-0.3486
N4335 X10.7752 Y-0.3442 Z6.8513
N4340 X10.7768 Y-0.3364
N4345 Z6.8413 F1.
N4350 X10.7752 Y-0.3442 F3.
N4355 X10.7745 Y-0.3486 Z6.8414
N4360 X10.7742 Y-0.3518
N4365 X10.7741 Y-0.3554
N4370 X10.7744 Y-0.3617
N4375 X10.7748 Y-0.3657 Z6.8413
N4380 X10.7754 Y-0.3695
N4385 X10.7761 Y-0.3737
N4390 X10.7774 Y-0.379
N4395 X10.779 Y-0.3846 Z6.8412
N4400 X10.7808 Y-0.3899
N4405 X10.783 Y-0.3949 Z6.8411
N4410 X10.7854 Y-0.3997
N4415 X10.7881 Y-0.4043 Z6.841
N4420 X10.791 Y-0.4086 Z6.8409
N4425 X10.7938 Y-0.4124
N4430 X10.7969 Y-0.416 Z6.8408
N4435 X10.8 Y-0.4192 Z6.8407
N4440 X10.8032 Y-0.4221 Z6.8406
N4445 X10.8067 Y-0.4249
N4450 X10.8105 Y-0.4276 Z6.8405
N4455 X10.8144 Y-0.43 Z6.8404
N4460 X10.8183 Y-0.4322 Z6.8403
N4465 X10.8224 Y-0.4342 Z6.8402
N4470 X10.8264 Y-0.4358 Z6.8401
N4475 X10.8305 Y-0.4371 Z6.84
N4480 X10.8346 Y-0.4381 Z6.8399
N4485 X10.8382 Y-0.4388 Z6.8398
N4490 X10.8413 Y-0.4393 Z6.8397
N4495 X10.8454 Y-0.4397 Z6.8396
N4500 X10.8524 Y-0.44 Z6.8394
N4505 X10.8553 Z6.8393
N4510 X10.8604 Y-0.4397 Z6.8392
N4515 X10.8639 Y-0.4392 Z6.8391
N4520 X10.8678 Y-0.4385 Z6.839
N4525 X10.872 Y-0.4375 Z6.8389
N4530 X10.8762 Y-0.4363 Z6.8388
N4535 X10.8811 Y-0.4346 Z6.8387
N4540 X10.8859 Y-0.4325 Z6.8386
N4545 X10.8905 Y-0.4302 Z6.8385
N4550 X10.8949 Y-0.4276 Z6.8384
N4555 X10.8992 Y-0.4246 Z6.8383
N4560 X10.9033 Y-0.4215 Z6.8382
N4565 X10.907 Y-0.4181 Z6.8381
N4570 X10.9108 Y-0.4143
N4575 X10.9142 Y-0.4104 Z6.838
N4580 X10.9172 Y-0.4063 Z6.8379
N4585 X10.9202 Y-0.4019
N4590 X10.9228 Y-0.3976 Z6.8378
N4595 X10.9248 Y-0.3937
N4600 X10.9267 Y-0.3895 Z6.8377
N4605 X10.9283 Y-0.3853
N4610 X10.9296 Y-0.3812
N4615 X10.9306 Y-0.3773
N4620 X10.9312 Y-0.3739 Z6.8376
N4625 X10.9318 Y-0.3703
N4630 X10.9323 Y-0.366
N4635 X10.9326 Y-0.3594
N4640 Y-0.356
N4645 X10.9323 Y-0.3505
N4650 X10.9319 Y-0.3471
N4655 X10.9313 Y-0.343
N4660 X10.9303 Y-0.3381 Z6.8377
N4665 X10.9291 Y-0.3335
N4670 X10.9275 Y-0.3284
N4675 X10.9256 Y-0.3235 Z6.8378
N4680 X10.9233 Y-0.3186
N4685 X10.9208 Y-0.3139 Z6.8379
N4690 X10.918 Y-0.3093
N4695 X10.915 Y-0.305 Z6.838
N4700 X10.9117 Y-0.3008 Z6.8381
N4705 X10.9081 Y-0.297
N4710 X10.9044 Y-0.2933 Z6.8382
N4715 X10.9003 Y-0.2899 Z6.8383
N4720 X10.8962 Y-0.2869 Z6.8384
N4725 X10.892 Y-0.2842 Z6.8385
N4730 X10.8882 Y-0.2821
N4735 X10.8843 Y-0.2802 Z6.8386
N4740 X10.8803 Y-0.2786 Z6.8387
N4745 X10.8762 Y-0.2772 Z6.8388
N4750 X10.872 Y-0.2761 Z6.8389
N4755 X10.8678 Y-0.2753 Z6.839
N4760 X10.864 Y-0.2747 Z6.8391
N4765 X10.8608 Y-0.2744 Z6.8392
N4770 X10.8548 Y-0.2741 Z6.8394
N4775 X10.8512 Y-0.2742 Z6.8395
N4780 X10.8467 Y-0.2744 Z6.8396
N4785 X10.8435 Y-0.2748
N4790 X10.8389 Y-0.2756 Z6.8398
N4795 X10.8345 Y-0.2766 Z6.8399
N4800 X10.8306 Y-0.2777 Z6.84
N4805 X10.8268 Y-0.2791 Z6.8401
N4810 X10.8228 Y-0.2807 Z6.8402
N4815 X10.8186 Y-0.2827 Z6.8403
N4820 X10.8148 Y-0.2848 Z6.8404
N4825 X10.8109 Y-0.2872
N4830 X10.8066 Y-0.2903 Z6.8406
N4835 X10.8024 Y-0.2936 Z6.8407
N4840 X10.7986 Y-0.2972 Z6.8408
N4845 X10.7951 Y-0.301
N4850 X10.7918 Y-0.305 Z6.8409
N4855 X10.7889 Y-0.3089 Z6.841
N4860 X10.7863 Y-0.313 Z6.8411
N4865 X10.7839 Y-0.3172
N4870 X10.7818 Y-0.3216 Z6.8412
N4875 X10.7799 Y-0.3261
N4880 X10.7785 Y-0.3304 Z6.8413
N4885 X10.7769 Y-0.336
N4890 G0 Z7.3559
N4895 X10.7768 Y-0.3364
N4900 Z6.9473
N4905 G1 Z6.8713 F1.
N4910 X10.78 Y-0.3245 Z6.8712 F3.
N4915 X10.7822 Y-0.3167
N4920 X10.785 Y-0.3082 Z6.8711
N4925 X10.788 Y-0.2994 Z6.871
N4930 X10.7912 Y-0.2911 Z6.8709
N4935 X10.7946 Y-0.2827
N4940 X10.7985 Y-0.2741 Z6.8708
N4945 X10.8026 Y-0.2655 Z6.8707
N4950 X10.8072 Y-0.2567 Z6.8705
N4955 X10.8122 Y-0.2479 Z6.8704
N4960 X10.8174 Y-0.2393 Z6.8703
N4965 X10.823 Y-0.2308 Z6.8701
N4970 X10.8288 Y-0.2224 Z6.87
N4975 X10.8348 Y-0.2144 Z6.8699
N4980 X10.8408 Y-0.2067 Z6.8697
N4985 X10.8471 Y-0.1991 Z6.8696
N4990 X10.8542 Y-0.1911 Z6.8694
N4995 X10.8611 Y-0.1838 Z6.8692
N5000 X10.8676 Y-0.1773 Z6.869
N5005 X10.873 Y-0.1722 Z6.8689
N5010 X10.8808 Y-0.165 Z6.8687
N5015 Z6.8587 F1.
N5020 X10.873 Y-0.1722 Z6.8589 F3.
N5025 X10.8676 Y-0.1773 Z6.859
N5030 X10.8611 Y-0.1838 Z6.8592
N5035 X10.8542 Y-0.1911 Z6.8594
N5040 X10.8471 Y-0.1991 Z6.8596
N5045 X10.8408 Y-0.2067 Z6.8597
N5050 X10.8348 Y-0.2144 Z6.8599
N5055 X10.8288 Y-0.2224 Z6.86
N5060 X10.823 Y-0.2308 Z6.8601
N5065 X10.8174 Y-0.2393 Z6.8603
N5070 X10.8122 Y-0.2479 Z6.8604
N5075 X10.8072 Y-0.2567 Z6.8605
N5080 X10.8026 Y-0.2655 Z6.8607
N5085 X10.7985 Y-0.2741 Z6.8608
N5090 X10.7946 Y-0.2827 Z6.8609
N5095 X10.7912 Y-0.2911
N5100 X10.788 Y-0.2994 Z6.861
N5105 X10.785 Y-0.3082 Z6.8611
N5110 X10.7822 Y-0.3167 Z6.8612
N5115 X10.78 Y-0.3245
N5120 X10.7768 Y-0.3364 Z6.8613
N5125 Z6.8513 F1.
N5130 X10.78 Y-0.3245 Z6.8512 F3.
N5135 X10.7822 Y-0.3167
N5140 X10.785 Y-0.3082 Z6.8511
N5145 X10.788 Y-0.2994 Z6.851
N5150 X10.7912 Y-0.2911 Z6.8509
N5155 X10.7946 Y-0.2827
N5160 X10.7985 Y-0.2741 Z6.8508
N5165 X10.8026 Y-0.2655 Z6.8507
N5170 X10.8072 Y-0.2567 Z6.8505
N5175 X10.8122 Y-0.2479 Z6.8504
N5180 X10.8174 Y-0.2393 Z6.8503
N5185 X10.823 Y-0.2308 Z6.8501
N5190 X10.8288 Y-0.2224 Z6.85
N5195 X10.8348 Y-0.2144 Z6.8499
N5200 X10.8408 Y-0.2067 Z6.8497
N5205 X10.8471 Y-0.1991 Z6.8496
N5210 X10.8542 Y-0.1911 Z6.8494
N5215 X10.8611 Y-0.1838 Z6.8492
N5220 X10.8676 Y-0.1773 Z6.849
N5225 X10.873 Y-0.1722 Z6.8489
N5230 X10.8808 Y-0.165 Z6.8487
N5235 Z6.8387 F1.
N5240 X10.873 Y-0.1722 Z6.8389 F3.
N5245 X10.8676 Y-0.1773 Z6.839
N5250 X10.8611 Y-0.1838 Z6.8392
N5255 X10.8542 Y-0.1911 Z6.8394
N5260 X10.8471 Y-0.1991 Z6.8396
N5265 X10.8408 Y-0.2067 Z6.8397
N5270 X10.8348 Y-0.2144 Z6.8399
N5275 X10.8288 Y-0.2224 Z6.84
N5280 X10.823 Y-0.2308 Z6.8401
N5285 X10.8174 Y-0.2393 Z6.8403
N5290 X10.8122 Y-0.2479 Z6.8404
N5295 X10.8072 Y-0.2567 Z6.8405
N5300 X10.8026 Y-0.2655 Z6.8407
N5305 X10.7985 Y-0.2741 Z6.8408
N5310 X10.7946 Y-0.2827 Z6.8409
N5315 X10.7912 Y-0.2911
N5320 X10.788 Y-0.2994 Z6.841
N5325 X10.785 Y-0.3082 Z6.8411
N5330 X10.7822 Y-0.3167 Z6.8412
N5335 X10.78 Y-0.3245
N5340 X10.7768 Y-0.3364 Z6.8413
N5345 G0 Z7.3559
N5350 X10.4568 Y-0.336
N5355 Z6.9579
N5360 G1 Z6.8816 F1.
N5365 X10.4584 Y-0.3304 Z6.8815 F3.
N5370 X10.4599 Y-0.3261
N5375 X10.4618 Y-0.3216 Z6.8814
N5380 X10.4639 Y-0.3172 Z6.8813
N5385 X10.4662 Y-0.313 Z6.8812
N5390 X10.4689 Y-0.3089 Z6.8811
N5395 X10.4717 Y-0.305 Z6.881
N5400 X10.475 Y-0.301 Z6.8809
N5405 X10.4786 Y-0.2972 Z6.8808
N5410 X10.4824 Y-0.2937 Z6.8806
N5415 X10.4865 Y-0.2903 Z6.8805
N5420 X10.4909 Y-0.2872 Z6.8803
N5425 X10.4947 Y-0.2848 Z6.8802
N5430 X10.4986 Y-0.2827 Z6.8801
N5435 X10.5028 Y-0.2807 Z6.8799
N5440 X10.5067 Y-0.2791 Z6.8798
N5445 X10.5105 Y-0.2777 Z6.8796
N5450 X10.5144 Y-0.2766 Z6.8795
N5455 X10.5189 Y-0.2756 Z6.8793
N5460 X10.5234 Y-0.2748 Z6.8792
N5465 X10.5266 Y-0.2744 Z6.8791
N5470 X10.5311 Y-0.2742 Z6.8789
N5475 X10.5347 Y-0.2741 Z6.8788
N5480 X10.5406 Y-0.2744 Z6.8786
N5485 X10.5439 Y-0.2747 Z6.8784
N5490 X10.5477 Y-0.2753 Z6.8783
N5495 X10.5519 Y-0.2761 Z6.8782
N5500 X10.5561 Y-0.2772 Z6.878
N5505 X10.5602 Y-0.2786 Z6.8779
N5510 X10.5642 Y-0.2802 Z6.8777
N5515 X10.5681 Y-0.2821 Z6.8776
N5520 X10.5719 Y-0.2842 Z6.8775
N5525 X10.5761 Y-0.2869 Z6.8773
N5530 X10.5803 Y-0.2899 Z6.8772
N5535 X10.5843 Y-0.2933 Z6.8771
N5540 X10.5881 Y-0.297 Z6.877
N5545 X10.5916 Y-0.3008 Z6.8768
N5550 X10.5949 Y-0.3049 Z6.8767
N5555 X10.598 Y-0.3093 Z6.8766
N5560 X10.6008 Y-0.3139
N5565 X10.6033 Y-0.3186 Z6.8765
N5570 X10.6055 Y-0.3234 Z6.8764
N5575 X10.6074 Y-0.3284 Z6.8763
N5580 X10.6091 Y-0.3335
N5585 X10.6103 Y-0.3381 Z6.8762
N5590 X10.6113 Y-0.343
N5595 X10.6119 Y-0.3471
N5600 X10.6123 Y-0.3505
N5605 X10.6125 Y-0.356
N5610 Y-0.3594
N5615 X10.6122 Y-0.366
N5620 X10.6118 Y-0.3703
N5625 X10.6112 Y-0.3737
N5630 X10.6105 Y-0.3772
N5635 X10.6095 Y-0.3811 Z6.8763
N5640 X10.6082 Y-0.3853
N5645 X10.6066 Y-0.3895 Z6.8764
N5650 X10.6048 Y-0.3937
N5655 X10.6028 Y-0.3975 Z6.8765
N5660 X10.6002 Y-0.4019 Z6.8766
N5665 X10.5972 Y-0.4063 Z6.8767
N5670 X10.5941 Y-0.4104 Z6.8768
N5675 X10.5907 Y-0.4143 Z6.8769
N5680 X10.587 Y-0.4181 Z6.877
N5685 X10.5832 Y-0.4215 Z6.8771
N5690 X10.5792 Y-0.4246 Z6.8772
N5695 X10.5749 Y-0.4276 Z6.8774
N5700 X10.5705 Y-0.4302 Z6.8775
N5705 X10.5658 Y-0.4325 Z6.8777
N5710 X10.5611 Y-0.4346 Z6.8778
N5715 X10.5562 Y-0.4363 Z6.878
N5720 X10.552 Y-0.4375 Z6.8781
N5725 X10.5478 Y-0.4385 Z6.8783
N5730 X10.5439 Y-0.4392 Z6.8784
N5735 X10.5403 Y-0.4397 Z6.8786
N5740 X10.5353 Y-0.44 Z6.8787
N5745 X10.5323 Z6.8789
N5750 X10.5255 Y-0.4397 Z6.8791
N5755 X10.5216 Y-0.4393 Z6.8792
N5760 X10.5185 Y-0.4389 Z6.8794
N5765 X10.5147 Y-0.4381 Z6.8795
N5770 X10.5105 Y-0.4371 Z6.8796
N5775 X10.5065 Y-0.4358 Z6.8798
N5780 X10.5024 Y-0.4342 Z6.8799
N5785 X10.4983 Y-0.4323 Z6.8801
N5790 X10.4944 Y-0.4301 Z6.8802
N5795 X10.4905 Y-0.4276 Z6.8804
N5800 X10.4867 Y-0.4249 Z6.8805
N5805 X10.4832 Y-0.4221 Z6.8806
N5810 X10.48 Y-0.4192 Z6.8807
N5815 X10.4769 Y-0.416 Z6.8808
N5820 X10.4738 Y-0.4124 Z6.881
N5825 X10.471 Y-0.4086 Z6.8811
N5830 X10.4681 Y-0.4043 Z6.8812
N5835 X10.4654 Y-0.3997 Z6.8813
N5840 X10.4629 Y-0.3949
N5845 X10.4608 Y-0.3899 Z6.8814
N5850 X10.459 Y-0.3846 Z6.8815
N5855 X10.4573 Y-0.379
N5860 X10.4561 Y-0.3738 Z6.8816
N5865 X10.4553 Y-0.3696
N5870 X10.4548 Y-0.3658
N5875 X10.4544 Y-0.3618
N5880 X10.4541 Y-0.3556 Z6.8817
N5885 Y-0.3519
N5890 X10.4544 Y-0.3487 Z6.8816
N5895 X10.4551 Y-0.3442
N5900 X10.4567 Y-0.3364
N5905 Z6.8716 F1.
N5910 X10.4551 Y-0.3442 F3.
N5915 X10.4544 Y-0.3487
N5920 X10.4541 Y-0.3519 Z6.8717
N5925 Y-0.3556
N5930 X10.4544 Y-0.3618 Z6.8716
N5935 X10.4548 Y-0.3658
N5940 X10.4553 Y-0.3696
N5945 X10.4561 Y-0.3738
N5950 X10.4573 Y-0.379 Z6.8715
N5955 X10.459 Y-0.3846
N5960 X10.4608 Y-0.3899 Z6.8714
N5965 X10.4629 Y-0.3949 Z6.8713
N5970 X10.4654 Y-0.3997
N5975 X10.4681 Y-0.4043 Z6.8712
N5980 X10.471 Y-0.4086 Z6.8711
N5985 X10.4738 Y-0.4124 Z6.871
N5990 X10.4769 Y-0.416 Z6.8708
N5995 X10.48 Y-0.4192 Z6.8707
N6000 X10.4832 Y-0.4221 Z6.8706
N6005 X10.4867 Y-0.4249 Z6.8705
N6010 X10.4905 Y-0.4276 Z6.8704
N6015 X10.4944 Y-0.4301 Z6.8702
N6020 X10.4983 Y-0.4323 Z6.8701
N6025 X10.5024 Y-0.4342 Z6.8699
N6030 X10.5065 Y-0.4358 Z6.8698
N6035 X10.5105 Y-0.4371 Z6.8696
N6040 X10.5147 Y-0.4381 Z6.8695
N6045 X10.5185 Y-0.4389 Z6.8694
N6050 X10.5216 Y-0.4393 Z6.8692
N6055 X10.5255 Y-0.4397 Z6.8691
N6060 X10.5323 Y-0.44 Z6.8689
N6065 X10.5353 Z6.8687
N6070 X10.5403 Y-0.4397 Z6.8686
N6075 X10.5439 Y-0.4392 Z6.8684
N6080 X10.5478 Y-0.4385 Z6.8683
N6085 X10.552 Y-0.4375 Z6.8681
N6090 X10.5562 Y-0.4363 Z6.868
N6095 X10.5611 Y-0.4346 Z6.8678
N6100 X10.5658 Y-0.4325 Z6.8677
N6105 X10.5705 Y-0.4302 Z6.8675
N6110 X10.5749 Y-0.4276 Z6.8674
N6115 X10.5792 Y-0.4246 Z6.8672
N6120 X10.5832 Y-0.4215 Z6.8671
N6125 X10.587 Y-0.4181 Z6.867
N6130 X10.5907 Y-0.4143 Z6.8669
N6135 X10.5941 Y-0.4104 Z6.8668
N6140 X10.5972 Y-0.4063 Z6.8667
N6145 X10.6002 Y-0.4019 Z6.8666
N6150 X10.6028 Y-0.3975 Z6.8665
N6155 X10.6048 Y-0.3937 Z6.8664
N6160 X10.6066 Y-0.3895
N6165 X10.6082 Y-0.3853 Z6.8663
N6170 X10.6095 Y-0.3811
N6175 X10.6105 Y-0.3772 Z6.8662
N6180 X10.6112 Y-0.3737
N6185 X10.6118 Y-0.3703
N6190 X10.6122 Y-0.366
N6195 X10.6125 Y-0.3594
N6200 Y-0.356
N6205 X10.6123 Y-0.3505
N6210 X10.6119 Y-0.3471
N6215 X10.6113 Y-0.343
N6220 X10.6103 Y-0.3381
N6225 X10.6091 Y-0.3335 Z6.8663
N6230 X10.6074 Y-0.3284
N6235 X10.6055 Y-0.3234 Z6.8664
N6240 X10.6033 Y-0.3186 Z6.8665
N6245 X10.6008 Y-0.3139 Z6.8666
N6250 X10.598 Y-0.3093
N6255 X10.5949 Y-0.3049 Z6.8667
N6260 X10.5916 Y-0.3008 Z6.8668
N6265 X10.5881 Y-0.297 Z6.867
N6270 X10.5843 Y-0.2933 Z6.8671
N6275 X10.5803 Y-0.2899 Z6.8672
N6280 X10.5761 Y-0.2869 Z6.8673
N6285 X10.5719 Y-0.2842 Z6.8675
N6290 X10.5681 Y-0.2821 Z6.8676
N6295 X10.5642 Y-0.2802 Z6.8677
N6300 X10.5602 Y-0.2786 Z6.8679
N6305 X10.5561 Y-0.2772 Z6.868
N6310 X10.5519 Y-0.2761 Z6.8682
N6315 X10.5477 Y-0.2753 Z6.8683
N6320 X10.5439 Y-0.2747 Z6.8684
N6325 X10.5406 Y-0.2744 Z6.8686
N6330 X10.5347 Y-0.2741 Z6.8688
N6335 X10.5311 Y-0.2742 Z6.8689
N6340 X10.5266 Y-0.2744 Z6.8691
N6345 X10.5234 Y-0.2748 Z6.8692
N6350 X10.5189 Y-0.2756 Z6.8693
N6355 X10.5144 Y-0.2766 Z6.8695
N6360 X10.5105 Y-0.2777 Z6.8696
N6365 X10.5067 Y-0.2791 Z6.8698
N6370 X10.5028 Y-0.2807 Z6.8699
N6375 X10.4986 Y-0.2827 Z6.8701
N6380 X10.4947 Y-0.2848 Z6.8702
N6385 X10.4909 Y-0.2872 Z6.8703
N6390 X10.4865 Y-0.2903 Z6.8705
N6395 X10.4824 Y-0.2937 Z6.8706
N6400 X10.4786 Y-0.2972 Z6.8708
N6405 X10.475 Y-0.301 Z6.8709
N6410 X10.4717 Y-0.305 Z6.871
N6415 X10.4689 Y-0.3089 Z6.8711
N6420 X10.4662 Y-0.313 Z6.8712
N6425 X10.4639 Y-0.3172 Z6.8713
N6430 X10.4618 Y-0.3216 Z6.8714
N6435 X10.4599 Y-0.3261 Z6.8715
N6440 X10.4584 Y-0.3304
N6445 X10.4568 Y-0.336 Z6.8716
N6450 Z6.8616 F1.
N6455 X10.4584 Y-0.3304 Z6.8615 F3.
N6460 X10.4599 Y-0.3261
N6465 X10.4618 Y-0.3216 Z6.8614
N6470 X10.4639 Y-0.3172 Z6.8613
N6475 X10.4662 Y-0.313 Z6.8612
N6480 X10.4689 Y-0.3089 Z6.8611
N6485 X10.4717 Y-0.305 Z6.861
N6490 X10.475 Y-0.301 Z6.8609
N6495 X10.4786 Y-0.2972 Z6.8608
N6500 X10.4824 Y-0.2937 Z6.8606
N6505 X10.4865 Y-0.2903 Z6.8605
N6510 X10.4909 Y-0.2872 Z6.8603
N6515 X10.4947 Y-0.2848 Z6.8602
N6520 X10.4986 Y-0.2827 Z6.8601
N6525 X10.5028 Y-0.2807 Z6.8599
N6530 X10.5067 Y-0.2791 Z6.8598
N6535 X10.5105 Y-0.2777 Z6.8596
N6540 X10.5144 Y-0.2766 Z6.8595
N6545 X10.5189 Y-0.2756 Z6.8593
N6550 X10.5234 Y-0.2748 Z6.8592
N6555 X10.5266 Y-0.2744 Z6.8591
N6560 X10.5311 Y-0.2742 Z6.8589
N6565 X10.5347 Y-0.2741 Z6.8588
N6570 X10.5406 Y-0.2744 Z6.8586
N6575 X10.5439 Y-0.2747 Z6.8584
N6580 X10.5477 Y-0.2753 Z6.8583
N6585 X10.5519 Y-0.2761 Z6.8582
N6590 X10.5561 Y-0.2772 Z6.858
N6595 X10.5602 Y-0.2786 Z6.8579
N6600 X10.5642 Y-0.2802 Z6.8577
N6605 X10.5681 Y-0.2821 Z6.8576
N6610 X10.5719 Y-0.2842 Z6.8575
N6615 X10.5761 Y-0.2869 Z6.8573
N6620 X10.5803 Y-0.2899 Z6.8572
N6625 X10.5843 Y-0.2933 Z6.8571
N6630 X10.5881 Y-0.297 Z6.857
N6635 X10.5916 Y-0.3008 Z6.8568
N6640 X10.5949 Y-0.3049 Z6.8567
N6645 X10.598 Y-0.3093 Z6.8566
N6650 X10.6008 Y-0.3139
N6655 X10.6033 Y-0.3186 Z6.8565
N6660 X10.6055 Y-0.3234 Z6.8564
N6665 X10.6074 Y-0.3284 Z6.8563
N6670 X10.6091 Y-0.3335
N6675 X10.6103 Y-0.3381 Z6.8562
N6680 X10.6113 Y-0.343
N6685 X10.6119 Y-0.3471
N6690 X10.6123 Y-0.3505
N6695 X10.6125 Y-0.356
N6700 Y-0.3594
N6705 X10.6122 Y-0.366
N6710 X10.6118 Y-0.3703
N6715 X10.6112 Y-0.3737
N6720 X10.6105 Y-0.3772
N6725 X10.6095 Y-0.3811 Z6.8563
N6730 X10.6082 Y-0.3853
N6735 X10.6066 Y-0.3895 Z6.8564
N6740 X10.6048 Y-0.3937
N6745 X10.6028 Y-0.3975 Z6.8565
N6750 X10.6002 Y-0.4019 Z6.8566
N6755 X10.5972 Y-0.4063 Z6.8567
N6760 X10.5941 Y-0.4104 Z6.8568
N6765 X10.5907 Y-0.4143 Z6.8569
N6770 X10.587 Y-0.4181 Z6.857
N6775 X10.5832 Y-0.4215 Z6.8571
N6780 X10.5792 Y-0.4246 Z6.8572
N6785 X10.5749 Y-0.4276 Z6.8574
N6790 X10.5705 Y-0.4302 Z6.8575
N6795 X10.5658 Y-0.4325 Z6.8577
N6800 X10.5611 Y-0.4346 Z6.8578
N6805 X10.5562 Y-0.4363 Z6.858
N6810 X10.552 Y-0.4375 Z6.8581
N6815 X10.5478 Y-0.4385 Z6.8583
N6820 X10.5439 Y-0.4392 Z6.8584
N6825 X10.5403 Y-0.4397 Z6.8586
N6830 X10.5353 Y-0.44 Z6.8587
N6835 X10.5323 Z6.8589
N6840 X10.5255 Y-0.4397 Z6.8591
N6845 X10.5216 Y-0.4393 Z6.8592
N6850 X10.5185 Y-0.4389 Z6.8594
N6855 X10.5147 Y-0.4381 Z6.8595
N6860 X10.5105 Y-0.4371 Z6.8596
N6865 X10.5065 Y-0.4358 Z6.8598
N6870 X10.5024 Y-0.4342 Z6.8599
N6875 X10.4983 Y-0.4323 Z6.8601
N6880 X10.4944 Y-0.4301 Z6.8602
N6885 X10.4905 Y-0.4276 Z6.8604
N6890 X10.4867 Y-0.4249 Z6.8605
N6895 X10.4832 Y-0.4221 Z6.8606
N6900 X10.48 Y-0.4192 Z6.8607
N6905 X10.4769 Y-0.416 Z6.8608
N6910 X10.4738 Y-0.4124 Z6.861
N6915 X10.471 Y-0.4086 Z6.8611
N6920 X10.4681 Y-0.4043 Z6.8612
N6925 X10.4654 Y-0.3997 Z6.8613
N6930 X10.4629 Y-0.3949
N6935 X10.4608 Y-0.3899 Z6.8614
N6940 X10.459 Y-0.3846 Z6.8615
N6945 X10.4573 Y-0.379
N6950 X10.4561 Y-0.3738 Z6.8616
N6955 X10.4553 Y-0.3696
N6960 X10.4548 Y-0.3658
N6965 X10.4544 Y-0.3618
N6970 X10.4541 Y-0.3556 Z6.8617
N6975 Y-0.3519
N6980 X10.4544 Y-0.3487 Z6.8616
N6985 X10.4551 Y-0.3442
N6990 X10.4567 Y-0.3364
N6995 Z6.8516 F1.
N7000 X10.4551 Y-0.3442 F3.
N7005 X10.4544 Y-0.3487
N7010 X10.4541 Y-0.3519 Z6.8517
N7015 Y-0.3556
N7020 X10.4544 Y-0.3618 Z6.8516
N7025 X10.4548 Y-0.3658
N7030 X10.4553 Y-0.3696
N7035 X10.4561 Y-0.3738
N7040 X10.4573 Y-0.379 Z6.8515
N7045 X10.459 Y-0.3846
N7050 X10.4608 Y-0.3899 Z6.8514
N7055 X10.4629 Y-0.3949 Z6.8513
N7060 X10.4654 Y-0.3997
N7065 X10.4681 Y-0.4043 Z6.8512
N7070 X10.471 Y-0.4086 Z6.8511
N7075 X10.4738 Y-0.4124 Z6.851
N7080 X10.4769 Y-0.416 Z6.8508
N7085 X10.48 Y-0.4192 Z6.8507
N7090 X10.4832 Y-0.4221 Z6.8506
N7095 X10.4867 Y-0.4249 Z6.8505
N7100 X10.4905 Y-0.4276 Z6.8504
N7105 X10.4944 Y-0.4301 Z6.8502
N7110 X10.4983 Y-0.4323 Z6.8501
N7115 X10.5024 Y-0.4342 Z6.8499
N7120 X10.5065 Y-0.4358 Z6.8498
N7125 X10.5105 Y-0.4371 Z6.8496
N7130 X10.5147 Y-0.4381 Z6.8495
N7135 X10.5185 Y-0.4389 Z6.8494
N7140 X10.5216 Y-0.4393 Z6.8492
N7145 X10.5255 Y-0.4397 Z6.8491
N7150 X10.5323 Y-0.44 Z6.8489
N7155 X10.5353 Z6.8487
N7160 X10.5403 Y-0.4397 Z6.8486
N7165 X10.5439 Y-0.4392 Z6.8484
N7170 X10.5478 Y-0.4385 Z6.8483
N7175 X10.552 Y-0.4375 Z6.8481
N7180 X10.5562 Y-0.4363 Z6.848
N7185 X10.5611 Y-0.4346 Z6.8478
N7190 X10.5658 Y-0.4325 Z6.8477
N7195 X10.5705 Y-0.4302 Z6.8475
N7200 X10.5749 Y-0.4276 Z6.8474
N7205 X10.5792 Y-0.4246 Z6.8472
N7210 X10.5832 Y-0.4215 Z6.8471
N7215 X10.587 Y-0.4181 Z6.847
N7220 X10.5907 Y-0.4143 Z6.8469
N7225 X10.5941 Y-0.4104 Z6.8468
N7230 X10.5972 Y-0.4063 Z6.8467
N7235 X10.6002 Y-0.4019 Z6.8466
N7240 X10.6028 Y-0.3975 Z6.8465
N7245 X10.6048 Y-0.3937 Z6.8464
N7250 X10.6066 Y-0.3895
N7255 X10.6082 Y-0.3853 Z6.8463
N7260 X10.6095 Y-0.3811
N7265 X10.6105 Y-0.3772 Z6.8462
N7270 X10.6112 Y-0.3737
N7275 X10.6118 Y-0.3703
N7280 X10.6122 Y-0.366
N7285 X10.6125 Y-0.3594
N7290 Y-0.356
N7295 X10.6123 Y-0.3505
N7300 X10.6119 Y-0.3471
N7305 X10.6113 Y-0.343
N7310 X10.6103 Y-0.3381
N7315 X10.6091 Y-0.3335 Z6.8463
N7320 X10.6074 Y-0.3284
N7325 X10.6055 Y-0.3234 Z6.8464
N7330 X10.6033 Y-0.3186 Z6.8465
N7335 X10.6008 Y-0.3139 Z6.8466
N7340 X10.598 Y-0.3093
N7345 X10.5949 Y-0.3049 Z6.8467
N7350 X10.5916 Y-0.3008 Z6.8468
N7355 X10.5881 Y-0.297 Z6.847
N7360 X10.5843 Y-0.2933 Z6.8471
N7365 X10.5803 Y-0.2899 Z6.8472
N7370 X10.5761 Y-0.2869 Z6.8473
N7375 X10.5719 Y-0.2842 Z6.8475
N7380 X10.5681 Y-0.2821 Z6.8476
N7385 X10.5642 Y-0.2802 Z6.8477
N7390 X10.5602 Y-0.2786 Z6.8479
N7395 X10.5561 Y-0.2772 Z6.848
N7400 X10.5519 Y-0.2761 Z6.8482
N7405 X10.5477 Y-0.2753 Z6.8483
N7410 X10.5439 Y-0.2747 Z6.8484
N7415 X10.5406 Y-0.2744 Z6.8486
N7420 X10.5347 Y-0.2741 Z6.8488
N7425 X10.5311 Y-0.2742 Z6.8489
N7430 X10.5266 Y-0.2744 Z6.8491
N7435 X10.5234 Y-0.2748 Z6.8492
N7440 X10.5189 Y-0.2756 Z6.8493
N7445 X10.5144 Y-0.2766 Z6.8495
N7450 X10.5105 Y-0.2777 Z6.8496
N7455 X10.5067 Y-0.2791 Z6.8498
N7460 X10.5028 Y-0.2807 Z6.8499
N7465 X10.4986 Y-0.2827 Z6.8501
N7470 X10.4947 Y-0.2848 Z6.8502
N7475 X10.4909 Y-0.2872 Z6.8503
N7480 X10.4865 Y-0.2903 Z6.8505
N7485 X10.4824 Y-0.2937 Z6.8506
N7490 X10.4786 Y-0.2972 Z6.8508
N7495 X10.475 Y-0.301 Z6.8509
N7500 X10.4717 Y-0.305 Z6.851
N7505 X10.4689 Y-0.3089 Z6.8511
N7510 X10.4662 Y-0.313 Z6.8512
N7515 X10.4639 Y-0.3172 Z6.8513
N7520 X10.4618 Y-0.3216 Z6.8514
N7525 X10.4599 Y-0.3261 Z6.8515
N7530 X10.4584 Y-0.3304
N7535 X10.4568 Y-0.336 Z6.8516
N7540 G0 Z7.3559
N7545 X10.4567 Y-0.3364
N7550 Z6.9579
N7555 G1 Z6.8816 F1.
N7560 X10.4599 Y-0.3246 Z6.8814 F3.
N7565 X10.4622 Y-0.3167
N7570 X10.4649 Y-0.3082 Z6.8813
N7575 X10.468 Y-0.2995 Z6.8812
N7580 X10.4711 Y-0.2911 Z6.881
N7585 X10.4746 Y-0.2828 Z6.8809
N7590 X10.4785 Y-0.2741 Z6.8808
N7595 X10.4826 Y-0.2656 Z6.8806
N7600 X10.4872 Y-0.2568 Z6.8805
N7605 X10.4922 Y-0.2479 Z6.8803
N7610 X10.4974 Y-0.2393 Z6.8801
N7615 X10.503 Y-0.2308 Z6.8799
N7620 X10.5088 Y-0.2224 Z6.8797
N7625 X10.5147 Y-0.2144 Z6.8795
N7630 X10.5207 Y-0.2067 Z6.8793
N7635 X10.5271 Y-0.1991 Z6.879
N7640 X10.5341 Y-0.1912 Z6.8788
N7645 X10.541 Y-0.1839 Z6.8785
N7650 X10.5473 Y-0.1775 Z6.8783
N7655 X10.5524 Y-0.1727 Z6.8781
N7660 X10.5602 Y-0.1655 Z6.8779
N7665 X10.5608 Y-0.165 Z6.8778
N7670 Z6.8678 F1.
N7675 X10.5602 Y-0.1655 Z6.8679 F3.
N7680 X10.5524 Y-0.1727 Z6.8681
N7685 X10.5473 Y-0.1775 Z6.8683
N7690 X10.541 Y-0.1839 Z6.8685
N7695 X10.5341 Y-0.1912 Z6.8688
N7700 X10.5271 Y-0.1991 Z6.869
N7705 X10.5207 Y-0.2067 Z6.8693
N7710 X10.5147 Y-0.2144 Z6.8695
N7715 X10.5088 Y-0.2224 Z6.8697
N7720 X10.503 Y-0.2308 Z6.8699
N7725 X10.4974 Y-0.2393 Z6.8701
N7730 X10.4922 Y-0.2479 Z6.8703
N7735 X10.4872 Y-0.2568 Z6.8705
N7740 X10.4826 Y-0.2656 Z6.8706
N7745 X10.4785 Y-0.2741 Z6.8708
N7750 X10.4746 Y-0.2828 Z6.8709
N7755 X10.4711 Y-0.2911 Z6.871
N7760 X10.468 Y-0.2995 Z6.8712
N7765 X10.4649 Y-0.3082 Z6.8713
N7770 X10.4622 Y-0.3167 Z6.8714
N7775 X10.4599 Y-0.3246
N7780 X10.4567 Y-0.3364 Z6.8716
N7785 Z6.8616 F1.
N7790 X10.4599 Y-0.3246 Z6.8614 F3.
N7795 X10.4622 Y-0.3167
N7800 X10.4649 Y-0.3082 Z6.8613
N7805 X10.468 Y-0.2995 Z6.8612
N7810 X10.4711 Y-0.2911 Z6.861
N7815 X10.4746 Y-0.2828 Z6.8609
N7820 X10.4785 Y-0.2741 Z6.8608
N7825 X10.4826 Y-0.2656 Z6.8606
N7830 X10.4872 Y-0.2568 Z6.8605
N7835 X10.4922 Y-0.2479 Z6.8603
N7840 X10.4974 Y-0.2393 Z6.8601
N7845 X10.503 Y-0.2308 Z6.8599
N7850 X10.5088 Y-0.2224 Z6.8597
N7855 X10.5147 Y-0.2144 Z6.8595
N7860 X10.5207 Y-0.2067 Z6.8593
N7865 X10.5271 Y-0.1991 Z6.859
N7870 X10.5341 Y-0.1912 Z6.8588
N7875 X10.541 Y-0.1839 Z6.8585
N7880 X10.5473 Y-0.1775 Z6.8583
N7885 X10.5524 Y-0.1727 Z6.8581
N7890 X10.5602 Y-0.1655 Z6.8579
N7895 X10.5608 Y-0.165 Z6.8578
N7900 Z6.8478 F1.
N7905 X10.5602 Y-0.1655 Z6.8479 F3.
N7910 X10.5524 Y-0.1727 Z6.8481
N7915 X10.5473 Y-0.1775 Z6.8483
N7920 X10.541 Y-0.1839 Z6.8485
N7925 X10.5341 Y-0.1912 Z6.8488
N7930 X10.5271 Y-0.1991 Z6.849
N7935 X10.5207 Y-0.2067 Z6.8493
N7940 X10.5147 Y-0.2144 Z6.8495
N7945 X10.5088 Y-0.2224 Z6.8497
N7950 X10.503 Y-0.2308 Z6.8499
N7955 X10.4974 Y-0.2393 Z6.8501
N7960 X10.4922 Y-0.2479 Z6.8503
N7965 X10.4872 Y-0.2568 Z6.8505
N7970 X10.4826 Y-0.2656 Z6.8506
N7975 X10.4785 Y-0.2741 Z6.8508
N7980 X10.4746 Y-0.2828 Z6.8509
N7985 X10.4711 Y-0.2911 Z6.851
N7990 X10.468 Y-0.2995 Z6.8512
N7995 X10.4649 Y-0.3082 Z6.8513
N8000 X10.4622 Y-0.3167 Z6.8514
N8005 X10.4599 Y-0.3246
N8010 X10.4567 Y-0.3364 Z6.8516
N8015 G0 Z7.3559
N8020 X10.1368 Y-0.336
N8025 Z6.9721
N8030 G1 Z6.8953 F1.
N8035 X10.1384 Y-0.3305 Z6.8952 F3.
N8040 X10.1399 Y-0.3261
N8045 X10.1417 Y-0.3216 Z6.8951
N8050 X10.1438 Y-0.3173 Z6.895
N8055 X10.1462 Y-0.313 Z6.8949
N8060 X10.1488 Y-0.3089 Z6.8947
N8065 X10.1517 Y-0.305 Z6.8946
N8070 X10.155 Y-0.301 Z6.8945
N8075 X10.1585 Y-0.2972 Z6.8943
N8080 X10.1623 Y-0.2937 Z6.8941
N8085 X10.1665 Y-0.2903 Z6.8939
N8090 X10.1708 Y-0.2872 Z6.8937
N8095 X10.1746 Y-0.2848 Z6.8935
N8100 X10.1785 Y-0.2827 Z6.8933
N8105 X10.1827 Y-0.2807 Z6.8932
N8110 X10.1867 Y-0.2791 Z6.893
N8115 X10.1904 Y-0.2777 Z6.8928
N8120 X10.1944 Y-0.2766 Z6.8926
N8125 X10.1988 Y-0.2756 Z6.8924
N8130 X10.2033 Y-0.2748 Z6.8922
N8135 X10.2066 Y-0.2744 Z6.892
N8140 X10.211 Y-0.2742 Z6.8918
N8145 X10.2146 Y-0.2741 Z6.8917
N8150 X10.2205 Y-0.2744 Z6.8914
N8155 X10.2238 Y-0.2747 Z6.8912
N8160 X10.2276 Y-0.2752 Z6.891
N8165 X10.2319 Y-0.2761 Z6.8908
N8170 X10.236 Y-0.2772 Z6.8907
N8175 X10.2401 Y-0.2786 Z6.8905
N8180 X10.2441 Y-0.2802 Z6.8903
N8185 X10.2481 Y-0.2821 Z6.8901
N8190 X10.2519 Y-0.2842 Z6.89
N8195 X10.2561 Y-0.2869 Z6.8898
N8200 X10.2603 Y-0.2899 Z6.8896
N8205 X10.2643 Y-0.2933 Z6.8894
N8210 X10.2681 Y-0.297 Z6.8893
N8215 X10.2716 Y-0.3008 Z6.8891
N8220 X10.2749 Y-0.3049 Z6.889
N8225 X10.2779 Y-0.3093 Z6.8888
N8230 X10.2807 Y-0.3138 Z6.8887
N8235 X10.2832 Y-0.3185 Z6.8886
N8240 X10.2855 Y-0.3234 Z6.8885
N8245 X10.2874 Y-0.3284 Z6.8884
N8250 X10.2891 Y-0.3335
N8255 X10.2902 Y-0.3381 Z6.8883
N8260 X10.2912 Y-0.343
N8265 X10.2919 Y-0.3471 Z6.8882
N8270 X10.2922 Y-0.3505
N8275 X10.2925 Y-0.356
N8280 Y-0.3594
N8285 X10.2922 Y-0.366
N8290 X10.2917 Y-0.3703 Z6.8883
N8295 X10.2912 Y-0.3737
N8300 X10.2905 Y-0.3772
N8305 X10.2895 Y-0.3811
N8310 X10.2882 Y-0.3853 Z6.8884
N8315 X10.2866 Y-0.3895 Z6.8885
N8320 X10.2847 Y-0.3937 Z6.8886
N8325 X10.2827 Y-0.3975
N8330 X10.2802 Y-0.4019 Z6.8888
N8335 X10.2772 Y-0.4063 Z6.8889
N8340 X10.2741 Y-0.4104 Z6.889
N8345 X10.2707 Y-0.4143 Z6.8892
N8350 X10.267 Y-0.418 Z6.8893
N8355 X10.2632 Y-0.4215 Z6.8895
N8360 X10.2592 Y-0.4246 Z6.8897
N8365 X10.2548 Y-0.4276 Z6.8898
N8370 X10.2504 Y-0.4302 Z6.89
N8375 X10.2458 Y-0.4325 Z6.8902
N8380 X10.2411 Y-0.4346 Z6.8904
N8385 X10.2362 Y-0.4363 Z6.8906
N8390 X10.232 Y-0.4375 Z6.8908
N8395 X10.2278 Y-0.4385 Z6.891
N8400 X10.224 Y-0.4392 Z6.8912
N8405 X10.2203 Y-0.4396 Z6.8914
N8410 X10.2154 Y-0.44 Z6.8916
N8415 X10.2124 Z6.8918
N8420 X10.2055 Y-0.4397 Z6.8921
N8425 X10.2018 Y-0.4393 Z6.8923
N8430 X10.1987 Y-0.4389 Z6.8924
N8435 X10.1947 Y-0.4382 Z6.8926
N8440 X10.1906 Y-0.4371 Z6.8928
N8445 X10.1864 Y-0.4358 Z6.893
N8450 X10.1823 Y-0.4342 Z6.8932
N8455 X10.1783 Y-0.4323 Z6.8934
N8460 X10.1743 Y-0.4301 Z6.8935
N8465 X10.1704 Y-0.4276 Z6.8937
N8470 X10.1667 Y-0.4249 Z6.8939
N8475 X10.1632 Y-0.4221 Z6.8941
N8480 X10.16 Y-0.4192 Z6.8942
N8485 X10.1568 Y-0.416 Z6.8944
N8490 X10.1537 Y-0.4124 Z6.8945
N8495 X10.151 Y-0.4087 Z6.8946
N8500 X10.1481 Y-0.4044 Z6.8948
N8505 X10.1453 Y-0.3997 Z6.8949
N8510 X10.1429 Y-0.3949 Z6.895
N8515 X10.1408 Y-0.3899 Z6.8951
N8520 X10.1389 Y-0.3847 Z6.8952
N8525 X10.1373 Y-0.3791 Z6.8953
N8530 X10.1361 Y-0.3739
N8535 X10.1353 Y-0.3697 Z6.8954
N8540 X10.1348 Y-0.3659
N8545 X10.1344 Y-0.3619
N8550 X10.1341 Y-0.3558
N8555 Y-0.352
N8560 X10.1344 Y-0.3487
N8565 X10.1351 Y-0.3443
N8570 X10.1367 Y-0.3364 Z6.8953
N8575 Z6.8853 F1.
N8580 X10.1351 Y-0.3443 Z6.8854 F3.
N8585 X10.1344 Y-0.3487
N8590 X10.1341 Y-0.352
N8595 Y-0.3558
N8600 X10.1344 Y-0.3619
N8605 X10.1348 Y-0.3659
N8610 X10.1353 Y-0.3697
N8615 X10.1361 Y-0.3739 Z6.8853
N8620 X10.1373 Y-0.3791
N8625 X10.1389 Y-0.3847 Z6.8852
N8630 X10.1408 Y-0.3899 Z6.8851
N8635 X10.1429 Y-0.3949 Z6.885
N8640 X10.1453 Y-0.3997 Z6.8849
N8645 X10.1481 Y-0.4044 Z6.8848
N8650 X10.151 Y-0.4087 Z6.8846
N8655 X10.1537 Y-0.4124 Z6.8845
N8660 X10.1568 Y-0.416 Z6.8844
N8665 X10.16 Y-0.4192 Z6.8842
N8670 X10.1632 Y-0.4221 Z6.8841
N8675 X10.1667 Y-0.4249 Z6.8839
N8680 X10.1704 Y-0.4276 Z6.8837
N8685 X10.1743 Y-0.4301 Z6.8835
N8690 X10.1783 Y-0.4323 Z6.8834
N8695 X10.1823 Y-0.4342 Z6.8832
N8700 X10.1864 Y-0.4358 Z6.883
N8705 X10.1906 Y-0.4371 Z6.8828
N8710 X10.1947 Y-0.4382 Z6.8826
N8715 X10.1987 Y-0.4389 Z6.8824
N8720 X10.2018 Y-0.4393 Z6.8823
N8725 X10.2055 Y-0.4397 Z6.8821
N8730 X10.2124 Y-0.44 Z6.8818
N8735 X10.2154 Z6.8816
N8740 X10.2203 Y-0.4396 Z6.8814
N8745 X10.224 Y-0.4392 Z6.8812
N8750 X10.2278 Y-0.4385 Z6.881
N8755 X10.232 Y-0.4375 Z6.8808
N8760 X10.2362 Y-0.4363 Z6.8806
N8765 X10.2411 Y-0.4346 Z6.8804
N8770 X10.2458 Y-0.4325 Z6.8802
N8775 X10.2504 Y-0.4302 Z6.88
N8780 X10.2548 Y-0.4276 Z6.8798
N8785 X10.2592 Y-0.4246 Z6.8797
N8790 X10.2632 Y-0.4215 Z6.8795
N8795 X10.267 Y-0.418 Z6.8793
N8800 X10.2707 Y-0.4143 Z6.8792
N8805 X10.2741 Y-0.4104 Z6.879
N8810 X10.2772 Y-0.4063 Z6.8789
N8815 X10.2802 Y-0.4019 Z6.8788
N8820 X10.2827 Y-0.3975 Z6.8786
N8825 X10.2847 Y-0.3937
N8830 X10.2866 Y-0.3895 Z6.8785
N8835 X10.2882 Y-0.3853 Z6.8784
N8840 X10.2895 Y-0.3811 Z6.8783
N8845 X10.2905 Y-0.3772
N8850 X10.2912 Y-0.3737
N8855 X10.2917 Y-0.3703
N8860 X10.2922 Y-0.366 Z6.8782
N8865 X10.2925 Y-0.3594
N8870 Y-0.356
N8875 X10.2922 Y-0.3505
N8880 X10.2919 Y-0.3471
N8885 X10.2912 Y-0.343 Z6.8783
N8890 X10.2902 Y-0.3381
N8895 X10.2891 Y-0.3335 Z6.8784
N8900 X10.2874 Y-0.3284
N8905 X10.2855 Y-0.3234 Z6.8785
N8910 X10.2832 Y-0.3185 Z6.8786
N8915 X10.2807 Y-0.3138 Z6.8787
N8920 X10.2779 Y-0.3093 Z6.8788
N8925 X10.2749 Y-0.3049 Z6.879
N8930 X10.2716 Y-0.3008 Z6.8791
N8935 X10.2681 Y-0.297 Z6.8793
N8940 X10.2643 Y-0.2933 Z6.8794
N8945 X10.2603 Y-0.2899 Z6.8796
N8950 X10.2561 Y-0.2869 Z6.8798
N8955 X10.2519 Y-0.2842 Z6.88
N8960 X10.2481 Y-0.2821 Z6.8801
N8965 X10.2441 Y-0.2802 Z6.8803
N8970 X10.2401 Y-0.2786 Z6.8805
N8975 X10.236 Y-0.2772 Z6.8807
N8980 X10.2319 Y-0.2761 Z6.8808
N8985 X10.2276 Y-0.2752 Z6.881
N8990 X10.2238 Y-0.2747 Z6.8812
N8995 X10.2205 Y-0.2744 Z6.8814
N9000 X10.2146 Y-0.2741 Z6.8817
N9005 X10.211 Y-0.2742 Z6.8818
N9010 X10.2066 Y-0.2744 Z6.882
N9015 X10.2033 Y-0.2748 Z6.8822
N9020 X10.1988 Y-0.2756 Z6.8824
N9025 X10.1944 Y-0.2766 Z6.8826
N9030 X10.1904 Y-0.2777 Z6.8828
N9035 X10.1867 Y-0.2791 Z6.883
N9040 X10.1827 Y-0.2807 Z6.8832
N9045 X10.1785 Y-0.2827 Z6.8833
N9050 X10.1746 Y-0.2848 Z6.8835
N9055 X10.1708 Y-0.2872 Z6.8837
N9060 X10.1665 Y-0.2903 Z6.8839
N9065 X10.1623 Y-0.2937 Z6.8841
N9070 X10.1585 Y-0.2972 Z6.8843
N9075 X10.155 Y-0.301 Z6.8845
N9080 X10.1517 Y-0.305 Z6.8846
N9085 X10.1488 Y-0.3089 Z6.8847
N9090 X10.1462 Y-0.313 Z6.8849
N9095 X10.1438 Y-0.3173 Z6.885
N9100 X10.1417 Y-0.3216 Z6.8851
N9105 X10.1399 Y-0.3261 Z6.8852
N9110 X10.1384 Y-0.3305
N9115 X10.1368 Y-0.336 Z6.8853
N9120 Z6.8753 F1.
N9125 X10.1384 Y-0.3305 Z6.8752 F3.
N9130 X10.1399 Y-0.3261
N9135 X10.1417 Y-0.3216 Z6.8751
N9140 X10.1438 Y-0.3173 Z6.875
N9145 X10.1462 Y-0.313 Z6.8749
N9150 X10.1488 Y-0.3089 Z6.8747
N9155 X10.1517 Y-0.305 Z6.8746
N9160 X10.155 Y-0.301 Z6.8745
N9165 X10.1585 Y-0.2972 Z6.8743
N9170 X10.1623 Y-0.2937 Z6.8741
N9175 X10.1665 Y-0.2903 Z6.8739
N9180 X10.1708 Y-0.2872 Z6.8737
N9185 X10.1746 Y-0.2848 Z6.8735
N9190 X10.1785 Y-0.2827 Z6.8733
N9195 X10.1827 Y-0.2807 Z6.8732
N9200 X10.1867 Y-0.2791 Z6.873
N9205 X10.1904 Y-0.2777 Z6.8728
N9210 X10.1944 Y-0.2766 Z6.8726
N9215 X10.1988 Y-0.2756 Z6.8724
N9220 X10.2033 Y-0.2748 Z6.8722
N9225 X10.2066 Y-0.2744 Z6.872
N9230 X10.211 Y-0.2742 Z6.8718
N9235 X10.2146 Y-0.2741 Z6.8717
N9240 X10.2205 Y-0.2744 Z6.8714
N9245 X10.2238 Y-0.2747 Z6.8712
N9250 X10.2276 Y-0.2752 Z6.871
N9255 X10.2319 Y-0.2761 Z6.8708
N9260 X10.236 Y-0.2772 Z6.8707
N9265 X10.2401 Y-0.2786 Z6.8705
N9270 X10.2441 Y-0.2802 Z6.8703
N9275 X10.2481 Y-0.2821 Z6.8701
N9280 X10.2519 Y-0.2842 Z6.87
N9285 X10.2561 Y-0.2869 Z6.8698
N9290 X10.2603 Y-0.2899 Z6.8696
N9295 X10.2643 Y-0.2933 Z6.8694
N9300 X10.2681 Y-0.297 Z6.8693
N9305 X10.2716 Y-0.3008 Z6.8691
N9310 X10.2749 Y-0.3049 Z6.869
N9315 X10.2779 Y-0.3093 Z6.8688
N9320 X10.2807 Y-0.3138 Z6.8687
N9325 X10.2832 Y-0.3185 Z6.8686
N9330 X10.2855 Y-0.3234 Z6.8685
N9335 X10.2874 Y-0.3284 Z6.8684
N9340 X10.2891 Y-0.3335
N9345 X10.2902 Y-0.3381 Z6.8683
N9350 X10.2912 Y-0.343
N9355 X10.2919 Y-0.3471 Z6.8682
N9360 X10.2922 Y-0.3505
N9365 X10.2925 Y-0.356
N9370 Y-0.3594
N9375 X10.2922 Y-0.366
N9380 X10.2917 Y-0.3703 Z6.8683
N9385 X10.2912 Y-0.3737
N9390 X10.2905 Y-0.3772
N9395 X10.2895 Y-0.3811
N9400 X10.2882 Y-0.3853 Z6.8684
N9405 X10.2866 Y-0.3895 Z6.8685
N9410 X10.2847 Y-0.3937 Z6.8686
N9415 X10.2827 Y-0.3975
N9420 X10.2802 Y-0.4019 Z6.8688
N9425 X10.2772 Y-0.4063 Z6.8689
N9430 X10.2741 Y-0.4104 Z6.869
N9435 X10.2707 Y-0.4143 Z6.8692
N9440 X10.267 Y-0.418 Z6.8693
N9445 X10.2632 Y-0.4215 Z6.8695
N9450 X10.2592 Y-0.4246 Z6.8697
N9455 X10.2548 Y-0.4276 Z6.8698
N9460 X10.2504 Y-0.4302 Z6.87
N9465 X10.2458 Y-0.4325 Z6.8702
N9470 X10.2411 Y-0.4346 Z6.8704
N9475 X10.2362 Y-0.4363 Z6.8706
N9480 X10.232 Y-0.4375 Z6.8708
N9485 X10.2278 Y-0.4385 Z6.871
N9490 X10.224 Y-0.4392 Z6.8712
N9495 X10.2203 Y-0.4396 Z6.8714
N9500 X10.2154 Y-0.44 Z6.8716
N9505 X10.2124 Z6.8718
N9510 X10.2055 Y-0.4397 Z6.8721
N9515 X10.2018 Y-0.4393 Z6.8723
N9520 X10.1987 Y-0.4389 Z6.8724
N9525 X10.1947 Y-0.4382 Z6.8726
N9530 X10.1906 Y-0.4371 Z6.8728
N9535 X10.1864 Y-0.4358 Z6.873
N9540 X10.1823 Y-0.4342 Z6.8732
N9545 X10.1783 Y-0.4323 Z6.8734
N9550 X10.1743 Y-0.4301 Z6.8735
N9555 X10.1704 Y-0.4276 Z6.8737
N9560 X10.1667 Y-0.4249 Z6.8739
N9565 X10.1632 Y-0.4221 Z6.8741
N9570 X10.16 Y-0.4192 Z6.8742
N9575 X10.1568 Y-0.416 Z6.8744
N9580 X10.1537 Y-0.4124 Z6.8745
N9585 X10.151 Y-0.4087 Z6.8746
N9590 X10.1481 Y-0.4044 Z6.8748
N9595 X10.1453 Y-0.3997 Z6.8749
N9600 X10.1429 Y-0.3949 Z6.875
N9605 X10.1408 Y-0.3899 Z6.8751
N9610 X10.1389 Y-0.3847 Z6.8752
N9615 X10.1373 Y-0.3791 Z6.8753
N9620 X10.1361 Y-0.3739
N9625 X10.1353 Y-0.3697 Z6.8754
N9630 X10.1348 Y-0.3659
N9635 X10.1344 Y-0.3619
N9640 X10.1341 Y-0.3558
N9645 Y-0.352
N9650 X10.1344 Y-0.3487
N9655 X10.1351 Y-0.3443
N9660 X10.1367 Y-0.3364 Z6.8753
N9665 Z6.8653 F1.
N9670 X10.1351 Y-0.3443 Z6.8654 F3.
N9675 X10.1344 Y-0.3487
N9680 X10.1341 Y-0.352
N9685 Y-0.3558
N9690 X10.1344 Y-0.3619
N9695 X10.1348 Y-0.3659
N9700 X10.1353 Y-0.3697
N9705 X10.1361 Y-0.3739 Z6.8653
N9710 X10.1373 Y-0.3791
N9715 X10.1389 Y-0.3847 Z6.8652
N9720 X10.1408 Y-0.3899 Z6.8651
N9725 X10.1429 Y-0.3949 Z6.865
N9730 X10.1453 Y-0.3997 Z6.8649
N9735 X10.1481 Y-0.4044 Z6.8648
N9740 X10.151 Y-0.4087 Z6.8646
N9745 X10.1537 Y-0.4124 Z6.8645
N9750 X10.1568 Y-0.416 Z6.8644
N9755 X10.16 Y-0.4192 Z6.8642
N9760 X10.1632 Y-0.4221 Z6.8641
N9765 X10.1667 Y-0.4249 Z6.8639
N9770 X10.1704 Y-0.4276 Z6.8637
N9775 X10.1743 Y-0.4301 Z6.8635
N9780 X10.1783 Y-0.4323 Z6.8634
N9785 X10.1823 Y-0.4342 Z6.8632
N9790 X10.1864 Y-0.4358 Z6.863
N9795 X10.1906 Y-0.4371 Z6.8628
N9800 X10.1947 Y-0.4382 Z6.8626
N9805 X10.1987 Y-0.4389 Z6.8624
N9810 X10.2018 Y-0.4393 Z6.8623
N9815 X10.2055 Y-0.4397 Z6.8621
N9820 X10.2124 Y-0.44 Z6.8618
N9825 X10.2154 Z6.8616
N9830 X10.2203 Y-0.4396 Z6.8614
N9835 X10.224 Y-0.4392 Z6.8612
N9840 X10.2278 Y-0.4385 Z6.861
N9845 X10.232 Y-0.4375 Z6.8608
N9850 X10.2362 Y-0.4363 Z6.8606
N9855 X10.2411 Y-0.4346 Z6.8604
N9860 X10.2458 Y-0.4325 Z6.8602
N9865 X10.2504 Y-0.4302 Z6.86
N9870 X10.2548 Y-0.4276 Z6.8598
N9875 X10.2592 Y-0.4246 Z6.8597
N9880 X10.2632 Y-0.4215 Z6.8595
N9885 X10.267 Y-0.418 Z6.8593
N9890 X10.2707 Y-0.4143 Z6.8592
N9895 X10.2741 Y-0.4104 Z6.859
N9900 X10.2772 Y-0.4063 Z6.8589
N9905 X10.2802 Y-0.4019 Z6.8588
N9910 X10.2827 Y-0.3975 Z6.8586
N9915 X10.2847 Y-0.3937
N9920 X10.2866 Y-0.3895 Z6.8585
N9925 X10.2882 Y-0.3853 Z6.8584
N9930 X10.2895 Y-0.3811 Z6.8583
N9935 X10.2905 Y-0.3772
N9940 X10.2912 Y-0.3737
N9945 X10.2917 Y-0.3703
N9950 X10.2922 Y-0.366 Z6.8582
N9955 X10.2925 Y-0.3594
N9960 Y-0.356
N9965 X10.2922 Y-0.3505
N9970 X10.2919 Y-0.3471
N9975 X10.2912 Y-0.343 Z6.8583
N9980 X10.2902 Y-0.3381
N9985 X10.2891 Y-0.3335 Z6.8584
N9990 X10.2874 Y-0.3284
N9995 X10.2855 Y-0.3234 Z6.8585
N10000 X10.2832 Y-0.3185 Z6.8586
N10005 X10.2807 Y-0.3138 Z6.8587
N10010 X10.2779 Y-0.3093 Z6.8588
N10015 X10.2749 Y-0.3049 Z6.859
N10020 X10.2716 Y-0.3008 Z6.8591
N10025 X10.2681 Y-0.297 Z6.8593
N10030 X10.2643 Y-0.2933 Z6.8594
N10035 X10.2603 Y-0.2899 Z6.8596
N10040 X10.2561 Y-0.2869 Z6.8598
N10045 X10.2519 Y-0.2842 Z6.86
N10050 X10.2481 Y-0.2821 Z6.8601
N10055 X10.2441 Y-0.2802 Z6.8603
N10060 X10.2401 Y-0.2786 Z6.8605
N10065 X10.236 Y-0.2772 Z6.8607
N10070 X10.2319 Y-0.2761 Z6.8608
N10075 X10.2276 Y-0.2752 Z6.861
N10080 X10.2238 Y-0.2747 Z6.8612
N10085 X10.2205 Y-0.2744 Z6.8614
N10090 X10.2146 Y-0.2741 Z6.8617
N10095 X10.211 Y-0.2742 Z6.8618
N10100 X10.2066 Y-0.2744 Z6.862
N10105 X10.2033 Y-0.2748 Z6.8622
N10110 X10.1988 Y-0.2756 Z6.8624
N10115 X10.1944 Y-0.2766 Z6.8626
N10120 X10.1904 Y-0.2777 Z6.8628
N10125 X10.1867 Y-0.2791 Z6.863
N10130 X10.1827 Y-0.2807 Z6.8632
N10135 X10.1785 Y-0.2827 Z6.8633
N10140 X10.1746 Y-0.2848 Z6.8635
N10145 X10.1708 Y-0.2872 Z6.8637
N10150 X10.1665 Y-0.2903 Z6.8639
N10155 X10.1623 Y-0.2937 Z6.8641
N10160 X10.1585 Y-0.2972 Z6.8643
N10165 X10.155 Y-0.301 Z6.8645
N10170 X10.1517 Y-0.305 Z6.8646
N10175 X10.1488 Y-0.3089 Z6.8647
N10180 X10.1462 Y-0.313 Z6.8649
N10185 X10.1438 Y-0.3173 Z6.865
N10190 X10.1417 Y-0.3216 Z6.8651
N10195 X10.1399 Y-0.3261 Z6.8652
N10200 X10.1384 Y-0.3305
N10205 X10.1368 Y-0.336 Z6.8653
N10210 G0 Z7.3559
N10215 X10.1367 Y-0.3364
N10220 Z6.9721
N10225 G1 Z6.8953 F1.
N10230 X10.1398 Y-0.3247 Z6.8952 F3.
N10235 X10.1421 Y-0.3168 Z6.8951
N10240 X10.1449 Y-0.3083 Z6.8949
N10245 X10.1479 Y-0.2995 Z6.8948
N10250 X10.1511 Y-0.2912 Z6.8946
N10255 X10.1546 Y-0.2828 Z6.8945
N10260 X10.1584 Y-0.2741 Z6.8943
N10265 X10.1625 Y-0.2656 Z6.8941
N10270 X10.1671 Y-0.2568 Z6.8939
N10275 X10.1721 Y-0.2479 Z6.8936
N10280 X10.1773 Y-0.2393 Z6.8934
N10285 X10.1829 Y-0.2308 Z6.8931
N10290 X10.1887 Y-0.2224 Z6.8929
N10295 X10.1946 Y-0.2144 Z6.8926
N10300 X10.2007 Y-0.2067 Z6.8923
N10305 X10.207 Y-0.1991 Z6.892
N10310 X10.2141 Y-0.1912 Z6.8917
N10315 X10.2208 Y-0.184 Z6.8914
N10320 X10.227 Y-0.1778 Z6.8911
N10325 X10.2319 Y-0.1731 Z6.8908
N10330 X10.2394 Y-0.1662 Z6.8905
N10335 X10.2408 Y-0.165
N10340 Z6.8805 F1.
N10345 X10.2394 Y-0.1662 F3.
N10350 X10.2319 Y-0.1731 Z6.8808
N10355 X10.227 Y-0.1778 Z6.8811
N10360 X10.2208 Y-0.184 Z6.8814
N10365 X10.2141 Y-0.1912 Z6.8817
N10370 X10.207 Y-0.1991 Z6.882
N10375 X10.2007 Y-0.2067 Z6.8823
N10380 X10.1946 Y-0.2144 Z6.8826
N10385 X10.1887 Y-0.2224 Z6.8829
N10390 X10.1829 Y-0.2308 Z6.8831
N10395 X10.1773 Y-0.2393 Z6.8834
N10400 X10.1721 Y-0.2479 Z6.8836
N10405 X10.1671 Y-0.2568 Z6.8839
N10410 X10.1625 Y-0.2656 Z6.8841
N10415 X10.1584 Y-0.2741 Z6.8843
N10420 X10.1546 Y-0.2828 Z6.8845
N10425 X10.1511 Y-0.2912 Z6.8846
N10430 X10.1479 Y-0.2995 Z6.8848
N10435 X10.1449 Y-0.3083 Z6.8849
N10440 X10.1421 Y-0.3168 Z6.8851
N10445 X10.1398 Y-0.3247 Z6.8852
N10450 X10.1367 Y-0.3364 Z6.8853
N10455 Z6.8753 F1.
N10460 X10.1398 Y-0.3247 Z6.8752 F3.
N10465 X10.1421 Y-0.3168 Z6.8751
N10470 X10.1449 Y-0.3083 Z6.8749
N10475 X10.1479 Y-0.2995 Z6.8748
N10480 X10.1511 Y-0.2912 Z6.8746
N10485 X10.1546 Y-0.2828 Z6.8745
N10490 X10.1584 Y-0.2741 Z6.8743
N10495 X10.1625 Y-0.2656 Z6.8741
N10500 X10.1671 Y-0.2568 Z6.8739
N10505 X10.1721 Y-0.2479 Z6.8736
N10510 X10.1773 Y-0.2393 Z6.8734
N10515 X10.1829 Y-0.2308 Z6.8731
N10520 X10.1887 Y-0.2224 Z6.8729
N10525 X10.1946 Y-0.2144 Z6.8726
N10530 X10.2007 Y-0.2067 Z6.8723
N10535 X10.207 Y-0.1991 Z6.872
N10540 X10.2141 Y-0.1912 Z6.8717
N10545 X10.2208 Y-0.184 Z6.8714
N10550 X10.227 Y-0.1778 Z6.8711
N10555 X10.2319 Y-0.1731 Z6.8708
N10560 X10.2394 Y-0.1662 Z6.8705
N10565 X10.2408 Y-0.165
N10570 Z6.8605 F1.
N10575 X10.2394 Y-0.1662 F3.
N10580 X10.2319 Y-0.1731 Z6.8608
N10585 X10.227 Y-0.1778 Z6.8611
N10590 X10.2208 Y-0.184 Z6.8614
N10595 X10.2141 Y-0.1912 Z6.8617
N10600 X10.207 Y-0.1991 Z6.862
N10605 X10.2007 Y-0.2067 Z6.8623
N10610 X10.1946 Y-0.2144 Z6.8626
N10615 X10.1887 Y-0.2224 Z6.8629
N10620 X10.1829 Y-0.2308 Z6.8631
N10625 X10.1773 Y-0.2393 Z6.8634
N10630 X10.1721 Y-0.2479 Z6.8636
N10635 X10.1671 Y-0.2568 Z6.8639
N10640 X10.1625 Y-0.2656 Z6.8641
N10645 X10.1584 Y-0.2741 Z6.8643
N10650 X10.1546 Y-0.2828 Z6.8645
N10655 X10.1511 Y-0.2912 Z6.8646
N10660 X10.1479 Y-0.2995 Z6.8648
N10665 X10.1449 Y-0.3083 Z6.8649
N10670 X10.1421 Y-0.3168 Z6.8651
N10675 X10.1398 Y-0.3247 Z6.8652
N10680 X10.1367 Y-0.3364 Z6.8653
N10685 G0 Z7.6059

N10690 M5
N10695 M9
N10700 G53 G0 Z0.
N10705 G53 G0 X0. Y0.
N10710 G49
N10715 G69
N10720 G0 A0. C0.
N10725 M99
