O0050 (EMTSERIALSUB-00000)

(PROGRAM CREATED FOR MAZAK VARIAXIS-I700 5-AXIS MILL ONLY)

(PROVEN BY: )
(PROVEN ON: )

(QC ACCEPTED BY: )
(QC ACCEPTED ON: )

(T50 D=0.125 CR=0. TAPER=30DEG - CHAMFER MILL)

G90 G94 G17 G49
G20
G53 G0 Z0.

(SERIAL ENGRAVE TIT)
T50 M6
S18000 M3
G90 G94 G17
G54.1 P2
G68.2 X0. Y0. Z0. I107.642 J90. K180.
G53.1 P2
M8
G0 X11.0969 Y-0.3696
G43 Z7.6059 H50
G0 Z6.9401
G1 Z6.8645 F1.
X11.0953 Y-0.3398 F3.
X11.0945 Y-0.3221 Z6.8646
X11.0942 Y-0.3087
Y-0.2939
X11.0945 Y-0.2813
X11.0953 Y-0.2629 Z6.8645
X11.0969 Y-0.2336
X11.0978 Y-0.2277
X11.0985 Y-0.2238
X11.0996 Y-0.2194
X11.101 Y-0.215 Z6.8644
X11.1026 Y-0.2107
X11.1046 Y-0.2064
X11.1067 Y-0.2023
X11.109 Y-0.1985 Z6.8643
X11.1117 Y-0.1945
X11.1147 Y-0.1905
X11.1175 Y-0.1873 Z6.8642
X11.1208 Y-0.1838
X11.1245 Y-0.1804 Z6.8641
X11.128 Y-0.1776
X11.1318 Y-0.1748 Z6.864
X11.136 Y-0.1722
X11.14 Y-0.17 Z6.8639
X11.1441 Y-0.168
X11.1483 Y-0.1662 Z6.8638
X11.1528 Y-0.1646 Z6.8637
X11.1569 Y-0.1635
X11.1613 Y-0.1626 Z6.8636
X11.165 Y-0.162
X11.1679 Y-0.1617 Z6.8635
X11.1728 Y-0.1615
X11.1756 Z6.8634
X11.1812 Y-0.1619 Z6.8633
X11.1853 Y-0.1625
X11.1908 Y-0.1637 Z6.8632
X11.1944 Y-0.1646
X11.1997 Y-0.1663 Z6.8631
X11.203 Y-0.1675 Z6.863
X11.2067 Y-0.1691
X11.2105 Y-0.1709 Z6.8629
X11.2143 Y-0.1731
X11.2179 Y-0.1754
X11.2205 Y-0.1774 Z6.8628
X11.223 Y-0.1795
X11.2257 Y-0.1821
X11.228 Y-0.1846
X11.2307 Y-0.1879 Z6.8627
X11.2335 Y-0.1917
X11.236 Y-0.1956
X11.2382 Y-0.1995
X11.2403 Y-0.2036 Z6.8626
X11.2421 Y-0.208
X11.2438 Y-0.2124
X11.2453 Y-0.2171
X11.2466 Y-0.2217
X11.248 Y-0.2274
X11.2492 Y-0.2336
X11.2502 Y-0.24 Z6.8625
X11.251 Y-0.2467
X11.2516 Y-0.2549
X11.2521 Y-0.2662
X11.2525 Y-0.2832
X11.2526 Y-0.3028
X11.2524 Y-0.3276
X11.2519 Y-0.3418
X11.2514 Y-0.3516
X11.2505 Y-0.3636
X11.2498 Y-0.3706
X11.249 Y-0.3762 Z6.8626
X11.2483 Y-0.3798
X11.2473 Y-0.3841
X11.246 Y-0.3884
X11.2445 Y-0.3925
X11.2426 Y-0.3968
X11.2404 Y-0.4011
X11.2382 Y-0.4048 Z6.8627
X11.2356 Y-0.4088
X11.2325 Y-0.4128
X11.2297 Y-0.4162
X11.2264 Y-0.4195 Z6.8628
X11.2228 Y-0.4228
X11.2191 Y-0.4258 Z6.8629
X11.2153 Y-0.4285
X11.2114 Y-0.431
X11.2072 Y-0.4333 Z6.863
X11.2031 Y-0.4353
X11.1989 Y-0.4371 Z6.8631
X11.1942 Y-0.4386 Z6.8632
X11.1899 Y-0.4398
X11.186 Y-0.4407 Z6.8633
X11.1819 Y-0.4414
X11.177 Y-0.4417 Z6.8634
X11.1732 Y-0.4418 Z6.8635
X11.1683 Y-0.4416
X11.1644 Y-0.4412 Z6.8636
X11.16 Y-0.4404
X11.1554 Y-0.4392 Z6.8637
X11.151 Y-0.4379 Z6.8638
X11.147 Y-0.4363
X11.1428 Y-0.4345 Z6.8639
X11.1389 Y-0.4326
X11.135 Y-0.4303 Z6.864
X11.1311 Y-0.4278
X11.1272 Y-0.4249 Z6.8641
X11.1236 Y-0.4219
X11.1203 Y-0.4189 Z6.8642
X11.1171 Y-0.4155
X11.1138 Y-0.4116 Z6.8643
X11.111 Y-0.4078
X11.1084 Y-0.4039
X11.106 Y-0.3999 Z6.8644
X11.1039 Y-0.3956
X11.102 Y-0.3912
X11.1004 Y-0.3869 Z6.8645
X11.0992 Y-0.3826
X11.0982 Y-0.3779
X11.0972 Y-0.3716
X11.0969 Y-0.3696
G0 Z7.3559
Z6.9401
G1 Z6.8545 F1.
X11.0953 Y-0.3398 F3.
X11.0945 Y-0.3221 Z6.8546
X11.0942 Y-0.3087
Y-0.2939
X11.0945 Y-0.2813
X11.0953 Y-0.2629 Z6.8545
X11.0969 Y-0.2336
X11.0978 Y-0.2277
X11.0985 Y-0.2238
X11.0996 Y-0.2194
X11.101 Y-0.215 Z6.8544
X11.1026 Y-0.2107
X11.1046 Y-0.2064
X11.1067 Y-0.2023
X11.109 Y-0.1985 Z6.8543
X11.1117 Y-0.1945
X11.1147 Y-0.1905
X11.1175 Y-0.1873 Z6.8542
X11.1208 Y-0.1838
X11.1245 Y-0.1804 Z6.8541
X11.128 Y-0.1776
X11.1318 Y-0.1748 Z6.854
X11.136 Y-0.1722
X11.14 Y-0.17 Z6.8539
X11.1441 Y-0.168
X11.1483 Y-0.1662 Z6.8538
X11.1528 Y-0.1646 Z6.8537
X11.1569 Y-0.1635
X11.1613 Y-0.1626 Z6.8536
X11.165 Y-0.162
X11.1679 Y-0.1617 Z6.8535
X11.1728 Y-0.1615
X11.1756 Z6.8534
X11.1812 Y-0.1619 Z6.8533
X11.1853 Y-0.1625
X11.1908 Y-0.1637 Z6.8532
X11.1944 Y-0.1646
X11.1997 Y-0.1663 Z6.8531
X11.203 Y-0.1675 Z6.853
X11.2067 Y-0.1691
X11.2105 Y-0.1709 Z6.8529
X11.2143 Y-0.1731
X11.2179 Y-0.1754
X11.2205 Y-0.1774 Z6.8528
X11.223 Y-0.1795
X11.2257 Y-0.1821
X11.228 Y-0.1846
X11.2307 Y-0.1879 Z6.8527
X11.2335 Y-0.1917
X11.236 Y-0.1956
X11.2382 Y-0.1995
X11.2403 Y-0.2036 Z6.8526
X11.2421 Y-0.208
X11.2438 Y-0.2124
X11.2453 Y-0.2171
X11.2466 Y-0.2217
X11.248 Y-0.2274
X11.2492 Y-0.2336
X11.2502 Y-0.24 Z6.8525
X11.251 Y-0.2467
X11.2516 Y-0.2549
X11.2521 Y-0.2662
X11.2525 Y-0.2832
X11.2526 Y-0.3028
X11.2524 Y-0.3276
X11.2519 Y-0.3418
X11.2514 Y-0.3516
X11.2505 Y-0.3636
X11.2498 Y-0.3706
X11.249 Y-0.3762 Z6.8526
X11.2483 Y-0.3798
X11.2473 Y-0.3841
X11.246 Y-0.3884
X11.2445 Y-0.3925
X11.2426 Y-0.3968
X11.2404 Y-0.4011
X11.2382 Y-0.4048 Z6.8527
X11.2356 Y-0.4088
X11.2325 Y-0.4128
X11.2297 Y-0.4162
X11.2264 Y-0.4195 Z6.8528
X11.2228 Y-0.4228
X11.2191 Y-0.4258 Z6.8529
X11.2153 Y-0.4285
X11.2114 Y-0.431
X11.2072 Y-0.4333 Z6.853
X11.2031 Y-0.4353
X11.1989 Y-0.4371 Z6.8531
X11.1942 Y-0.4386 Z6.8532
X11.1899 Y-0.4398
X11.186 Y-0.4407 Z6.8533
X11.1819 Y-0.4414
X11.177 Y-0.4417 Z6.8534
X11.1732 Y-0.4418 Z6.8535
X11.1683 Y-0.4416
X11.1644 Y-0.4412 Z6.8536
X11.16 Y-0.4404
X11.1554 Y-0.4392 Z6.8537
X11.151 Y-0.4379 Z6.8538
X11.147 Y-0.4363
X11.1428 Y-0.4345 Z6.8539
X11.1389 Y-0.4326
X11.135 Y-0.4303 Z6.854
X11.1311 Y-0.4278
X11.1272 Y-0.4249 Z6.8541
X11.1236 Y-0.4219
X11.1203 Y-0.4189 Z6.8542
X11.1171 Y-0.4155
X11.1138 Y-0.4116 Z6.8543
X11.111 Y-0.4078
X11.1084 Y-0.4039
X11.106 Y-0.3999 Z6.8544
X11.1039 Y-0.3956
X11.102 Y-0.3912
X11.1004 Y-0.3869 Z6.8545
X11.0992 Y-0.3826
X11.0982 Y-0.3779
X11.0972 Y-0.3716
X11.0969 Y-0.3696
G0 Z7.3559
Z6.9401
G1 Z6.8445 F1.
X11.0953 Y-0.3398 F3.
X11.0945 Y-0.3221 Z6.8446
X11.0942 Y-0.3087
Y-0.2939
X11.0945 Y-0.2813
X11.0953 Y-0.2629 Z6.8445
X11.0969 Y-0.2336
X11.0978 Y-0.2277
X11.0985 Y-0.2238
X11.0996 Y-0.2194
X11.101 Y-0.215 Z6.8444
X11.1026 Y-0.2107
X11.1046 Y-0.2064
X11.1067 Y-0.2023
X11.109 Y-0.1985 Z6.8443
X11.1117 Y-0.1945
X11.1147 Y-0.1905
X11.1175 Y-0.1873 Z6.8442
X11.1208 Y-0.1838
X11.1245 Y-0.1804 Z6.8441
X11.128 Y-0.1776
X11.1318 Y-0.1748 Z6.844
X11.136 Y-0.1722
X11.14 Y-0.17 Z6.8439
X11.1441 Y-0.168
X11.1483 Y-0.1662 Z6.8438
X11.1528 Y-0.1646 Z6.8437
X11.1569 Y-0.1635
X11.1613 Y-0.1626 Z6.8436
X11.165 Y-0.162
X11.1679 Y-0.1617 Z6.8435
X11.1728 Y-0.1615
X11.1756 Z6.8434
X11.1812 Y-0.1619 Z6.8433
X11.1853 Y-0.1625
X11.1908 Y-0.1637 Z6.8432
X11.1944 Y-0.1646
X11.1997 Y-0.1663 Z6.8431
X11.203 Y-0.1675 Z6.843
X11.2067 Y-0.1691
X11.2105 Y-0.1709 Z6.8429
X11.2143 Y-0.1731
X11.2179 Y-0.1754
X11.2205 Y-0.1774 Z6.8428
X11.223 Y-0.1795
X11.2257 Y-0.1821
X11.228 Y-0.1846
X11.2307 Y-0.1879 Z6.8427
X11.2335 Y-0.1917
X11.236 Y-0.1956
X11.2382 Y-0.1995
X11.2403 Y-0.2036 Z6.8426
X11.2421 Y-0.208
X11.2438 Y-0.2124
X11.2453 Y-0.2171
X11.2466 Y-0.2217
X11.248 Y-0.2274
X11.2492 Y-0.2336
X11.2502 Y-0.24 Z6.8425
X11.251 Y-0.2467
X11.2516 Y-0.2549
X11.2521 Y-0.2662
X11.2525 Y-0.2832
X11.2526 Y-0.3028
X11.2524 Y-0.3276
X11.2519 Y-0.3418
X11.2514 Y-0.3516
X11.2505 Y-0.3636
X11.2498 Y-0.3706
X11.249 Y-0.3762 Z6.8426
X11.2483 Y-0.3798
X11.2473 Y-0.3841
X11.246 Y-0.3884
X11.2445 Y-0.3925
X11.2426 Y-0.3968
X11.2404 Y-0.4011
X11.2382 Y-0.4048 Z6.8427
X11.2356 Y-0.4088
X11.2325 Y-0.4128
X11.2297 Y-0.4162
X11.2264 Y-0.4195 Z6.8428
X11.2228 Y-0.4228
X11.2191 Y-0.4258 Z6.8429
X11.2153 Y-0.4285
X11.2114 Y-0.431
X11.2072 Y-0.4333 Z6.843
X11.2031 Y-0.4353
X11.1989 Y-0.4371 Z6.8431
X11.1942 Y-0.4386 Z6.8432
X11.1899 Y-0.4398
X11.186 Y-0.4407 Z6.8433
X11.1819 Y-0.4414
X11.177 Y-0.4417 Z6.8434
X11.1732 Y-0.4418 Z6.8435
X11.1683 Y-0.4416
X11.1644 Y-0.4412 Z6.8436
X11.16 Y-0.4404
X11.1554 Y-0.4392 Z6.8437
X11.151 Y-0.4379 Z6.8438
X11.147 Y-0.4363
X11.1428 Y-0.4345 Z6.8439
X11.1389 Y-0.4326
X11.135 Y-0.4303 Z6.844
X11.1311 Y-0.4278
X11.1272 Y-0.4249 Z6.8441
X11.1236 Y-0.4219
X11.1203 Y-0.4189 Z6.8442
X11.1171 Y-0.4155
X11.1138 Y-0.4116 Z6.8443
X11.111 Y-0.4078
X11.1084 Y-0.4039
X11.106 Y-0.3999 Z6.8444
X11.1039 Y-0.3956
X11.102 Y-0.3912
X11.1004 Y-0.3869 Z6.8445
X11.0992 Y-0.3826
X11.0982 Y-0.3779
X11.0972 Y-0.3716
X11.0969 Y-0.3696
G0 Z7.3559
Z6.9401
G1 Z6.8345 F1.
X11.0953 Y-0.3398 F3.
X11.0945 Y-0.3221 Z6.8346
X11.0942 Y-0.3087
Y-0.2939
X11.0945 Y-0.2813
X11.0953 Y-0.2629 Z6.8345
X11.0969 Y-0.2336
X11.0978 Y-0.2277
X11.0985 Y-0.2238
X11.0996 Y-0.2194
X11.101 Y-0.215 Z6.8344
X11.1026 Y-0.2107
X11.1046 Y-0.2064
X11.1067 Y-0.2023
X11.109 Y-0.1985 Z6.8343
X11.1117 Y-0.1945
X11.1147 Y-0.1905
X11.1175 Y-0.1873 Z6.8342
X11.1208 Y-0.1838
X11.1245 Y-0.1804 Z6.8341
X11.128 Y-0.1776
X11.1318 Y-0.1748 Z6.834
X11.136 Y-0.1722
X11.14 Y-0.17 Z6.8339
X11.1441 Y-0.168
X11.1483 Y-0.1662 Z6.8338
X11.1528 Y-0.1646 Z6.8337
X11.1569 Y-0.1635
X11.1613 Y-0.1626 Z6.8336
X11.165 Y-0.162
X11.1679 Y-0.1617 Z6.8335
X11.1728 Y-0.1615
X11.1756 Z6.8334
X11.1812 Y-0.1619 Z6.8333
X11.1853 Y-0.1625
X11.1908 Y-0.1637 Z6.8332
X11.1944 Y-0.1646
X11.1997 Y-0.1663 Z6.8331
X11.203 Y-0.1675 Z6.833
X11.2067 Y-0.1691
X11.2105 Y-0.1709 Z6.8329
X11.2143 Y-0.1731
X11.2179 Y-0.1754
X11.2205 Y-0.1774 Z6.8328
X11.223 Y-0.1795
X11.2257 Y-0.1821
X11.228 Y-0.1846
X11.2307 Y-0.1879 Z6.8327
X11.2335 Y-0.1917
X11.236 Y-0.1956
X11.2382 Y-0.1995
X11.2403 Y-0.2036 Z6.8326
X11.2421 Y-0.208
X11.2438 Y-0.2124
X11.2453 Y-0.2171
X11.2466 Y-0.2217
X11.248 Y-0.2274
X11.2492 Y-0.2336
X11.2502 Y-0.24 Z6.8325
X11.251 Y-0.2467
X11.2516 Y-0.2549
X11.2521 Y-0.2662
X11.2525 Y-0.2832
X11.2526 Y-0.3028
X11.2524 Y-0.3276
X11.2519 Y-0.3418
X11.2514 Y-0.3516
X11.2505 Y-0.3636
X11.2498 Y-0.3706
X11.249 Y-0.3762 Z6.8326
X11.2483 Y-0.3798
X11.2473 Y-0.3841
X11.246 Y-0.3884
X11.2445 Y-0.3925
X11.2426 Y-0.3968
X11.2404 Y-0.4011
X11.2382 Y-0.4048 Z6.8327
X11.2356 Y-0.4088
X11.2325 Y-0.4128
X11.2297 Y-0.4162
X11.2264 Y-0.4195 Z6.8328
X11.2228 Y-0.4228
X11.2191 Y-0.4258 Z6.8329
X11.2153 Y-0.4285
X11.2114 Y-0.431
X11.2072 Y-0.4333 Z6.833
X11.2031 Y-0.4353
X11.1989 Y-0.4371 Z6.8331
X11.1942 Y-0.4386 Z6.8332
X11.1899 Y-0.4398
X11.186 Y-0.4407 Z6.8333
X11.1819 Y-0.4414
X11.177 Y-0.4417 Z6.8334
X11.1732 Y-0.4418 Z6.8335
X11.1683 Y-0.4416
X11.1644 Y-0.4412 Z6.8336
X11.16 Y-0.4404
X11.1554 Y-0.4392 Z6.8337
X11.151 Y-0.4379 Z6.8338
X11.147 Y-0.4363
X11.1428 Y-0.4345 Z6.8339
X11.1389 Y-0.4326
X11.135 Y-0.4303 Z6.834
X11.1311 Y-0.4278
X11.1272 Y-0.4249 Z6.8341
X11.1236 Y-0.4219
X11.1203 Y-0.4189 Z6.8342
X11.1171 Y-0.4155
X11.1138 Y-0.4116 Z6.8343
X11.111 Y-0.4078
X11.1084 Y-0.4039
X11.106 Y-0.3999 Z6.8344
X11.1039 Y-0.3956
X11.102 Y-0.3912
X11.1004 Y-0.3869 Z6.8345
X11.0992 Y-0.3826
X11.0982 Y-0.3779
X11.0972 Y-0.3716
X11.0969 Y-0.3696
G0 Z7.3559
X10.931 Y-0.3565
Z6.9434
G1 Z6.8676 F1.
X10.9305 Y-0.3636 Z6.8677 F3.
X10.9298 Y-0.3706
X10.929 Y-0.3762
X10.9283 Y-0.3798
X10.9273 Y-0.3841
X10.926 Y-0.3884
X10.9245 Y-0.3925 Z6.8678
X10.9226 Y-0.3968
X10.9204 Y-0.4011 Z6.8679
X10.9182 Y-0.4048
X10.9156 Y-0.4088 Z6.868
X10.9125 Y-0.4128
X10.9096 Y-0.4162 Z6.8681
X10.9064 Y-0.4195 Z6.8682
X10.9028 Y-0.4228
X10.8991 Y-0.4258 Z6.8683
X10.8953 Y-0.4285 Z6.8684
X10.8913 Y-0.431 Z6.8685
X10.8872 Y-0.4333 Z6.8686
X10.883 Y-0.4353 Z6.8687
X10.8789 Y-0.4371 Z6.8688
X10.8743 Y-0.4386 Z6.8689
X10.8699 Y-0.4398 Z6.869
X10.866 Y-0.4407 Z6.8691
X10.8618 Y-0.4414 Z6.8692
X10.857 Y-0.4417 Z6.8693
X10.8532 Y-0.4418 Z6.8694
X10.8483 Y-0.4416 Z6.8695
X10.8443 Y-0.4412 Z6.8696
X10.84 Y-0.4404 Z6.8697
X10.8354 Y-0.4392 Z6.8698
X10.831 Y-0.4379 Z6.87
X10.8269 Y-0.4363 Z6.8701
X10.8228 Y-0.4345 Z6.8702
X10.8189 Y-0.4326 Z6.8703
X10.815 Y-0.4304
X10.811 Y-0.4278 Z6.8704
X10.8072 Y-0.4249 Z6.8705
X10.8035 Y-0.4219 Z6.8706
X10.8003 Y-0.419 Z6.8707
X10.797 Y-0.4155 Z6.8708
X10.7938 Y-0.4117 Z6.8709
X10.7909 Y-0.4078
X10.7884 Y-0.4039 Z6.871
X10.786 Y-0.3999 Z6.8711
X10.7838 Y-0.3956
X10.7819 Y-0.3912 Z6.8712
X10.7804 Y-0.387
X10.7791 Y-0.3826
X10.7781 Y-0.378 Z6.8713
X10.7772 Y-0.3717
X10.7769 Y-0.3696
X10.7752 Y-0.3396
X10.7744 Y-0.3221 Z6.8714
X10.7742 Y-0.3087
Y-0.2941
X10.7744 Y-0.2814
X10.7752 Y-0.2631 Z6.8713
X10.7769 Y-0.2336
X10.7778 Y-0.2277
X10.7785 Y-0.2238
X10.7796 Y-0.2194 Z6.8712
X10.781 Y-0.215
X10.7826 Y-0.2108
X10.7845 Y-0.2065 Z6.8711
X10.7867 Y-0.2023
X10.7889 Y-0.1985 Z6.871
X10.7917 Y-0.1945 Z6.8709
X10.7946 Y-0.1906
X10.7974 Y-0.1873 Z6.8708
X10.8008 Y-0.1838 Z6.8707
X10.8045 Y-0.1804 Z6.8706
X10.8079 Y-0.1776 Z6.8705
X10.8118 Y-0.1748 Z6.8704
X10.816 Y-0.1722 Z6.8703
X10.8199 Y-0.17 Z6.8702
X10.824 Y-0.168 Z6.8701
X10.8283 Y-0.1662 Z6.87
X10.8327 Y-0.1647 Z6.8699
X10.8368 Y-0.1635 Z6.8698
X10.8411 Y-0.1626 Z6.8697
X10.8446 Y-0.162 Z6.8696
X10.8475 Y-0.1617 Z6.8695
X10.8523 Y-0.1615 Z6.8694
X10.8548
X10.8611 Y-0.1619 Z6.8692
X10.8653 Y-0.1625 Z6.8691
X10.8707 Y-0.1637 Z6.869
X10.8743 Y-0.1646 Z6.8689
X10.8795 Y-0.1662 Z6.8687
X10.883 Y-0.1675
X10.8867 Y-0.1691 Z6.8686
X10.8905 Y-0.1709 Z6.8685
X10.8943 Y-0.1731 Z6.8684
X10.8978 Y-0.1754 Z6.8683
X10.9004 Y-0.1773
X10.9029 Y-0.1795 Z6.8682
X10.9056 Y-0.182
X10.9079 Y-0.1845 Z6.8681
X10.9106 Y-0.1878
X10.9134 Y-0.1917 Z6.868
X10.9159 Y-0.1955
X10.9181 Y-0.1995 Z6.8679
X10.9202 Y-0.2036
X10.9221 Y-0.2079 Z6.8678
X10.9238 Y-0.2124
X10.9253 Y-0.2171
X10.9266 Y-0.2217 Z6.8677
X10.9279 Y-0.2273
X10.9292 Y-0.2336
X10.9302 Y-0.24
X10.9309 Y-0.2467 Z6.8676
X10.9315 Y-0.2549
X10.9321 Y-0.2662
X10.9324 Y-0.2831
X10.9326 Y-0.3028
X10.9323 Y-0.3276
X10.9319 Y-0.3418
X10.9314 Y-0.3516
X10.931 Y-0.3565
G0 Z7.3559
Z6.9434
G1 Z6.8576 F1.
X10.9305 Y-0.3636 Z6.8577 F3.
X10.9298 Y-0.3706
X10.929 Y-0.3762
X10.9283 Y-0.3798
X10.9273 Y-0.3841
X10.926 Y-0.3884
X10.9245 Y-0.3925 Z6.8578
X10.9226 Y-0.3968
X10.9204 Y-0.4011 Z6.8579
X10.9182 Y-0.4048
X10.9156 Y-0.4088 Z6.858
X10.9125 Y-0.4128
X10.9096 Y-0.4162 Z6.8581
X10.9064 Y-0.4195 Z6.8582
X10.9028 Y-0.4228
X10.8991 Y-0.4258 Z6.8583
X10.8953 Y-0.4285 Z6.8584
X10.8913 Y-0.431 Z6.8585
X10.8872 Y-0.4333 Z6.8586
X10.883 Y-0.4353 Z6.8587
X10.8789 Y-0.4371 Z6.8588
X10.8743 Y-0.4386 Z6.8589
X10.8699 Y-0.4398 Z6.859
X10.866 Y-0.4407 Z6.8591
X10.8618 Y-0.4414 Z6.8592
X10.857 Y-0.4417 Z6.8593
X10.8532 Y-0.4418 Z6.8594
X10.8483 Y-0.4416 Z6.8595
X10.8443 Y-0.4412 Z6.8596
X10.84 Y-0.4404 Z6.8597
X10.8354 Y-0.4392 Z6.8598
X10.831 Y-0.4379 Z6.86
X10.8269 Y-0.4363 Z6.8601
X10.8228 Y-0.4345 Z6.8602
X10.8189 Y-0.4326 Z6.8603
X10.815 Y-0.4304
X10.811 Y-0.4278 Z6.8604
X10.8072 Y-0.4249 Z6.8605
X10.8035 Y-0.4219 Z6.8606
X10.8003 Y-0.419 Z6.8607
X10.797 Y-0.4155 Z6.8608
X10.7938 Y-0.4117 Z6.8609
X10.7909 Y-0.4078
X10.7884 Y-0.4039 Z6.861
X10.786 Y-0.3999 Z6.8611
X10.7838 Y-0.3956
X10.7819 Y-0.3912 Z6.8612
X10.7804 Y-0.387
X10.7791 Y-0.3826
X10.7781 Y-0.378 Z6.8613
X10.7772 Y-0.3717
X10.7769 Y-0.3696
X10.7752 Y-0.3396
X10.7744 Y-0.3221 Z6.8614
X10.7742 Y-0.3087
Y-0.2941
X10.7744 Y-0.2814
X10.7752 Y-0.2631 Z6.8613
X10.7769 Y-0.2336
X10.7778 Y-0.2277
X10.7785 Y-0.2238
X10.7796 Y-0.2194 Z6.8612
X10.781 Y-0.215
X10.7826 Y-0.2108
X10.7845 Y-0.2065 Z6.8611
X10.7867 Y-0.2023
X10.7889 Y-0.1985 Z6.861
X10.7917 Y-0.1945 Z6.8609
X10.7946 Y-0.1906
X10.7974 Y-0.1873 Z6.8608
X10.8008 Y-0.1838 Z6.8607
X10.8045 Y-0.1804 Z6.8606
X10.8079 Y-0.1776 Z6.8605
X10.8118 Y-0.1748 Z6.8604
X10.816 Y-0.1722 Z6.8603
X10.8199 Y-0.17 Z6.8602
X10.824 Y-0.168 Z6.8601
X10.8283 Y-0.1662 Z6.86
X10.8327 Y-0.1647 Z6.8599
X10.8368 Y-0.1635 Z6.8598
X10.8411 Y-0.1626 Z6.8597
X10.8446 Y-0.162 Z6.8596
X10.8475 Y-0.1617 Z6.8595
X10.8523 Y-0.1615 Z6.8594
X10.8548
X10.8611 Y-0.1619 Z6.8592
X10.8653 Y-0.1625 Z6.8591
X10.8707 Y-0.1637 Z6.859
X10.8743 Y-0.1646 Z6.8589
X10.8795 Y-0.1662 Z6.8587
X10.883 Y-0.1675
X10.8867 Y-0.1691 Z6.8586
X10.8905 Y-0.1709 Z6.8585
X10.8943 Y-0.1731 Z6.8584
X10.8978 Y-0.1754 Z6.8583
X10.9004 Y-0.1773
X10.9029 Y-0.1795 Z6.8582
X10.9056 Y-0.182
X10.9079 Y-0.1845 Z6.8581
X10.9106 Y-0.1878
X10.9134 Y-0.1917 Z6.858
X10.9159 Y-0.1955
X10.9181 Y-0.1995 Z6.8579
X10.9202 Y-0.2036
X10.9221 Y-0.2079 Z6.8578
X10.9238 Y-0.2124
X10.9253 Y-0.2171
X10.9266 Y-0.2217 Z6.8577
X10.9279 Y-0.2273
X10.9292 Y-0.2336
X10.9302 Y-0.24
X10.9309 Y-0.2467 Z6.8576
X10.9315 Y-0.2549
X10.9321 Y-0.2662
X10.9324 Y-0.2831
X10.9326 Y-0.3028
X10.9323 Y-0.3276
X10.9319 Y-0.3418
X10.9314 Y-0.3516
X10.931 Y-0.3565
G0 Z7.3559
Z6.9434
G1 Z6.8476 F1.
X10.9305 Y-0.3636 Z6.8477 F3.
X10.9298 Y-0.3706
X10.929 Y-0.3762
X10.9283 Y-0.3798
X10.9273 Y-0.3841
X10.926 Y-0.3884
X10.9245 Y-0.3925 Z6.8478
X10.9226 Y-0.3968
X10.9204 Y-0.4011 Z6.8479
X10.9182 Y-0.4048
X10.9156 Y-0.4088 Z6.848
X10.9125 Y-0.4128
X10.9096 Y-0.4162 Z6.8481
X10.9064 Y-0.4195 Z6.8482
X10.9028 Y-0.4228
X10.8991 Y-0.4258 Z6.8483
X10.8953 Y-0.4285 Z6.8484
X10.8913 Y-0.431 Z6.8485
X10.8872 Y-0.4333 Z6.8486
X10.883 Y-0.4353 Z6.8487
X10.8789 Y-0.4371 Z6.8488
X10.8743 Y-0.4386 Z6.8489
X10.8699 Y-0.4398 Z6.849
X10.866 Y-0.4407 Z6.8491
X10.8618 Y-0.4414 Z6.8492
X10.857 Y-0.4417 Z6.8493
X10.8532 Y-0.4418 Z6.8494
X10.8483 Y-0.4416 Z6.8495
X10.8443 Y-0.4412 Z6.8496
X10.84 Y-0.4404 Z6.8497
X10.8354 Y-0.4392 Z6.8498
X10.831 Y-0.4379 Z6.85
X10.8269 Y-0.4363 Z6.8501
X10.8228 Y-0.4345 Z6.8502
X10.8189 Y-0.4326 Z6.8503
X10.815 Y-0.4304
X10.811 Y-0.4278 Z6.8504
X10.8072 Y-0.4249 Z6.8505
X10.8035 Y-0.4219 Z6.8506
X10.8003 Y-0.419 Z6.8507
X10.797 Y-0.4155 Z6.8508
X10.7938 Y-0.4117 Z6.8509
X10.7909 Y-0.4078
X10.7884 Y-0.4039 Z6.851
X10.786 Y-0.3999 Z6.8511
X10.7838 Y-0.3956
X10.7819 Y-0.3912 Z6.8512
X10.7804 Y-0.387
X10.7791 Y-0.3826
X10.7781 Y-0.378 Z6.8513
X10.7772 Y-0.3717
X10.7769 Y-0.3696
X10.7752 Y-0.3396
X10.7744 Y-0.3221 Z6.8514
X10.7742 Y-0.3087
Y-0.2941
X10.7744 Y-0.2814
X10.7752 Y-0.2631 Z6.8513
X10.7769 Y-0.2336
X10.7778 Y-0.2277
X10.7785 Y-0.2238
X10.7796 Y-0.2194 Z6.8512
X10.781 Y-0.215
X10.7826 Y-0.2108
X10.7845 Y-0.2065 Z6.8511
X10.7867 Y-0.2023
X10.7889 Y-0.1985 Z6.851
X10.7917 Y-0.1945 Z6.8509
X10.7946 Y-0.1906
X10.7974 Y-0.1873 Z6.8508
X10.8008 Y-0.1838 Z6.8507
X10.8045 Y-0.1804 Z6.8506
X10.8079 Y-0.1776 Z6.8505
X10.8118 Y-0.1748 Z6.8504
X10.816 Y-0.1722 Z6.8503
X10.8199 Y-0.17 Z6.8502
X10.824 Y-0.168 Z6.8501
X10.8283 Y-0.1662 Z6.85
X10.8327 Y-0.1647 Z6.8499
X10.8368 Y-0.1635 Z6.8498
X10.8411 Y-0.1626 Z6.8497
X10.8446 Y-0.162 Z6.8496
X10.8475 Y-0.1617 Z6.8495
X10.8523 Y-0.1615 Z6.8494
X10.8548
X10.8611 Y-0.1619 Z6.8492
X10.8653 Y-0.1625 Z6.8491
X10.8707 Y-0.1637 Z6.849
X10.8743 Y-0.1646 Z6.8489
X10.8795 Y-0.1662 Z6.8487
X10.883 Y-0.1675
X10.8867 Y-0.1691 Z6.8486
X10.8905 Y-0.1709 Z6.8485
X10.8943 Y-0.1731 Z6.8484
X10.8978 Y-0.1754 Z6.8483
X10.9004 Y-0.1773
X10.9029 Y-0.1795 Z6.8482
X10.9056 Y-0.182
X10.9079 Y-0.1845 Z6.8481
X10.9106 Y-0.1878
X10.9134 Y-0.1917 Z6.848
X10.9159 Y-0.1955
X10.9181 Y-0.1995 Z6.8479
X10.9202 Y-0.2036
X10.9221 Y-0.2079 Z6.8478
X10.9238 Y-0.2124
X10.9253 Y-0.2171
X10.9266 Y-0.2217 Z6.8477
X10.9279 Y-0.2273
X10.9292 Y-0.2336
X10.9302 Y-0.24
X10.9309 Y-0.2467 Z6.8476
X10.9315 Y-0.2549
X10.9321 Y-0.2662
X10.9324 Y-0.2831
X10.9326 Y-0.3028
X10.9323 Y-0.3276
X10.9319 Y-0.3418
X10.9314 Y-0.3516
X10.931 Y-0.3565
G0 Z7.3559
Z6.9434
G1 Z6.8376 F1.
X10.9305 Y-0.3636 Z6.8377 F3.
X10.9298 Y-0.3706
X10.929 Y-0.3762
X10.9283 Y-0.3798
X10.9273 Y-0.3841
X10.926 Y-0.3884
X10.9245 Y-0.3925 Z6.8378
X10.9226 Y-0.3968
X10.9204 Y-0.4011 Z6.8379
X10.9182 Y-0.4048
X10.9156 Y-0.4088 Z6.838
X10.9125 Y-0.4128
X10.9096 Y-0.4162 Z6.8381
X10.9064 Y-0.4195 Z6.8382
X10.9028 Y-0.4228
X10.8991 Y-0.4258 Z6.8383
X10.8953 Y-0.4285 Z6.8384
X10.8913 Y-0.431 Z6.8385
X10.8872 Y-0.4333 Z6.8386
X10.883 Y-0.4353 Z6.8387
X10.8789 Y-0.4371 Z6.8388
X10.8743 Y-0.4386 Z6.8389
X10.8699 Y-0.4398 Z6.839
X10.866 Y-0.4407 Z6.8391
X10.8618 Y-0.4414 Z6.8392
X10.857 Y-0.4417 Z6.8393
X10.8532 Y-0.4418 Z6.8394
X10.8483 Y-0.4416 Z6.8395
X10.8443 Y-0.4412 Z6.8396
X10.84 Y-0.4404 Z6.8397
X10.8354 Y-0.4392 Z6.8398
X10.831 Y-0.4379 Z6.84
X10.8269 Y-0.4363 Z6.8401
X10.8228 Y-0.4345 Z6.8402
X10.8189 Y-0.4326 Z6.8403
X10.815 Y-0.4304
X10.811 Y-0.4278 Z6.8404
X10.8072 Y-0.4249 Z6.8405
X10.8035 Y-0.4219 Z6.8406
X10.8003 Y-0.419 Z6.8407
X10.797 Y-0.4155 Z6.8408
X10.7938 Y-0.4117 Z6.8409
X10.7909 Y-0.4078
X10.7884 Y-0.4039 Z6.841
X10.786 Y-0.3999 Z6.8411
X10.7838 Y-0.3956
X10.7819 Y-0.3912 Z6.8412
X10.7804 Y-0.387
X10.7791 Y-0.3826
X10.7781 Y-0.378 Z6.8413
X10.7772 Y-0.3717
X10.7769 Y-0.3696
X10.7752 Y-0.3396
X10.7744 Y-0.3221 Z6.8414
X10.7742 Y-0.3087
Y-0.2941
X10.7744 Y-0.2814
X10.7752 Y-0.2631 Z6.8413
X10.7769 Y-0.2336
X10.7778 Y-0.2277
X10.7785 Y-0.2238
X10.7796 Y-0.2194 Z6.8412
X10.781 Y-0.215
X10.7826 Y-0.2108
X10.7845 Y-0.2065 Z6.8411
X10.7867 Y-0.2023
X10.7889 Y-0.1985 Z6.841
X10.7917 Y-0.1945 Z6.8409
X10.7946 Y-0.1906
X10.7974 Y-0.1873 Z6.8408
X10.8008 Y-0.1838 Z6.8407
X10.8045 Y-0.1804 Z6.8406
X10.8079 Y-0.1776 Z6.8405
X10.8118 Y-0.1748 Z6.8404
X10.816 Y-0.1722 Z6.8403
X10.8199 Y-0.17 Z6.8402
X10.824 Y-0.168 Z6.8401
X10.8283 Y-0.1662 Z6.84
X10.8327 Y-0.1647 Z6.8399
X10.8368 Y-0.1635 Z6.8398
X10.8411 Y-0.1626 Z6.8397
X10.8446 Y-0.162 Z6.8396
X10.8475 Y-0.1617 Z6.8395
X10.8523 Y-0.1615 Z6.8394
X10.8548
X10.8611 Y-0.1619 Z6.8392
X10.8653 Y-0.1625 Z6.8391
X10.8707 Y-0.1637 Z6.839
X10.8743 Y-0.1646 Z6.8389
X10.8795 Y-0.1662 Z6.8387
X10.883 Y-0.1675
X10.8867 Y-0.1691 Z6.8386
X10.8905 Y-0.1709 Z6.8385
X10.8943 Y-0.1731 Z6.8384
X10.8978 Y-0.1754 Z6.8383
X10.9004 Y-0.1773
X10.9029 Y-0.1795 Z6.8382
X10.9056 Y-0.182
X10.9079 Y-0.1845 Z6.8381
X10.9106 Y-0.1878
X10.9134 Y-0.1917 Z6.838
X10.9159 Y-0.1955
X10.9181 Y-0.1995 Z6.8379
X10.9202 Y-0.2036
X10.9221 Y-0.2079 Z6.8378
X10.9238 Y-0.2124
X10.9253 Y-0.2171
X10.9266 Y-0.2217 Z6.8377
X10.9279 Y-0.2273
X10.9292 Y-0.2336
X10.9302 Y-0.24
X10.9309 Y-0.2467 Z6.8376
X10.9315 Y-0.2549
X10.9321 Y-0.2662
X10.9324 Y-0.2831
X10.9326 Y-0.3028
X10.9323 Y-0.3276
X10.9319 Y-0.3418
X10.9314 Y-0.3516
X10.931 Y-0.3565
G0 Z7.3559
X10.6119 Y-0.3418
Z6.9523
G1 Z6.8762 F1.
X10.6114 Y-0.3516 F3.
X10.6104 Y-0.3635
X10.6097 Y-0.3706 Z6.8763
X10.6089 Y-0.3762
X10.6083 Y-0.3798
X10.6072 Y-0.3841
X10.6059 Y-0.3884 Z6.8764
X10.6044 Y-0.3925
X10.6025 Y-0.3968 Z6.8765
X10.6004 Y-0.4011 Z6.8766
X10.5982 Y-0.4048
X10.5955 Y-0.4088 Z6.8767
X10.5925 Y-0.4128 Z6.8768
X10.5896 Y-0.4162 Z6.8769
X10.5864 Y-0.4195 Z6.877
X10.5827 Y-0.4228 Z6.8771
X10.5791 Y-0.4258 Z6.8773
X10.5753 Y-0.4285 Z6.8774
X10.5713 Y-0.431 Z6.8775
X10.5672 Y-0.4333 Z6.8776
X10.563 Y-0.4353 Z6.8778
X10.5589 Y-0.437 Z6.8779
X10.5542 Y-0.4386 Z6.8781
X10.5499 Y-0.4398 Z6.8782
X10.546 Y-0.4407 Z6.8784
X10.5418 Y-0.4414 Z6.8785
X10.537 Y-0.4417 Z6.8787
X10.5331 Y-0.4418 Z6.8788
X10.5283 Y-0.4416 Z6.879
X10.5243 Y-0.4412 Z6.8791
X10.5199 Y-0.4404 Z6.8793
X10.5153 Y-0.4392 Z6.8795
X10.511 Y-0.4379 Z6.8796
X10.5069 Y-0.4364 Z6.8798
X10.5028 Y-0.4345 Z6.8799
X10.4988 Y-0.4326 Z6.8801
X10.495 Y-0.4304 Z6.8802
X10.491 Y-0.4278 Z6.8803
X10.4871 Y-0.4249 Z6.8805
X10.4835 Y-0.422 Z6.8806
X10.4803 Y-0.419 Z6.8807
X10.477 Y-0.4155 Z6.8808
X10.4738 Y-0.4117 Z6.881
X10.4709 Y-0.4078 Z6.8811
X10.4683 Y-0.4039
X10.466 Y-0.3999 Z6.8812
X10.4638 Y-0.3956 Z6.8813
X10.4619 Y-0.3912 Z6.8814
X10.4604 Y-0.387
X10.4591 Y-0.3826 Z6.8815
X10.4581 Y-0.378
X10.4571 Y-0.3718
X10.4568 Y-0.3696 Z6.8816
X10.4552 Y-0.3402
X10.4544 Y-0.3229
X10.4541 Y-0.3104 Z6.8817
Y-0.2956
X10.4544 Y-0.282 Z6.8816
X10.4552 Y-0.2633
X10.4569 Y-0.2336
X10.4577 Y-0.2277 Z6.8815
X10.4585 Y-0.2238
X10.4596 Y-0.2194
X10.4609 Y-0.215 Z6.8814
X10.4625 Y-0.2108
X10.4645 Y-0.2065 Z6.8813
X10.4666 Y-0.2024 Z6.8812
X10.4689 Y-0.1985 Z6.8811
X10.4716 Y-0.1945 Z6.881
X10.4746 Y-0.1906 Z6.8809
X10.4774 Y-0.1873 Z6.8808
X10.4807 Y-0.1838 Z6.8807
X10.4844 Y-0.1805 Z6.8806
X10.4879 Y-0.1776 Z6.8804
X10.4917 Y-0.1748 Z6.8803
X10.4959 Y-0.1722 Z6.8802
X10.4998 Y-0.17 Z6.88
X10.5039 Y-0.168 Z6.8799
X10.5082 Y-0.1662 Z6.8797
X10.5127 Y-0.1647 Z6.8796
X10.5168 Y-0.1635 Z6.8794
X10.521 Y-0.1626 Z6.8793
X10.5245 Y-0.162 Z6.8791
X10.5274 Y-0.1617 Z6.879
X10.5321 Y-0.1615 Z6.8789
X10.5346 Z6.8788
X10.541 Y-0.1619 Z6.8785
X10.5452 Y-0.1625 Z6.8784
X10.5506 Y-0.1636 Z6.8782
X10.5542 Y-0.1646 Z6.8781
X10.5595 Y-0.1662 Z6.8779
X10.5629 Y-0.1675 Z6.8778
X10.5666 Y-0.169 Z6.8777
X10.5704 Y-0.1709 Z6.8775
X10.5742 Y-0.1731 Z6.8774
X10.5777 Y-0.1754 Z6.8773
X10.5803 Y-0.1773 Z6.8772
X10.5829 Y-0.1794 Z6.8771
X10.5856 Y-0.182 Z6.877
X10.5879 Y-0.1845
X10.5906 Y-0.1878 Z6.8769
X10.5934 Y-0.1917 Z6.8768
X10.5959 Y-0.1955 Z6.8767
X10.5981 Y-0.1995 Z6.8766
X10.6002 Y-0.2036
X10.6021 Y-0.2079 Z6.8765
X10.6037 Y-0.2124
X10.6053 Y-0.2171 Z6.8764
X10.6065 Y-0.2217
X10.6079 Y-0.2273 Z6.8763
X10.6091 Y-0.2336
X10.6101 Y-0.24
X10.6109 Y-0.2467 Z6.8762
X10.6115 Y-0.2549
X10.612 Y-0.2662
X10.6124 Y-0.2831
X10.6126 Y-0.3028
X10.6123 Y-0.3276
X10.6119 Y-0.3418
G0 Z7.3559
Z6.9523
G1 Z6.8662 F1.
X10.6114 Y-0.3516 F3.
X10.6104 Y-0.3635
X10.6097 Y-0.3706 Z6.8663
X10.6089 Y-0.3762
X10.6083 Y-0.3798
X10.6072 Y-0.3841
X10.6059 Y-0.3884 Z6.8664
X10.6044 Y-0.3925
X10.6025 Y-0.3968 Z6.8665
X10.6004 Y-0.4011 Z6.8666
X10.5982 Y-0.4048
X10.5955 Y-0.4088 Z6.8667
X10.5925 Y-0.4128 Z6.8668
X10.5896 Y-0.4162 Z6.8669
X10.5864 Y-0.4195 Z6.867
X10.5827 Y-0.4228 Z6.8671
X10.5791 Y-0.4258 Z6.8673
X10.5753 Y-0.4285 Z6.8674
X10.5713 Y-0.431 Z6.8675
X10.5672 Y-0.4333 Z6.8676
X10.563 Y-0.4353 Z6.8678
X10.5589 Y-0.437 Z6.8679
X10.5542 Y-0.4386 Z6.8681
X10.5499 Y-0.4398 Z6.8682
X10.546 Y-0.4407 Z6.8684
X10.5418 Y-0.4414 Z6.8685
X10.537 Y-0.4417 Z6.8687
X10.5331 Y-0.4418 Z6.8688
X10.5283 Y-0.4416 Z6.869
X10.5243 Y-0.4412 Z6.8691
X10.5199 Y-0.4404 Z6.8693
X10.5153 Y-0.4392 Z6.8695
X10.511 Y-0.4379 Z6.8696
X10.5069 Y-0.4364 Z6.8698
X10.5028 Y-0.4345 Z6.8699
X10.4988 Y-0.4326 Z6.8701
X10.495 Y-0.4304 Z6.8702
X10.491 Y-0.4278 Z6.8703
X10.4871 Y-0.4249 Z6.8705
X10.4835 Y-0.422 Z6.8706
X10.4803 Y-0.419 Z6.8707
X10.477 Y-0.4155 Z6.8708
X10.4738 Y-0.4117 Z6.871
X10.4709 Y-0.4078 Z6.8711
X10.4683 Y-0.4039
X10.466 Y-0.3999 Z6.8712
X10.4638 Y-0.3956 Z6.8713
X10.4619 Y-0.3912 Z6.8714
X10.4604 Y-0.387
X10.4591 Y-0.3826 Z6.8715
X10.4581 Y-0.378
X10.4571 Y-0.3718
X10.4568 Y-0.3696 Z6.8716
X10.4552 Y-0.3402
X10.4544 Y-0.3229
X10.4541 Y-0.3104 Z6.8717
Y-0.2956
X10.4544 Y-0.282 Z6.8716
X10.4552 Y-0.2633
X10.4569 Y-0.2336
X10.4577 Y-0.2277 Z6.8715
X10.4585 Y-0.2238
X10.4596 Y-0.2194
X10.4609 Y-0.215 Z6.8714
X10.4625 Y-0.2108
X10.4645 Y-0.2065 Z6.8713
X10.4666 Y-0.2024 Z6.8712
X10.4689 Y-0.1985 Z6.8711
X10.4716 Y-0.1945 Z6.871
X10.4746 Y-0.1906 Z6.8709
X10.4774 Y-0.1873 Z6.8708
X10.4807 Y-0.1838 Z6.8707
X10.4844 Y-0.1805 Z6.8706
X10.4879 Y-0.1776 Z6.8704
X10.4917 Y-0.1748 Z6.8703
X10.4959 Y-0.1722 Z6.8702
X10.4998 Y-0.17 Z6.87
X10.5039 Y-0.168 Z6.8699
X10.5082 Y-0.1662 Z6.8697
X10.5127 Y-0.1647 Z6.8696
X10.5168 Y-0.1635 Z6.8694
X10.521 Y-0.1626 Z6.8693
X10.5245 Y-0.162 Z6.8691
X10.5274 Y-0.1617 Z6.869
X10.5321 Y-0.1615 Z6.8689
X10.5346 Z6.8688
X10.541 Y-0.1619 Z6.8685
X10.5452 Y-0.1625 Z6.8684
X10.5506 Y-0.1636 Z6.8682
X10.5542 Y-0.1646 Z6.8681
X10.5595 Y-0.1662 Z6.8679
X10.5629 Y-0.1675 Z6.8678
X10.5666 Y-0.169 Z6.8677
X10.5704 Y-0.1709 Z6.8675
X10.5742 Y-0.1731 Z6.8674
X10.5777 Y-0.1754 Z6.8673
X10.5803 Y-0.1773 Z6.8672
X10.5829 Y-0.1794 Z6.8671
X10.5856 Y-0.182 Z6.867
X10.5879 Y-0.1845
X10.5906 Y-0.1878 Z6.8669
X10.5934 Y-0.1917 Z6.8668
X10.5959 Y-0.1955 Z6.8667
X10.5981 Y-0.1995 Z6.8666
X10.6002 Y-0.2036
X10.6021 Y-0.2079 Z6.8665
X10.6037 Y-0.2124
X10.6053 Y-0.2171 Z6.8664
X10.6065 Y-0.2217
X10.6079 Y-0.2273 Z6.8663
X10.6091 Y-0.2336
X10.6101 Y-0.24
X10.6109 Y-0.2467 Z6.8662
X10.6115 Y-0.2549
X10.612 Y-0.2662
X10.6124 Y-0.2831
X10.6126 Y-0.3028
X10.6123 Y-0.3276
X10.6119 Y-0.3418
G0 Z7.3559
Y-0.3419
Z6.9523
G1 Z6.8562 F1.
X10.6114 Y-0.3516 F3.
X10.6104 Y-0.3635
X10.6097 Y-0.3706 Z6.8563
X10.6089 Y-0.3762
X10.6083 Y-0.3798
X10.6072 Y-0.3841
X10.6059 Y-0.3884 Z6.8564
X10.6044 Y-0.3925
X10.6025 Y-0.3968 Z6.8565
X10.6004 Y-0.4011 Z6.8566
X10.5982 Y-0.4048
X10.5955 Y-0.4088 Z6.8567
X10.5925 Y-0.4128 Z6.8568
X10.5896 Y-0.4162 Z6.8569
X10.5864 Y-0.4195 Z6.857
X10.5827 Y-0.4228 Z6.8571
X10.5791 Y-0.4258 Z6.8573
X10.5753 Y-0.4285 Z6.8574
X10.5713 Y-0.431 Z6.8575
X10.5672 Y-0.4333 Z6.8576
X10.563 Y-0.4353 Z6.8578
X10.5589 Y-0.437 Z6.8579
X10.5542 Y-0.4386 Z6.8581
X10.5499 Y-0.4398 Z6.8582
X10.546 Y-0.4407 Z6.8584
X10.5418 Y-0.4414 Z6.8585
X10.537 Y-0.4417 Z6.8587
X10.5331 Y-0.4418 Z6.8588
X10.5283 Y-0.4416 Z6.859
X10.5243 Y-0.4412 Z6.8591
X10.5199 Y-0.4404 Z6.8593
X10.5153 Y-0.4392 Z6.8595
X10.511 Y-0.4379 Z6.8596
X10.5069 Y-0.4364 Z6.8598
X10.5028 Y-0.4345 Z6.8599
X10.4988 Y-0.4326 Z6.8601
X10.495 Y-0.4304 Z6.8602
X10.491 Y-0.4278 Z6.8603
X10.4871 Y-0.4249 Z6.8605
X10.4835 Y-0.422 Z6.8606
X10.4803 Y-0.419 Z6.8607
X10.477 Y-0.4155 Z6.8608
X10.4738 Y-0.4117 Z6.861
X10.4709 Y-0.4078 Z6.8611
X10.4683 Y-0.4039
X10.466 Y-0.3999 Z6.8612
X10.4638 Y-0.3956 Z6.8613
X10.4619 Y-0.3912 Z6.8614
X10.4604 Y-0.387
X10.4591 Y-0.3826 Z6.8615
X10.4581 Y-0.378
X10.4571 Y-0.3718
X10.4568 Y-0.3696 Z6.8616
X10.4552 Y-0.3402
X10.4544 Y-0.3229
X10.4541 Y-0.3104 Z6.8617
Y-0.2956
X10.4544 Y-0.282 Z6.8616
X10.4552 Y-0.2633
X10.4569 Y-0.2336
X10.4577 Y-0.2277 Z6.8615
X10.4585 Y-0.2238
X10.4596 Y-0.2194
X10.4609 Y-0.215 Z6.8614
X10.4625 Y-0.2108
X10.4645 Y-0.2065 Z6.8613
X10.4666 Y-0.2024 Z6.8612
X10.4689 Y-0.1985 Z6.8611
X10.4716 Y-0.1945 Z6.861
X10.4746 Y-0.1906 Z6.8609
X10.4774 Y-0.1873 Z6.8608
X10.4807 Y-0.1838 Z6.8607
X10.4844 Y-0.1805 Z6.8606
X10.4879 Y-0.1776 Z6.8604
X10.4917 Y-0.1748 Z6.8603
X10.4959 Y-0.1722 Z6.8602
X10.4998 Y-0.17 Z6.86
X10.5039 Y-0.168 Z6.8599
X10.5082 Y-0.1662 Z6.8597
X10.5127 Y-0.1647 Z6.8596
X10.5168 Y-0.1635 Z6.8594
X10.521 Y-0.1626 Z6.8593
X10.5245 Y-0.162 Z6.8591
X10.5274 Y-0.1617 Z6.859
X10.5321 Y-0.1615 Z6.8589
X10.5346 Z6.8588
X10.541 Y-0.1619 Z6.8585
X10.5452 Y-0.1625 Z6.8584
X10.5506 Y-0.1636 Z6.8582
X10.5542 Y-0.1646 Z6.8581
X10.5595 Y-0.1662 Z6.8579
X10.5629 Y-0.1675 Z6.8578
X10.5666 Y-0.169 Z6.8577
X10.5704 Y-0.1709 Z6.8575
X10.5742 Y-0.1731 Z6.8574
X10.5777 Y-0.1754 Z6.8573
X10.5803 Y-0.1773 Z6.8572
X10.5829 Y-0.1794 Z6.8571
X10.5856 Y-0.182 Z6.857
X10.5879 Y-0.1845
X10.5906 Y-0.1878 Z6.8569
X10.5934 Y-0.1917 Z6.8568
X10.5959 Y-0.1955 Z6.8567
X10.5981 Y-0.1995 Z6.8566
X10.6002 Y-0.2036
X10.6021 Y-0.2079 Z6.8565
X10.6037 Y-0.2124
X10.6053 Y-0.2171 Z6.8564
X10.6065 Y-0.2217
X10.6079 Y-0.2273 Z6.8563
X10.6091 Y-0.2336
X10.6101 Y-0.24
X10.6109 Y-0.2467 Z6.8562
X10.6115 Y-0.2549
X10.612 Y-0.2662
X10.6124 Y-0.2831
X10.6126 Y-0.3028
X10.6123 Y-0.3276
X10.6119 Y-0.3418
Y-0.3419
G0 Z7.3559
Z6.9523
G1 Z6.8462 F1.
X10.6114 Y-0.3516 F3.
X10.6104 Y-0.3635
X10.6097 Y-0.3706 Z6.8463
X10.6089 Y-0.3762
X10.6083 Y-0.3798
X10.6072 Y-0.3841
X10.6059 Y-0.3884 Z6.8464
X10.6044 Y-0.3925
X10.6025 Y-0.3968 Z6.8465
X10.6004 Y-0.4011 Z6.8466
X10.5982 Y-0.4048
X10.5955 Y-0.4088 Z6.8467
X10.5925 Y-0.4128 Z6.8468
X10.5896 Y-0.4162 Z6.8469
X10.5864 Y-0.4195 Z6.847
X10.5827 Y-0.4228 Z6.8471
X10.5791 Y-0.4258 Z6.8473
X10.5753 Y-0.4285 Z6.8474
X10.5713 Y-0.431 Z6.8475
X10.5672 Y-0.4333 Z6.8476
X10.563 Y-0.4353 Z6.8478
X10.5589 Y-0.437 Z6.8479
X10.5542 Y-0.4386 Z6.8481
X10.5499 Y-0.4398 Z6.8482
X10.546 Y-0.4407 Z6.8484
X10.5418 Y-0.4414 Z6.8485
X10.537 Y-0.4417 Z6.8487
X10.5331 Y-0.4418 Z6.8488
X10.5283 Y-0.4416 Z6.849
X10.5243 Y-0.4412 Z6.8491
X10.5199 Y-0.4404 Z6.8493
X10.5153 Y-0.4392 Z6.8495
X10.511 Y-0.4379 Z6.8496
X10.5069 Y-0.4364 Z6.8498
X10.5028 Y-0.4345 Z6.8499
X10.4988 Y-0.4326 Z6.8501
X10.495 Y-0.4304 Z6.8502
X10.491 Y-0.4278 Z6.8503
X10.4871 Y-0.4249 Z6.8505
X10.4835 Y-0.422 Z6.8506
X10.4803 Y-0.419 Z6.8507
X10.477 Y-0.4155 Z6.8508
X10.4738 Y-0.4117 Z6.851
X10.4709 Y-0.4078 Z6.8511
X10.4683 Y-0.4039
X10.466 Y-0.3999 Z6.8512
X10.4638 Y-0.3956 Z6.8513
X10.4619 Y-0.3912 Z6.8514
X10.4604 Y-0.387
X10.4591 Y-0.3826 Z6.8515
X10.4581 Y-0.378
X10.4571 Y-0.3718
X10.4568 Y-0.3696 Z6.8516
X10.4552 Y-0.3402
X10.4544 Y-0.3229
X10.4541 Y-0.3104 Z6.8517
Y-0.2956
X10.4544 Y-0.282 Z6.8516
X10.4552 Y-0.2633
X10.4569 Y-0.2336
X10.4577 Y-0.2277 Z6.8515
X10.4585 Y-0.2238
X10.4596 Y-0.2194
X10.4609 Y-0.215 Z6.8514
X10.4625 Y-0.2108
X10.4645 Y-0.2065 Z6.8513
X10.4666 Y-0.2024 Z6.8512
X10.4689 Y-0.1985 Z6.8511
X10.4716 Y-0.1945 Z6.851
X10.4746 Y-0.1906 Z6.8509
X10.4774 Y-0.1873 Z6.8508
X10.4807 Y-0.1838 Z6.8507
X10.4844 Y-0.1805 Z6.8506
X10.4879 Y-0.1776 Z6.8504
X10.4917 Y-0.1748 Z6.8503
X10.4959 Y-0.1722 Z6.8502
X10.4998 Y-0.17 Z6.85
X10.5039 Y-0.168 Z6.8499
X10.5082 Y-0.1662 Z6.8497
X10.5127 Y-0.1647 Z6.8496
X10.5168 Y-0.1635 Z6.8494
X10.521 Y-0.1626 Z6.8493
X10.5245 Y-0.162 Z6.8491
X10.5274 Y-0.1617 Z6.849
X10.5321 Y-0.1615 Z6.8489
X10.5346 Z6.8488
X10.541 Y-0.1619 Z6.8485
X10.5452 Y-0.1625 Z6.8484
X10.5506 Y-0.1636 Z6.8482
X10.5542 Y-0.1646 Z6.8481
X10.5595 Y-0.1662 Z6.8479
X10.5629 Y-0.1675 Z6.8478
X10.5666 Y-0.169 Z6.8477
X10.5704 Y-0.1709 Z6.8475
X10.5742 Y-0.1731 Z6.8474
X10.5777 Y-0.1754 Z6.8473
X10.5803 Y-0.1773 Z6.8472
X10.5829 Y-0.1794 Z6.8471
X10.5856 Y-0.182 Z6.847
X10.5879 Y-0.1845
X10.5906 Y-0.1878 Z6.8469
X10.5934 Y-0.1917 Z6.8468
X10.5959 Y-0.1955 Z6.8467
X10.5981 Y-0.1995 Z6.8466
X10.6002 Y-0.2036
X10.6021 Y-0.2079 Z6.8465
X10.6037 Y-0.2124
X10.6053 Y-0.2171 Z6.8464
X10.6065 Y-0.2217
X10.6079 Y-0.2273 Z6.8463
X10.6091 Y-0.2336
X10.6101 Y-0.24
X10.6109 Y-0.2467 Z6.8462
X10.6115 Y-0.2549
X10.612 Y-0.2662
X10.6124 Y-0.2831
X10.6126 Y-0.3028
X10.6123 Y-0.3276
X10.6119 Y-0.3418
Y-0.3419
G0 Z7.3559
X10.2921 Y-0.3322
Z6.9648
G1 Z6.8882 F1.
X10.2918 Y-0.3418 F3.
X10.2913 Y-0.3516 Z6.8883
X10.2904 Y-0.3635
X10.2897 Y-0.3706
X10.2889 Y-0.3762 Z6.8884
X10.2882 Y-0.3798
X10.2872 Y-0.3841
X10.2859 Y-0.3884 Z6.8885
X10.2844 Y-0.3925 Z6.8886
X10.2825 Y-0.3968
X10.2803 Y-0.4011 Z6.8887
X10.2781 Y-0.4048 Z6.8888
X10.2755 Y-0.4088 Z6.889
X10.2725 Y-0.4128 Z6.8891
X10.2696 Y-0.4162 Z6.8892
X10.2664 Y-0.4195 Z6.8893
X10.2627 Y-0.4228 Z6.8895
X10.259 Y-0.4258 Z6.8897
X10.2553 Y-0.4285 Z6.8898
X10.2513 Y-0.431 Z6.89
X10.2471 Y-0.4333 Z6.8902
X10.243 Y-0.4353 Z6.8904
X10.2389 Y-0.437 Z6.8905
X10.2342 Y-0.4386 Z6.8907
X10.2299 Y-0.4398 Z6.8909
X10.226 Y-0.4407 Z6.8911
X10.2218 Y-0.4413 Z6.8913
X10.217 Y-0.4417 Z6.8915
X10.2131 Y-0.4418 Z6.8917
X10.2083 Y-0.4416 Z6.892
X10.2043 Y-0.4412 Z6.8921
X10.1999 Y-0.4404 Z6.8923
X10.1953 Y-0.4393 Z6.8926
X10.191 Y-0.4379 Z6.8928
X10.1869 Y-0.4364 Z6.893
X10.1828 Y-0.4346 Z6.8931
X10.1788 Y-0.4326 Z6.8933
X10.175 Y-0.4304 Z6.8935
X10.171 Y-0.4278 Z6.8937
X10.1671 Y-0.425 Z6.8939
X10.1635 Y-0.422 Z6.8941
X10.1602 Y-0.419 Z6.8942
X10.157 Y-0.4155 Z6.8944
X10.1538 Y-0.4117 Z6.8945
X10.1509 Y-0.4078 Z6.8946
X10.1483 Y-0.4039 Z6.8948
X10.1459 Y-0.3999 Z6.8949
X10.1438 Y-0.3956 Z6.895
X10.1419 Y-0.3912 Z6.8951
X10.1403 Y-0.387
X10.1391 Y-0.3826 Z6.8952
X10.1381 Y-0.378
X10.1371 Y-0.3718 Z6.8953
X10.1368 Y-0.3696
X10.1352 Y-0.3404 Z6.8954
X10.1344 Y-0.3233
X10.1341 Y-0.3109
Y-0.2961
X10.1343 Y-0.2822
X10.1351 Y-0.2634
X10.1368 Y-0.2336 Z6.8953
X10.1377 Y-0.2277
X10.1384 Y-0.2238 Z6.8952
X10.1395 Y-0.2194
X10.1409 Y-0.215 Z6.8951
X10.1425 Y-0.2108 Z6.895
X10.1444 Y-0.2065 Z6.8949
X10.1466 Y-0.2024 Z6.8948
X10.1488 Y-0.1986 Z6.8947
X10.1516 Y-0.1945 Z6.8946
X10.1545 Y-0.1906 Z6.8945
X10.1573 Y-0.1873 Z6.8943
X10.1607 Y-0.1838 Z6.8942
X10.1644 Y-0.1805 Z6.894
X10.1678 Y-0.1777 Z6.8939
X10.1716 Y-0.1749 Z6.8937
X10.1758 Y-0.1722 Z6.8935
X10.1798 Y-0.17 Z6.8933
X10.1839 Y-0.168 Z6.8931
X10.1881 Y-0.1662 Z6.8929
X10.1926 Y-0.1647 Z6.8927
X10.1967 Y-0.1635 Z6.8925
X10.2009 Y-0.1626 Z6.8923
X10.2043 Y-0.162 Z6.8921
X10.2072 Y-0.1617 Z6.892
X10.2119 Y-0.1615 Z6.8918
X10.2145 Z6.8917
X10.221 Y-0.1619 Z6.8914
X10.2252 Y-0.1625 Z6.8912
X10.2306 Y-0.1636 Z6.8909
X10.2341 Y-0.1645 Z6.8907
X10.2393 Y-0.1662 Z6.8905
X10.2427 Y-0.1674 Z6.8904
X10.2465 Y-0.169 Z6.8902
X10.2504 Y-0.1709 Z6.89
X10.2542 Y-0.1731 Z6.8899
X10.2577 Y-0.1754 Z6.8897
X10.2603 Y-0.1773 Z6.8896
X10.2628 Y-0.1794 Z6.8895
X10.2655 Y-0.182 Z6.8894
X10.2678 Y-0.1845 Z6.8893
X10.2706 Y-0.1878 Z6.8892
X10.2733 Y-0.1917 Z6.889
X10.2758 Y-0.1955 Z6.8889
X10.2781 Y-0.1995 Z6.8888
X10.2801 Y-0.2036
X10.282 Y-0.2079 Z6.8887
X10.2837 Y-0.2124 Z6.8886
X10.2852 Y-0.2171 Z6.8885
X10.2865 Y-0.2217
X10.2878 Y-0.2273 Z6.8884
X10.2891 Y-0.2336
X10.2901 Y-0.24 Z6.8883
X10.2909 Y-0.2467
X10.2915 Y-0.2549
X10.292 Y-0.2662 Z6.8882
X10.2924 Y-0.2831
X10.2925 Y-0.3028
X10.2923 Y-0.3276
X10.2921 Y-0.3322
G0 Z7.3559
Z6.9648
G1 Z6.8782 F1.
X10.2918 Y-0.3418 F3.
X10.2913 Y-0.3516 Z6.8783
X10.2904 Y-0.3635
X10.2897 Y-0.3706
X10.2889 Y-0.3762 Z6.8784
X10.2882 Y-0.3798
X10.2872 Y-0.3841
X10.2859 Y-0.3884 Z6.8785
X10.2844 Y-0.3925 Z6.8786
X10.2825 Y-0.3968
X10.2803 Y-0.4011 Z6.8787
X10.2781 Y-0.4048 Z6.8788
X10.2755 Y-0.4088 Z6.879
X10.2725 Y-0.4128 Z6.8791
X10.2696 Y-0.4162 Z6.8792
X10.2664 Y-0.4195 Z6.8793
X10.2627 Y-0.4228 Z6.8795
X10.259 Y-0.4258 Z6.8797
X10.2553 Y-0.4285 Z6.8798
X10.2513 Y-0.431 Z6.88
X10.2471 Y-0.4333 Z6.8802
X10.243 Y-0.4353 Z6.8804
X10.2389 Y-0.437 Z6.8805
X10.2342 Y-0.4386 Z6.8807
X10.2299 Y-0.4398 Z6.8809
X10.226 Y-0.4407 Z6.8811
X10.2218 Y-0.4413 Z6.8813
X10.217 Y-0.4417 Z6.8815
X10.2131 Y-0.4418 Z6.8817
X10.2083 Y-0.4416 Z6.882
X10.2043 Y-0.4412 Z6.8821
X10.1999 Y-0.4404 Z6.8823
X10.1953 Y-0.4393 Z6.8826
X10.191 Y-0.4379 Z6.8828
X10.1869 Y-0.4364 Z6.883
X10.1828 Y-0.4346 Z6.8831
X10.1788 Y-0.4326 Z6.8833
X10.175 Y-0.4304 Z6.8835
X10.171 Y-0.4278 Z6.8837
X10.1671 Y-0.425 Z6.8839
X10.1635 Y-0.422 Z6.8841
X10.1602 Y-0.419 Z6.8842
X10.157 Y-0.4155 Z6.8844
X10.1538 Y-0.4117 Z6.8845
X10.1509 Y-0.4078 Z6.8846
X10.1483 Y-0.4039 Z6.8848
X10.1459 Y-0.3999 Z6.8849
X10.1438 Y-0.3956 Z6.885
X10.1419 Y-0.3912 Z6.8851
X10.1403 Y-0.387
X10.1391 Y-0.3826 Z6.8852
X10.1381 Y-0.378
X10.1371 Y-0.3718 Z6.8853
X10.1368 Y-0.3696
X10.1352 Y-0.3404 Z6.8854
X10.1344 Y-0.3233
X10.1341 Y-0.3109
Y-0.2961
X10.1343 Y-0.2822
X10.1351 Y-0.2634
X10.1368 Y-0.2336 Z6.8853
X10.1377 Y-0.2277
X10.1384 Y-0.2238 Z6.8852
X10.1395 Y-0.2194
X10.1409 Y-0.215 Z6.8851
X10.1425 Y-0.2108 Z6.885
X10.1444 Y-0.2065 Z6.8849
X10.1466 Y-0.2024 Z6.8848
X10.1488 Y-0.1986 Z6.8847
X10.1516 Y-0.1945 Z6.8846
X10.1545 Y-0.1906 Z6.8845
X10.1573 Y-0.1873 Z6.8843
X10.1607 Y-0.1838 Z6.8842
X10.1644 Y-0.1805 Z6.884
X10.1678 Y-0.1777 Z6.8839
X10.1716 Y-0.1749 Z6.8837
X10.1758 Y-0.1722 Z6.8835
X10.1798 Y-0.17 Z6.8833
X10.1839 Y-0.168 Z6.8831
X10.1881 Y-0.1662 Z6.8829
X10.1926 Y-0.1647 Z6.8827
X10.1967 Y-0.1635 Z6.8825
X10.2009 Y-0.1626 Z6.8823
X10.2043 Y-0.162 Z6.8821
X10.2072 Y-0.1617 Z6.882
X10.2119 Y-0.1615 Z6.8818
X10.2145 Z6.8817
X10.221 Y-0.1619 Z6.8814
X10.2252 Y-0.1625 Z6.8812
X10.2306 Y-0.1636 Z6.8809
X10.2341 Y-0.1645 Z6.8807
X10.2393 Y-0.1662 Z6.8805
X10.2427 Y-0.1674 Z6.8804
X10.2465 Y-0.169 Z6.8802
X10.2504 Y-0.1709 Z6.88
X10.2542 Y-0.1731 Z6.8799
X10.2577 Y-0.1754 Z6.8797
X10.2603 Y-0.1773 Z6.8796
X10.2628 Y-0.1794 Z6.8795
X10.2655 Y-0.182 Z6.8794
X10.2678 Y-0.1845 Z6.8793
X10.2706 Y-0.1878 Z6.8792
X10.2733 Y-0.1917 Z6.879
X10.2758 Y-0.1955 Z6.8789
X10.2781 Y-0.1995 Z6.8788
X10.2801 Y-0.2036
X10.282 Y-0.2079 Z6.8787
X10.2837 Y-0.2124 Z6.8786
X10.2852 Y-0.2171 Z6.8785
X10.2865 Y-0.2217
X10.2878 Y-0.2273 Z6.8784
X10.2891 Y-0.2336
X10.2901 Y-0.24 Z6.8783
X10.2909 Y-0.2467
X10.2915 Y-0.2549
X10.292 Y-0.2662 Z6.8782
X10.2924 Y-0.2831
X10.2925 Y-0.3028
X10.2923 Y-0.3276
X10.2921 Y-0.3322
G0 Z7.3559
Z6.9648
G1 Z6.8682 F1.
X10.2918 Y-0.3418 F3.
X10.2913 Y-0.3516 Z6.8683
X10.2904 Y-0.3635
X10.2897 Y-0.3706
X10.2889 Y-0.3762 Z6.8684
X10.2882 Y-0.3798
X10.2872 Y-0.3841
X10.2859 Y-0.3884 Z6.8685
X10.2844 Y-0.3925 Z6.8686
X10.2825 Y-0.3968
X10.2803 Y-0.4011 Z6.8687
X10.2781 Y-0.4048 Z6.8688
X10.2755 Y-0.4088 Z6.869
X10.2725 Y-0.4128 Z6.8691
X10.2696 Y-0.4162 Z6.8692
X10.2664 Y-0.4195 Z6.8693
X10.2627 Y-0.4228 Z6.8695
X10.259 Y-0.4258 Z6.8697
X10.2553 Y-0.4285 Z6.8698
X10.2513 Y-0.431 Z6.87
X10.2471 Y-0.4333 Z6.8702
X10.243 Y-0.4353 Z6.8704
X10.2389 Y-0.437 Z6.8705
X10.2342 Y-0.4386 Z6.8707
X10.2299 Y-0.4398 Z6.8709
X10.226 Y-0.4407 Z6.8711
X10.2218 Y-0.4413 Z6.8713
X10.217 Y-0.4417 Z6.8715
X10.2131 Y-0.4418 Z6.8717
X10.2083 Y-0.4416 Z6.872
X10.2043 Y-0.4412 Z6.8721
X10.1999 Y-0.4404 Z6.8723
X10.1953 Y-0.4393 Z6.8726
X10.191 Y-0.4379 Z6.8728
X10.1869 Y-0.4364 Z6.873
X10.1828 Y-0.4346 Z6.8731
X10.1788 Y-0.4326 Z6.8733
X10.175 Y-0.4304 Z6.8735
X10.171 Y-0.4278 Z6.8737
X10.1671 Y-0.425 Z6.8739
X10.1635 Y-0.422 Z6.8741
X10.1602 Y-0.419 Z6.8742
X10.157 Y-0.4155 Z6.8744
X10.1538 Y-0.4117 Z6.8745
X10.1509 Y-0.4078 Z6.8746
X10.1483 Y-0.4039 Z6.8748
X10.1459 Y-0.3999 Z6.8749
X10.1438 Y-0.3956 Z6.875
X10.1419 Y-0.3912 Z6.8751
X10.1403 Y-0.387
X10.1391 Y-0.3826 Z6.8752
X10.1381 Y-0.378
X10.1371 Y-0.3718 Z6.8753
X10.1368 Y-0.3696
X10.1352 Y-0.3404 Z6.8754
X10.1344 Y-0.3233
X10.1341 Y-0.3109
Y-0.2961
X10.1343 Y-0.2822
X10.1351 Y-0.2634
X10.1368 Y-0.2336 Z6.8753
X10.1377 Y-0.2277
X10.1384 Y-0.2238 Z6.8752
X10.1395 Y-0.2194
X10.1409 Y-0.215 Z6.8751
X10.1425 Y-0.2108 Z6.875
X10.1444 Y-0.2065 Z6.8749
X10.1466 Y-0.2024 Z6.8748
X10.1488 Y-0.1986 Z6.8747
X10.1516 Y-0.1945 Z6.8746
X10.1545 Y-0.1906 Z6.8745
X10.1573 Y-0.1873 Z6.8743
X10.1607 Y-0.1838 Z6.8742
X10.1644 Y-0.1805 Z6.874
X10.1678 Y-0.1777 Z6.8739
X10.1716 Y-0.1749 Z6.8737
X10.1758 Y-0.1722 Z6.8735
X10.1798 Y-0.17 Z6.8733
X10.1839 Y-0.168 Z6.8731
X10.1881 Y-0.1662 Z6.8729
X10.1926 Y-0.1647 Z6.8727
X10.1967 Y-0.1635 Z6.8725
X10.2009 Y-0.1626 Z6.8723
X10.2043 Y-0.162 Z6.8721
X10.2072 Y-0.1617 Z6.872
X10.2119 Y-0.1615 Z6.8718
X10.2145 Z6.8717
X10.221 Y-0.1619 Z6.8714
X10.2252 Y-0.1625 Z6.8712
X10.2306 Y-0.1636 Z6.8709
X10.2341 Y-0.1645 Z6.8707
X10.2393 Y-0.1662 Z6.8705
X10.2427 Y-0.1674 Z6.8704
X10.2465 Y-0.169 Z6.8702
X10.2504 Y-0.1709 Z6.87
X10.2542 Y-0.1731 Z6.8699
X10.2577 Y-0.1754 Z6.8697
X10.2603 Y-0.1773 Z6.8696
X10.2628 Y-0.1794 Z6.8695
X10.2655 Y-0.182 Z6.8694
X10.2678 Y-0.1845 Z6.8693
X10.2706 Y-0.1878 Z6.8692
X10.2733 Y-0.1917 Z6.869
X10.2758 Y-0.1955 Z6.8689
X10.2781 Y-0.1995 Z6.8688
X10.2801 Y-0.2036
X10.282 Y-0.2079 Z6.8687
X10.2837 Y-0.2124 Z6.8686
X10.2852 Y-0.2171 Z6.8685
X10.2865 Y-0.2217
X10.2878 Y-0.2273 Z6.8684
X10.2891 Y-0.2336
X10.2901 Y-0.24 Z6.8683
X10.2909 Y-0.2467
X10.2915 Y-0.2549
X10.292 Y-0.2662 Z6.8682
X10.2924 Y-0.2831
X10.2925 Y-0.3028
X10.2923 Y-0.3276
X10.2921 Y-0.3322
G0 Z7.3559
Y-0.3323
Z6.9648
G1 Z6.8582 F1.
X10.2918 Y-0.3418 F3.
X10.2913 Y-0.3516 Z6.8583
X10.2904 Y-0.3635
X10.2897 Y-0.3706
X10.2889 Y-0.3762 Z6.8584
X10.2882 Y-0.3798
X10.2872 Y-0.3841
X10.2859 Y-0.3884 Z6.8585
X10.2844 Y-0.3925 Z6.8586
X10.2825 Y-0.3968
X10.2803 Y-0.4011 Z6.8587
X10.2781 Y-0.4048 Z6.8588
X10.2755 Y-0.4088 Z6.859
X10.2725 Y-0.4128 Z6.8591
X10.2696 Y-0.4162 Z6.8592
X10.2664 Y-0.4195 Z6.8593
X10.2627 Y-0.4228 Z6.8595
X10.259 Y-0.4258 Z6.8597
X10.2553 Y-0.4285 Z6.8598
X10.2513 Y-0.431 Z6.86
X10.2471 Y-0.4333 Z6.8602
X10.243 Y-0.4353 Z6.8604
X10.2389 Y-0.437 Z6.8605
X10.2342 Y-0.4386 Z6.8607
X10.2299 Y-0.4398 Z6.8609
X10.226 Y-0.4407 Z6.8611
X10.2218 Y-0.4413 Z6.8613
X10.217 Y-0.4417 Z6.8615
X10.2131 Y-0.4418 Z6.8617
X10.2083 Y-0.4416 Z6.862
X10.2043 Y-0.4412 Z6.8621
X10.1999 Y-0.4404 Z6.8623
X10.1953 Y-0.4393 Z6.8626
X10.191 Y-0.4379 Z6.8628
X10.1869 Y-0.4364 Z6.863
X10.1828 Y-0.4346 Z6.8631
X10.1788 Y-0.4326 Z6.8633
X10.175 Y-0.4304 Z6.8635
X10.171 Y-0.4278 Z6.8637
X10.1671 Y-0.425 Z6.8639
X10.1635 Y-0.422 Z6.8641
X10.1602 Y-0.419 Z6.8642
X10.157 Y-0.4155 Z6.8644
X10.1538 Y-0.4117 Z6.8645
X10.1509 Y-0.4078 Z6.8646
X10.1483 Y-0.4039 Z6.8648
X10.1459 Y-0.3999 Z6.8649
X10.1438 Y-0.3956 Z6.865
X10.1419 Y-0.3912 Z6.8651
X10.1403 Y-0.387
X10.1391 Y-0.3826 Z6.8652
X10.1381 Y-0.378
X10.1371 Y-0.3718 Z6.8653
X10.1368 Y-0.3696
X10.1352 Y-0.3404 Z6.8654
X10.1344 Y-0.3233
X10.1341 Y-0.3109
Y-0.2961
X10.1343 Y-0.2822
X10.1351 Y-0.2634
X10.1368 Y-0.2336 Z6.8653
X10.1377 Y-0.2277
X10.1384 Y-0.2238 Z6.8652
X10.1395 Y-0.2194
X10.1409 Y-0.215 Z6.8651
X10.1425 Y-0.2108 Z6.865
X10.1444 Y-0.2065 Z6.8649
X10.1466 Y-0.2024 Z6.8648
X10.1488 Y-0.1986 Z6.8647
X10.1516 Y-0.1945 Z6.8646
X10.1545 Y-0.1906 Z6.8645
X10.1573 Y-0.1873 Z6.8643
X10.1607 Y-0.1838 Z6.8642
X10.1644 Y-0.1805 Z6.864
X10.1678 Y-0.1777 Z6.8639
X10.1716 Y-0.1749 Z6.8637
X10.1758 Y-0.1722 Z6.8635
X10.1798 Y-0.17 Z6.8633
X10.1839 Y-0.168 Z6.8631
X10.1881 Y-0.1662 Z6.8629
X10.1926 Y-0.1647 Z6.8627
X10.1967 Y-0.1635 Z6.8625
X10.2009 Y-0.1626 Z6.8623
X10.2043 Y-0.162 Z6.8621
X10.2072 Y-0.1617 Z6.862
X10.2119 Y-0.1615 Z6.8618
X10.2145 Z6.8617
X10.221 Y-0.1619 Z6.8614
X10.2252 Y-0.1625 Z6.8612
X10.2306 Y-0.1636 Z6.8609
X10.2341 Y-0.1645 Z6.8607
X10.2393 Y-0.1662 Z6.8605
X10.2427 Y-0.1674 Z6.8604
X10.2465 Y-0.169 Z6.8602
X10.2504 Y-0.1709 Z6.86
X10.2542 Y-0.1731 Z6.8599
X10.2577 Y-0.1754 Z6.8597
X10.2603 Y-0.1773 Z6.8596
X10.2628 Y-0.1794 Z6.8595
X10.2655 Y-0.182 Z6.8594
X10.2678 Y-0.1845 Z6.8593
X10.2706 Y-0.1878 Z6.8592
X10.2733 Y-0.1917 Z6.859
X10.2758 Y-0.1955 Z6.8589
X10.2781 Y-0.1995 Z6.8588
X10.2801 Y-0.2036
X10.282 Y-0.2079 Z6.8587
X10.2837 Y-0.2124 Z6.8586
X10.2852 Y-0.2171 Z6.8585
X10.2865 Y-0.2217
X10.2878 Y-0.2273 Z6.8584
X10.2891 Y-0.2336
X10.2901 Y-0.24 Z6.8583
X10.2909 Y-0.2467
X10.2915 Y-0.2549
X10.292 Y-0.2662 Z6.8582
X10.2924 Y-0.2831
X10.2925 Y-0.3028
X10.2923 Y-0.3276
X10.2921 Y-0.3323
G0 Z7.3559
X9.9722 Y-0.3276
Z6.9807
G1 Z6.9038 F1.
X9.9718 Y-0.3418 F3.
X9.9713 Y-0.3516
X9.9703 Y-0.3635 Z6.9039
X9.9697 Y-0.3706
X9.9689 Y-0.3762
X9.9682 Y-0.3797 Z6.904
X9.9672 Y-0.3841
X9.9659 Y-0.3884 Z6.9041
X9.9644 Y-0.3925 Z6.9042
X9.9625 Y-0.3968 Z6.9043
X9.9603 Y-0.4011 Z6.9044
X9.9581 Y-0.4048 Z6.9045
X9.9555 Y-0.4087 Z6.9047
X9.9524 Y-0.4127 Z6.9048
X9.9495 Y-0.4162 Z6.905
X9.9463 Y-0.4195 Z6.9052
X9.9427 Y-0.4228 Z6.9054
X9.939 Y-0.4258 Z6.9056
X9.9352 Y-0.4285 Z6.9058
X9.9313 Y-0.431 Z6.906
X9.9271 Y-0.4333 Z6.9062
X9.923 Y-0.4353 Z6.9064
X9.9188 Y-0.437 Z6.9067
X9.9142 Y-0.4386 Z6.9069
X9.9098 Y-0.4398 Z6.9071
X9.9059 Y-0.4407 Z6.9074
X9.9018 Y-0.4413 Z6.9076
X9.897 Y-0.4417 Z6.9079
X9.8931 Y-0.4418 Z6.9081
X9.8883 Y-0.4416 Z6.9084
X9.8843 Y-0.4412 Z6.9086
X9.8799 Y-0.4404 Z6.9089
X9.8753 Y-0.4393 Z6.9091
X9.871 Y-0.4379 Z6.9094
X9.8669 Y-0.4364 Z6.9096
X9.8627 Y-0.4346 Z6.9099
X9.8589 Y-0.4326 Z6.9101
X9.8549 Y-0.4304 Z6.9103
X9.851 Y-0.4278 Z6.9105
X9.8471 Y-0.425 Z6.9108
X9.8435 Y-0.422 Z6.911
X9.8402 Y-0.419 Z6.9112
X9.8369 Y-0.4155 Z6.9114
X9.8337 Y-0.4117 Z6.9115
X9.8309 Y-0.4078 Z6.9117
X9.8283 Y-0.4039 Z6.9119
X9.8259 Y-0.3999 Z6.912
X9.8237 Y-0.3956 Z6.9121
X9.8218 Y-0.3912 Z6.9122
X9.8203 Y-0.387 Z6.9123
X9.819 Y-0.3826 Z6.9124
X9.818 Y-0.378 Z6.9125
X9.8171 Y-0.3719
X9.8168 Y-0.3696
X9.8151 Y-0.3406 Z6.9126
X9.8144 Y-0.3237 Z6.9127
X9.8141 Y-0.3114
X9.814 Y-0.2964
X9.8143 Y-0.2823
X9.8151 Y-0.2635 Z6.9126
X9.8168 Y-0.2336 Z6.9125
X9.8176 Y-0.2278
X9.8184 Y-0.2239 Z6.9124
X9.8195 Y-0.2194
X9.8208 Y-0.215 Z6.9123
X9.8224 Y-0.2108 Z6.9122
X9.8244 Y-0.2065 Z6.9121
X9.8265 Y-0.2024 Z6.912
X9.8288 Y-0.1986 Z6.9118
X9.8315 Y-0.1945 Z6.9117
X9.8345 Y-0.1907 Z6.9115
X9.8373 Y-0.1873 Z6.9113
X9.8406 Y-0.1838 Z6.9111
X9.8443 Y-0.1805 Z6.9109
X9.8477 Y-0.1777 Z6.9107
X9.8516 Y-0.1749 Z6.9105
X9.8558 Y-0.1722 Z6.9103
X9.8597 Y-0.17 Z6.91
X9.8638 Y-0.168 Z6.9098
X9.8681 Y-0.1662 Z6.9096
X9.8725 Y-0.1647 Z6.9093
X9.8766 Y-0.1635 Z6.9091
X9.8808 Y-0.1626 Z6.9088
X9.8842 Y-0.1621 Z6.9086
X9.8871 Y-0.1617 Z6.9085
X9.8918 Y-0.1615 Z6.9082
X9.8944 Z6.908
X9.9009 Y-0.1619 Z6.9077
X9.9051 Y-0.1625 Z6.9074
X9.9105 Y-0.1636 Z6.9071
X9.9141 Y-0.1645 Z6.9069
X9.9193 Y-0.1662 Z6.9066
X9.9227 Y-0.1674 Z6.9064
X9.9265 Y-0.169 Z6.9062
X9.9303 Y-0.1709 Z6.906
X9.9341 Y-0.1731 Z6.9058
X9.9376 Y-0.1753 Z6.9056
X9.9402 Y-0.1773 Z6.9055
X9.9427 Y-0.1794 Z6.9054
X9.9454 Y-0.182 Z6.9052
X9.9478 Y-0.1845 Z6.9051
X9.9505 Y-0.1878 Z6.9049
X9.9533 Y-0.1916 Z6.9048
X9.9558 Y-0.1955 Z6.9046
X9.958 Y-0.1995 Z6.9045
X9.9601 Y-0.2036 Z6.9044
X9.962 Y-0.2079 Z6.9043
X9.9636 Y-0.2123 Z6.9042
X9.9652 Y-0.217 Z6.9041
X9.9664 Y-0.2216
X9.9678 Y-0.2273 Z6.904
X9.969 Y-0.2336 Z6.9039
X9.9701 Y-0.24
X9.9708 Y-0.2467 Z6.9038
X9.9714 Y-0.2549
X9.9719 Y-0.2662
X9.9723 Y-0.2831 Z6.9037
X9.9725 Y-0.3028
X9.9722 Y-0.3276 Z6.9038
G0 Z7.3559
Z6.9807
G1 Z6.8938 F1.
X9.9718 Y-0.3418 F3.
X9.9713 Y-0.3516
X9.9703 Y-0.3635 Z6.8939
X9.9697 Y-0.3706
X9.9689 Y-0.3762
X9.9682 Y-0.3797 Z6.894
X9.9672 Y-0.3841
X9.9659 Y-0.3884 Z6.8941
X9.9644 Y-0.3925 Z6.8942
X9.9625 Y-0.3968 Z6.8943
X9.9603 Y-0.4011 Z6.8944
X9.9581 Y-0.4048 Z6.8945
X9.9555 Y-0.4087 Z6.8947
X9.9524 Y-0.4127 Z6.8948
X9.9495 Y-0.4162 Z6.895
X9.9463 Y-0.4195 Z6.8952
X9.9427 Y-0.4228 Z6.8954
X9.939 Y-0.4258 Z6.8956
X9.9352 Y-0.4285 Z6.8958
X9.9313 Y-0.431 Z6.896
X9.9271 Y-0.4333 Z6.8962
X9.923 Y-0.4353 Z6.8964
X9.9188 Y-0.437 Z6.8967
X9.9142 Y-0.4386 Z6.8969
X9.9098 Y-0.4398 Z6.8971
X9.9059 Y-0.4407 Z6.8974
X9.9018 Y-0.4413 Z6.8976
X9.897 Y-0.4417 Z6.8979
X9.8931 Y-0.4418 Z6.8981
X9.8883 Y-0.4416 Z6.8984
X9.8843 Y-0.4412 Z6.8986
X9.8799 Y-0.4404 Z6.8989
X9.8753 Y-0.4393 Z6.8991
X9.871 Y-0.4379 Z6.8994
X9.8669 Y-0.4364 Z6.8996
X9.8627 Y-0.4346 Z6.8999
X9.8589 Y-0.4326 Z6.9001
X9.8549 Y-0.4304 Z6.9003
X9.851 Y-0.4278 Z6.9005
X9.8471 Y-0.425 Z6.9008
X9.8435 Y-0.422 Z6.901
X9.8402 Y-0.419 Z6.9012
X9.8369 Y-0.4155 Z6.9014
X9.8337 Y-0.4117 Z6.9015
X9.8309 Y-0.4078 Z6.9017
X9.8283 Y-0.4039 Z6.9019
X9.8259 Y-0.3999 Z6.902
X9.8237 Y-0.3956 Z6.9021
X9.8218 Y-0.3912 Z6.9022
X9.8203 Y-0.387 Z6.9023
X9.819 Y-0.3826 Z6.9024
X9.818 Y-0.378 Z6.9025
X9.8171 Y-0.3719
X9.8168 Y-0.3696
X9.8151 Y-0.3406 Z6.9026
X9.8144 Y-0.3237 Z6.9027
X9.8141 Y-0.3114
X9.814 Y-0.2964
X9.8143 Y-0.2823
X9.8151 Y-0.2635 Z6.9026
X9.8168 Y-0.2336 Z6.9025
X9.8176 Y-0.2278
X9.8184 Y-0.2239 Z6.9024
X9.8195 Y-0.2194
X9.8208 Y-0.215 Z6.9023
X9.8224 Y-0.2108 Z6.9022
X9.8244 Y-0.2065 Z6.9021
X9.8265 Y-0.2024 Z6.902
X9.8288 Y-0.1986 Z6.9018
X9.8315 Y-0.1945 Z6.9017
X9.8345 Y-0.1907 Z6.9015
X9.8373 Y-0.1873 Z6.9013
X9.8406 Y-0.1838 Z6.9011
X9.8443 Y-0.1805 Z6.9009
X9.8477 Y-0.1777 Z6.9007
X9.8516 Y-0.1749 Z6.9005
X9.8558 Y-0.1722 Z6.9003
X9.8597 Y-0.17 Z6.9
X9.8638 Y-0.168 Z6.8998
X9.8681 Y-0.1662 Z6.8996
X9.8725 Y-0.1647 Z6.8993
X9.8766 Y-0.1635 Z6.8991
X9.8808 Y-0.1626 Z6.8988
X9.8842 Y-0.1621 Z6.8986
X9.8871 Y-0.1617 Z6.8985
X9.8918 Y-0.1615 Z6.8982
X9.8944 Z6.898
X9.9009 Y-0.1619 Z6.8977
X9.9051 Y-0.1625 Z6.8974
X9.9105 Y-0.1636 Z6.8971
X9.9141 Y-0.1645 Z6.8969
X9.9193 Y-0.1662 Z6.8966
X9.9227 Y-0.1674 Z6.8964
X9.9265 Y-0.169 Z6.8962
X9.9303 Y-0.1709 Z6.896
X9.9341 Y-0.1731 Z6.8958
X9.9376 Y-0.1753 Z6.8956
X9.9402 Y-0.1773 Z6.8955
X9.9427 Y-0.1794 Z6.8954
X9.9454 Y-0.182 Z6.8952
X9.9478 Y-0.1845 Z6.8951
X9.9505 Y-0.1878 Z6.8949
X9.9533 Y-0.1916 Z6.8948
X9.9558 Y-0.1955 Z6.8946
X9.958 Y-0.1995 Z6.8945
X9.9601 Y-0.2036 Z6.8944
X9.962 Y-0.2079 Z6.8943
X9.9636 Y-0.2123 Z6.8942
X9.9652 Y-0.217 Z6.8941
X9.9664 Y-0.2216
X9.9678 Y-0.2273 Z6.894
X9.969 Y-0.2336 Z6.8939
X9.9701 Y-0.24
X9.9708 Y-0.2467 Z6.8938
X9.9714 Y-0.2549
X9.9719 Y-0.2662
X9.9723 Y-0.2831 Z6.8937
X9.9725 Y-0.3028
X9.9722 Y-0.3276 Z6.8938
G0 Z7.3559
Y-0.3277
Z6.9807
G1 Z6.8838 F1.
X9.9718 Y-0.3418 F3.
X9.9713 Y-0.3516
X9.9703 Y-0.3635 Z6.8839
X9.9697 Y-0.3706
X9.9689 Y-0.3762
X9.9682 Y-0.3797 Z6.884
X9.9672 Y-0.3841
X9.9659 Y-0.3884 Z6.8841
X9.9644 Y-0.3925 Z6.8842
X9.9625 Y-0.3968 Z6.8843
X9.9603 Y-0.4011 Z6.8844
X9.9581 Y-0.4048 Z6.8845
X9.9555 Y-0.4087 Z6.8847
X9.9524 Y-0.4127 Z6.8848
X9.9495 Y-0.4162 Z6.885
X9.9463 Y-0.4195 Z6.8852
X9.9427 Y-0.4228 Z6.8854
X9.939 Y-0.4258 Z6.8856
X9.9352 Y-0.4285 Z6.8858
X9.9313 Y-0.431 Z6.886
X9.9271 Y-0.4333 Z6.8862
X9.923 Y-0.4353 Z6.8864
X9.9188 Y-0.437 Z6.8867
X9.9142 Y-0.4386 Z6.8869
X9.9098 Y-0.4398 Z6.8871
X9.9059 Y-0.4407 Z6.8874
X9.9018 Y-0.4413 Z6.8876
X9.897 Y-0.4417 Z6.8879
X9.8931 Y-0.4418 Z6.8881
X9.8883 Y-0.4416 Z6.8884
X9.8843 Y-0.4412 Z6.8886
X9.8799 Y-0.4404 Z6.8889
X9.8753 Y-0.4393 Z6.8891
X9.871 Y-0.4379 Z6.8894
X9.8669 Y-0.4364 Z6.8896
X9.8627 Y-0.4346 Z6.8899
X9.8589 Y-0.4326 Z6.8901
X9.8549 Y-0.4304 Z6.8903
X9.851 Y-0.4278 Z6.8905
X9.8471 Y-0.425 Z6.8908
X9.8435 Y-0.422 Z6.891
X9.8402 Y-0.419 Z6.8912
X9.8369 Y-0.4155 Z6.8914
X9.8337 Y-0.4117 Z6.8915
X9.8309 Y-0.4078 Z6.8917
X9.8283 Y-0.4039 Z6.8919
X9.8259 Y-0.3999 Z6.892
X9.8237 Y-0.3956 Z6.8921
X9.8218 Y-0.3912 Z6.8922
X9.8203 Y-0.387 Z6.8923
X9.819 Y-0.3826 Z6.8924
X9.818 Y-0.378 Z6.8925
X9.8171 Y-0.3719
X9.8168 Y-0.3696
X9.8151 Y-0.3406 Z6.8926
X9.8144 Y-0.3237 Z6.8927
X9.8141 Y-0.3114
X9.814 Y-0.2964
X9.8143 Y-0.2823
X9.8151 Y-0.2635 Z6.8926
X9.8168 Y-0.2336 Z6.8925
X9.8176 Y-0.2278
X9.8184 Y-0.2239 Z6.8924
X9.8195 Y-0.2194
X9.8208 Y-0.215 Z6.8923
X9.8224 Y-0.2108 Z6.8922
X9.8244 Y-0.2065 Z6.8921
X9.8265 Y-0.2024 Z6.892
X9.8288 Y-0.1986 Z6.8918
X9.8315 Y-0.1945 Z6.8917
X9.8345 Y-0.1907 Z6.8915
X9.8373 Y-0.1873 Z6.8913
X9.8406 Y-0.1838 Z6.8911
X9.8443 Y-0.1805 Z6.8909
X9.8477 Y-0.1777 Z6.8907
X9.8516 Y-0.1749 Z6.8905
X9.8558 Y-0.1722 Z6.8903
X9.8597 Y-0.17 Z6.89
X9.8638 Y-0.168 Z6.8898
X9.8681 Y-0.1662 Z6.8896
X9.8725 Y-0.1647 Z6.8893
X9.8766 Y-0.1635 Z6.8891
X9.8808 Y-0.1626 Z6.8888
X9.8842 Y-0.1621 Z6.8886
X9.8871 Y-0.1617 Z6.8885
X9.8918 Y-0.1615 Z6.8882
X9.8944 Z6.888
X9.9009 Y-0.1619 Z6.8877
X9.9051 Y-0.1625 Z6.8874
X9.9105 Y-0.1636 Z6.8871
X9.9141 Y-0.1645 Z6.8869
X9.9193 Y-0.1662 Z6.8866
X9.9227 Y-0.1674 Z6.8864
X9.9265 Y-0.169 Z6.8862
X9.9303 Y-0.1709 Z6.886
X9.9341 Y-0.1731 Z6.8858
X9.9376 Y-0.1753 Z6.8856
X9.9402 Y-0.1773 Z6.8855
X9.9427 Y-0.1794 Z6.8854
X9.9454 Y-0.182 Z6.8852
X9.9478 Y-0.1845 Z6.8851
X9.9505 Y-0.1878 Z6.8849
X9.9533 Y-0.1916 Z6.8848
X9.9558 Y-0.1955 Z6.8846
X9.958 Y-0.1995 Z6.8845
X9.9601 Y-0.2036 Z6.8844
X9.962 Y-0.2079 Z6.8843
X9.9636 Y-0.2123 Z6.8842
X9.9652 Y-0.217 Z6.8841
X9.9664 Y-0.2216
X9.9678 Y-0.2273 Z6.884
X9.969 Y-0.2336 Z6.8839
X9.9701 Y-0.24
X9.9708 Y-0.2467 Z6.8838
X9.9714 Y-0.2549
X9.9719 Y-0.2662
X9.9723 Y-0.2831 Z6.8837
X9.9725 Y-0.3028
X9.9722 Y-0.3276 Z6.8838
Y-0.3277
G0 Z7.3559
Z6.9807
G1 Z6.8738 F1.
X9.9718 Y-0.3418 F3.
X9.9713 Y-0.3516
X9.9703 Y-0.3635 Z6.8739
X9.9697 Y-0.3706
X9.9689 Y-0.3762
X9.9682 Y-0.3797 Z6.874
X9.9672 Y-0.3841
X9.9659 Y-0.3884 Z6.8741
X9.9644 Y-0.3925 Z6.8742
X9.9625 Y-0.3968 Z6.8743
X9.9603 Y-0.4011 Z6.8744
X9.9581 Y-0.4048 Z6.8745
X9.9555 Y-0.4087 Z6.8747
X9.9524 Y-0.4127 Z6.8748
X9.9495 Y-0.4162 Z6.875
X9.9463 Y-0.4195 Z6.8752
X9.9427 Y-0.4228 Z6.8754
X9.939 Y-0.4258 Z6.8756
X9.9352 Y-0.4285 Z6.8758
X9.9313 Y-0.431 Z6.876
X9.9271 Y-0.4333 Z6.8762
X9.923 Y-0.4353 Z6.8764
X9.9188 Y-0.437 Z6.8767
X9.9142 Y-0.4386 Z6.8769
X9.9098 Y-0.4398 Z6.8771
X9.9059 Y-0.4407 Z6.8774
X9.9018 Y-0.4413 Z6.8776
X9.897 Y-0.4417 Z6.8779
X9.8931 Y-0.4418 Z6.8781
X9.8883 Y-0.4416 Z6.8784
X9.8843 Y-0.4412 Z6.8786
X9.8799 Y-0.4404 Z6.8789
X9.8753 Y-0.4393 Z6.8791
X9.871 Y-0.4379 Z6.8794
X9.8669 Y-0.4364 Z6.8796
X9.8627 Y-0.4346 Z6.8799
X9.8589 Y-0.4326 Z6.8801
X9.8549 Y-0.4304 Z6.8803
X9.851 Y-0.4278 Z6.8805
X9.8471 Y-0.425 Z6.8808
X9.8435 Y-0.422 Z6.881
X9.8402 Y-0.419 Z6.8812
X9.8369 Y-0.4155 Z6.8814
X9.8337 Y-0.4117 Z6.8815
X9.8309 Y-0.4078 Z6.8817
X9.8283 Y-0.4039 Z6.8819
X9.8259 Y-0.3999 Z6.882
X9.8237 Y-0.3956 Z6.8821
X9.8218 Y-0.3912 Z6.8822
X9.8203 Y-0.387 Z6.8823
X9.819 Y-0.3826 Z6.8824
X9.818 Y-0.378 Z6.8825
X9.8171 Y-0.3719
X9.8168 Y-0.3696
X9.8151 Y-0.3406 Z6.8826
X9.8144 Y-0.3237 Z6.8827
X9.8141 Y-0.3114
X9.814 Y-0.2964
X9.8143 Y-0.2823
X9.8151 Y-0.2635 Z6.8826
X9.8168 Y-0.2336 Z6.8825
X9.8176 Y-0.2278
X9.8184 Y-0.2239 Z6.8824
X9.8195 Y-0.2194
X9.8208 Y-0.215 Z6.8823
X9.8224 Y-0.2108 Z6.8822
X9.8244 Y-0.2065 Z6.8821
X9.8265 Y-0.2024 Z6.882
X9.8288 Y-0.1986 Z6.8818
X9.8315 Y-0.1945 Z6.8817
X9.8345 Y-0.1907 Z6.8815
X9.8373 Y-0.1873 Z6.8813
X9.8406 Y-0.1838 Z6.8811
X9.8443 Y-0.1805 Z6.8809
X9.8477 Y-0.1777 Z6.8807
X9.8516 Y-0.1749 Z6.8805
X9.8558 Y-0.1722 Z6.8803
X9.8597 Y-0.17 Z6.88
X9.8638 Y-0.168 Z6.8798
X9.8681 Y-0.1662 Z6.8796
X9.8725 Y-0.1647 Z6.8793
X9.8766 Y-0.1635 Z6.8791
X9.8808 Y-0.1626 Z6.8788
X9.8842 Y-0.1621 Z6.8786
X9.8871 Y-0.1617 Z6.8785
X9.8918 Y-0.1615 Z6.8782
X9.8944 Z6.878
X9.9009 Y-0.1619 Z6.8777
X9.9051 Y-0.1625 Z6.8774
X9.9105 Y-0.1636 Z6.8771
X9.9141 Y-0.1645 Z6.8769
X9.9193 Y-0.1662 Z6.8766
X9.9227 Y-0.1674 Z6.8764
X9.9265 Y-0.169 Z6.8762
X9.9303 Y-0.1709 Z6.876
X9.9341 Y-0.1731 Z6.8758
X9.9376 Y-0.1753 Z6.8756
X9.9402 Y-0.1773 Z6.8755
X9.9427 Y-0.1794 Z6.8754
X9.9454 Y-0.182 Z6.8752
X9.9478 Y-0.1845 Z6.8751
X9.9505 Y-0.1878 Z6.8749
X9.9533 Y-0.1916 Z6.8748
X9.9558 Y-0.1955 Z6.8746
X9.958 Y-0.1995 Z6.8745
X9.9601 Y-0.2036 Z6.8744
X9.962 Y-0.2079 Z6.8743
X9.9636 Y-0.2123 Z6.8742
X9.9652 Y-0.217 Z6.8741
X9.9664 Y-0.2216
X9.9678 Y-0.2273 Z6.874
X9.969 Y-0.2336 Z6.8739
X9.9701 Y-0.24
X9.9708 Y-0.2467 Z6.8738
X9.9714 Y-0.2549
X9.9719 Y-0.2662
X9.9723 Y-0.2831 Z6.8737
X9.9725 Y-0.3028
X9.9722 Y-0.3276 Z6.8738
Y-0.3277
G0 Z7.6059

M5
M9
G53 G0 Z0.
G53 G0 X0. Y0.
G49
G69
G0 A0. C0.
M30
