O0051 (EMTSERIALSUB-11111)

(PROGRAM CREATED FOR MAZAK VARIAXIS-I700 5-AXIS MILL ONLY)

(PROVEN BY: )
(PROVEN ON: )

(QC ACCEPTED BY: )
(QC ACCEPTED ON: )

(T50 D=0.125 CR=0. TAPER=30DEG - CHAMFER MILL)

G90 G94 G17 G49
G20
G53 G0 Z0.

(SERIAL ENGRAVE TIT)
T50 M6
S18000 M3
G90 G94 G17
G54.1 P2
G68.2 X0. Y0. Z0. I107.642 J90. K180.
G53.1 P2
M8
G0 X11.1521 Y-0.165
G43 Z7.6059 H50
G0 Z6.9392
G1 Z6.8637 F1.
Y-0.4383 F3.
X11.159 Z6.8636
X11.1723 Y-0.4265 Z6.8635
X11.2312 Y-0.3746 Z6.8627
Z6.8527 F1.
X11.1723 Y-0.4265 Z6.8535 F3.
X11.159 Y-0.4383 Z6.8536
X11.1521 Z6.8537
Y-0.165
Z6.8437 F1.
Y-0.4383 F3.
X11.159 Z6.8436
X11.1723 Y-0.4265 Z6.8435
X11.2312 Y-0.3746 Z6.8427
Z6.8327 F1.
X11.1723 Y-0.4265 Z6.8335 F3.
X11.159 Y-0.4383 Z6.8336
X11.1521 Z6.8337
Y-0.165
G0 Z7.3559
X10.9112 Y-0.3746
Z6.9438
G1 Z6.8681 F1.
X10.8567 Y-0.4226 Z6.8693 F3.
X10.8389 Y-0.4383 Z6.8698
X10.8321 Z6.8699
Y-0.165
Z6.8599 F1.
Y-0.4383 F3.
X10.8389 Z6.8598
X10.8567 Y-0.4226 Z6.8593
X10.9112 Y-0.3746 Z6.8581
Z6.8481 F1.
X10.8567 Y-0.4226 Z6.8493 F3.
X10.8389 Y-0.4383 Z6.8498
X10.8321 Z6.8499
Y-0.165
Z6.8399 F1.
Y-0.4383 F3.
X10.8389 Z6.8398
X10.8567 Y-0.4226 Z6.8393
X10.9112 Y-0.3746 Z6.8381
G0 Z7.3559
X10.5911
Z6.953
G1 Z6.8769 F1.
X10.5357 Y-0.4235 Z6.8787 F3.
X10.5189 Y-0.4383 Z6.8793
X10.512 Z6.8796
Y-0.165
Z6.8696 F1.
Y-0.4383 F3.
X10.5189 Z6.8693
X10.5357 Y-0.4235 Z6.8687
X10.5911 Y-0.3746 Z6.8669
Z6.8569 F1.
X10.5357 Y-0.4235 Z6.8587 F3.
X10.5189 Y-0.4383 Z6.8593
X10.512 Z6.8596
Y-0.165
Z6.8496 F1.
Y-0.4383 F3.
X10.5189 Z6.8493
X10.5357 Y-0.4235 Z6.8487
X10.5911 Y-0.3746 Z6.8469
G0 Z7.3559
X10.2711
Z6.9657
G1 Z6.8891 F1.
X10.2128 Y-0.426 Z6.8917 F3.
X10.1988 Y-0.4383 Z6.8924
X10.192 Z6.8927
Y-0.165
Z6.8827 F1.
Y-0.4383 F3.
X10.1988 Z6.8824
X10.2128 Y-0.426 Z6.8817
X10.2711 Y-0.3746 Z6.8791
Z6.8691 F1.
X10.2128 Y-0.426 Z6.8717 F3.
X10.1988 Y-0.4383 Z6.8724
X10.192 Z6.8727
Y-0.165
Z6.8627 F1.
Y-0.4383 F3.
X10.1988 Z6.8624
X10.2128 Y-0.426 Z6.8617
X10.2711 Y-0.3746 Z6.8591
G0 Z7.3559
X9.9511
Z6.9819
G1 Z6.9049 F1.
X9.8891 Y-0.4292 Z6.9083 F3.
X9.8788 Y-0.4383 Z6.9089
X9.872 Z6.9093
Y-0.165
Z6.8993 F1.
Y-0.4383 F3.
X9.8788 Z6.8989
X9.8891 Y-0.4292 Z6.8983
X9.9511 Y-0.3746 Z6.8949
Z6.8849 F1.
X9.8891 Y-0.4292 Z6.8883 F3.
X9.8788 Y-0.4383 Z6.8889
X9.872 Z6.8893
Y-0.165
Z6.8793 F1.
Y-0.4383 F3.
X9.8788 Z6.8789
X9.8891 Y-0.4292 Z6.8783
X9.9511 Y-0.3746 Z6.8749
G0 Z7.6059

M5
M9
G53 G0 Z0.
G53 G0 X0. Y0.
G49
G69
G0 A0. C0.
M30
