O0052 (EMTSERIALSUB-22222)

(PROGRAM CREATED FOR MAZAK VARIAXIS-I700 5-AXIS MILL ONLY)

(PROVEN BY: )
(PROVEN ON: )

(QC ACCEPTED BY: )
(QC ACCEPTED ON: )

(T50 D=0.125 CR=0. TAPER=30DEG - CHAMFER MILL)

G90 G94 G17 G49
G20
G53 G0 Z0.

(SERIAL ENGRAVE TIT)
T50 M6
S18000 M3
G90 G94 G17
G54.1 P2
G68.2 X0. Y0. Z0. I107.642 J90. K180.
G53.1 P2
M8
G0 X11.0979 Y-0.165
G43 Z7.6059 H50
G0 Z6.9401
G1 Z6.8645 F1.
X11.1862 Z6.8633 F3.
X11.2418 Z6.8626
Y-0.1732
X11.2417 Y-0.1843
X11.2414 Y-0.1918
X11.2409 Y-0.1965
X11.2402 Y-0.2008
X11.2392 Y-0.2053 Z6.8627
X11.238 Y-0.2098
X11.2366 Y-0.2143
X11.2349 Y-0.2187
X11.2328 Y-0.2234
X11.2306 Y-0.2279
X11.2281 Y-0.2323 Z6.8628
X11.2253 Y-0.2366
X11.2222 Y-0.2409
X11.219 Y-0.2451 Z6.8629
X11.2157 Y-0.2488
X11.2128 Y-0.2517
X11.2077 Y-0.2565 Z6.863
X11.1241 Y-0.3253 Z6.8641
X11.1208 Y-0.3282 Z6.8642
X11.1187 Y-0.3304
X11.1165 Y-0.3329
X11.1141 Y-0.3361 Z6.8643
X11.1119 Y-0.3393
X11.1099 Y-0.3426
X11.1077 Y-0.3469 Z6.8644
X11.1059 Y-0.3513
X11.1043 Y-0.3557
X11.1032 Y-0.3594
X11.1023 Y-0.3635
X11.1018 Y-0.3679
X11.1014 Y-0.3738
Y-0.3763
X11.1017 Y-0.3816
X11.1022 Y-0.3853
X11.103 Y-0.3891
X11.104 Y-0.3929
X11.1053 Y-0.3967
X11.1072 Y-0.4011
X11.1094 Y-0.4055 Z6.8643
X11.112 Y-0.4096
X11.1148 Y-0.4134
X11.1178 Y-0.4171 Z6.8642
X11.1211 Y-0.4204
X11.1246 Y-0.4235 Z6.8641
X11.1285 Y-0.4265
X11.1322 Y-0.4291 Z6.864
X11.136 Y-0.4313
X11.1405 Y-0.4336 Z6.8639
X11.1448 Y-0.4355 Z6.8638
X11.1493 Y-0.4372
X11.1542 Y-0.4387 Z6.8637
X11.1593 Y-0.44 Z6.8636
X11.1643 Y-0.441
X11.1691 Y-0.4416 Z6.8635
X11.1734 Y-0.442
X11.1794 Y-0.4422 Z6.8634
X11.1848 Y-0.4421 Z6.8633
X11.1899 Y-0.4417 Z6.8632
X11.1959 Y-0.4411 Z6.8631
X11.2022 Y-0.44
X11.2079 Y-0.4388 Z6.863
X11.2123 Y-0.4376 Z6.8629
X11.2163 Y-0.4363
X11.22 Y-0.4348 Z6.8628
X11.2235 Y-0.4331
X11.2291 Y-0.4301
X11.2329 Y-0.428 Z6.8627
X11.2365 Y-0.4256
X11.2408 Y-0.4226 Z6.8626
Z6.8526 F1.
X11.2365 Y-0.4256 Z6.8527 F3.
X11.2329 Y-0.428
X11.2291 Y-0.4301 Z6.8528
X11.2235 Y-0.4331
X11.22 Y-0.4348
X11.2163 Y-0.4363 Z6.8529
X11.2123 Y-0.4376
X11.2079 Y-0.4388 Z6.853
X11.2022 Y-0.44 Z6.8531
X11.1959 Y-0.4411
X11.1899 Y-0.4417 Z6.8532
X11.1848 Y-0.4421 Z6.8533
X11.1794 Y-0.4422 Z6.8534
X11.1734 Y-0.442 Z6.8535
X11.1691 Y-0.4416
X11.1643 Y-0.441 Z6.8536
X11.1593 Y-0.44
X11.1542 Y-0.4387 Z6.8537
X11.1493 Y-0.4372 Z6.8538
X11.1448 Y-0.4355
X11.1405 Y-0.4336 Z6.8539
X11.136 Y-0.4313 Z6.854
X11.1322 Y-0.4291
X11.1285 Y-0.4265 Z6.8541
X11.1246 Y-0.4235
X11.1211 Y-0.4204 Z6.8542
X11.1178 Y-0.4171
X11.1148 Y-0.4134 Z6.8543
X11.112 Y-0.4096
X11.1094 Y-0.4055
X11.1072 Y-0.4011 Z6.8544
X11.1053 Y-0.3967
X11.104 Y-0.3929
X11.103 Y-0.3891
X11.1022 Y-0.3853
X11.1017 Y-0.3816
X11.1014 Y-0.3763
Y-0.3738
X11.1018 Y-0.3679
X11.1023 Y-0.3635
X11.1032 Y-0.3594
X11.1043 Y-0.3557
X11.1059 Y-0.3513
X11.1077 Y-0.3469
X11.1099 Y-0.3426 Z6.8543
X11.1119 Y-0.3393
X11.1141 Y-0.3361
X11.1165 Y-0.3329 Z6.8542
X11.1187 Y-0.3304
X11.1208 Y-0.3282
X11.1241 Y-0.3253 Z6.8541
X11.2077 Y-0.2565 Z6.853
X11.2128 Y-0.2517 Z6.8529
X11.2157 Y-0.2488
X11.219 Y-0.2451
X11.2222 Y-0.2409 Z6.8528
X11.2253 Y-0.2366
X11.2281 Y-0.2323
X11.2306 Y-0.2279 Z6.8527
X11.2328 Y-0.2234
X11.2349 Y-0.2187
X11.2366 Y-0.2143
X11.238 Y-0.2098
X11.2392 Y-0.2053
X11.2402 Y-0.2008 Z6.8526
X11.2409 Y-0.1965
X11.2414 Y-0.1918
X11.2417 Y-0.1843
X11.2418 Y-0.1732
Y-0.165
X11.1862 Z6.8533
X11.0979 Z6.8545
Z6.8445 F1.
X11.1862 Z6.8433 F3.
X11.2418 Z6.8426
Y-0.1732
X11.2417 Y-0.1843
X11.2414 Y-0.1918
X11.2409 Y-0.1965
X11.2402 Y-0.2008
X11.2392 Y-0.2053 Z6.8427
X11.238 Y-0.2098
X11.2366 Y-0.2143
X11.2349 Y-0.2187
X11.2328 Y-0.2234
X11.2306 Y-0.2279
X11.2281 Y-0.2323 Z6.8428
X11.2253 Y-0.2366
X11.2222 Y-0.2409
X11.219 Y-0.2451 Z6.8429
X11.2157 Y-0.2488
X11.2128 Y-0.2517
X11.2077 Y-0.2565 Z6.843
X11.1241 Y-0.3253 Z6.8441
X11.1208 Y-0.3282 Z6.8442
X11.1187 Y-0.3304
X11.1165 Y-0.3329
X11.1141 Y-0.3361 Z6.8443
X11.1119 Y-0.3393
X11.1099 Y-0.3426
X11.1077 Y-0.3469 Z6.8444
X11.1059 Y-0.3513
X11.1043 Y-0.3557
X11.1032 Y-0.3594
X11.1023 Y-0.3635
X11.1018 Y-0.3679
X11.1014 Y-0.3738
Y-0.3763
X11.1017 Y-0.3816
X11.1022 Y-0.3853
X11.103 Y-0.3891
X11.104 Y-0.3929
X11.1053 Y-0.3967
X11.1072 Y-0.4011
X11.1094 Y-0.4055 Z6.8443
X11.112 Y-0.4096
X11.1148 Y-0.4134
X11.1178 Y-0.4171 Z6.8442
X11.1211 Y-0.4204
X11.1246 Y-0.4235 Z6.8441
X11.1285 Y-0.4265
X11.1322 Y-0.4291 Z6.844
X11.136 Y-0.4313
X11.1405 Y-0.4336 Z6.8439
X11.1448 Y-0.4355 Z6.8438
X11.1493 Y-0.4372
X11.1542 Y-0.4387 Z6.8437
X11.1593 Y-0.44 Z6.8436
X11.1643 Y-0.441
X11.1691 Y-0.4416 Z6.8435
X11.1734 Y-0.442
X11.1794 Y-0.4422 Z6.8434
X11.1848 Y-0.4421 Z6.8433
X11.1899 Y-0.4417 Z6.8432
X11.1959 Y-0.4411 Z6.8431
X11.2022 Y-0.44
X11.2079 Y-0.4388 Z6.843
X11.2123 Y-0.4376 Z6.8429
X11.2163 Y-0.4363
X11.22 Y-0.4348 Z6.8428
X11.2235 Y-0.4331
X11.2291 Y-0.4301
X11.2329 Y-0.428 Z6.8427
X11.2365 Y-0.4256
X11.2408 Y-0.4226 Z6.8426
Z6.8326 F1.
X11.2365 Y-0.4256 Z6.8327 F3.
X11.2329 Y-0.428
X11.2291 Y-0.4301 Z6.8328
X11.2235 Y-0.4331
X11.22 Y-0.4348
X11.2163 Y-0.4363 Z6.8329
X11.2123 Y-0.4376
X11.2079 Y-0.4388 Z6.833
X11.2022 Y-0.44 Z6.8331
X11.1959 Y-0.4411
X11.1899 Y-0.4417 Z6.8332
X11.1848 Y-0.4421 Z6.8333
X11.1794 Y-0.4422 Z6.8334
X11.1734 Y-0.442 Z6.8335
X11.1691 Y-0.4416
X11.1643 Y-0.441 Z6.8336
X11.1593 Y-0.44
X11.1542 Y-0.4387 Z6.8337
X11.1493 Y-0.4372 Z6.8338
X11.1448 Y-0.4355
X11.1405 Y-0.4336 Z6.8339
X11.136 Y-0.4313 Z6.834
X11.1322 Y-0.4291
X11.1285 Y-0.4265 Z6.8341
X11.1246 Y-0.4235
X11.1211 Y-0.4204 Z6.8342
X11.1178 Y-0.4171
X11.1148 Y-0.4134 Z6.8343
X11.112 Y-0.4096
X11.1094 Y-0.4055
X11.1072 Y-0.4011 Z6.8344
X11.1053 Y-0.3967
X11.104 Y-0.3929
X11.103 Y-0.3891
X11.1022 Y-0.3853
X11.1017 Y-0.3816
X11.1014 Y-0.3763
Y-0.3738
X11.1018 Y-0.3679
X11.1023 Y-0.3635
X11.1032 Y-0.3594
X11.1043 Y-0.3557
X11.1059 Y-0.3513
X11.1077 Y-0.3469
X11.1099 Y-0.3426 Z6.8343
X11.1119 Y-0.3393
X11.1141 Y-0.3361
X11.1165 Y-0.3329 Z6.8342
X11.1187 Y-0.3304
X11.1208 Y-0.3282
X11.1241 Y-0.3253 Z6.8341
X11.2077 Y-0.2565 Z6.833
X11.2128 Y-0.2517 Z6.8329
X11.2157 Y-0.2488
X11.219 Y-0.2451
X11.2222 Y-0.2409 Z6.8328
X11.2253 Y-0.2366
X11.2281 Y-0.2323
X11.2306 Y-0.2279 Z6.8327
X11.2328 Y-0.2234
X11.2349 Y-0.2187
X11.2366 Y-0.2143
X11.238 Y-0.2098
X11.2392 Y-0.2053
X11.2402 Y-0.2008 Z6.8326
X11.2409 Y-0.1965
X11.2414 Y-0.1918
X11.2417 Y-0.1843
X11.2418 Y-0.1732
Y-0.165
X11.1862 Z6.8333
X11.0979 Z6.8345
G0 Z7.3559
X10.9207 Y-0.4226
Z6.9436
G1 Z6.8679 F1.
X10.9165 Y-0.4256 F3.
X10.9129 Y-0.428 Z6.868
X10.9091 Y-0.4301 Z6.8681
X10.9035 Y-0.4331 Z6.8682
X10.9 Y-0.4348 Z6.8683
X10.8963 Y-0.4363 Z6.8684
X10.8923 Y-0.4376 Z6.8685
X10.8879 Y-0.4388 Z6.8686
X10.8823 Y-0.44 Z6.8687
X10.876 Y-0.441 Z6.8688
X10.87 Y-0.4417 Z6.869
X10.8647 Y-0.4421 Z6.8691
X10.8594 Y-0.4422 Z6.8692
X10.8534 Y-0.442 Z6.8694
X10.8491 Y-0.4416 Z6.8695
X10.8443 Y-0.441 Z6.8696
X10.8392 Y-0.44 Z6.8697
X10.8342 Y-0.4387 Z6.8699
X10.8292 Y-0.4372 Z6.87
X10.8247 Y-0.4355 Z6.8701
X10.8204 Y-0.4336 Z6.8702
X10.816 Y-0.4313 Z6.8703
X10.8122 Y-0.4291 Z6.8704
X10.8084 Y-0.4265 Z6.8705
X10.8045 Y-0.4235 Z6.8706
X10.8011 Y-0.4204 Z6.8707
X10.7978 Y-0.4171 Z6.8708
X10.7947 Y-0.4134 Z6.8709
X10.7919 Y-0.4096
X10.7894 Y-0.4055 Z6.871
X10.7872 Y-0.4011
X10.7853 Y-0.3967 Z6.8711
X10.7839 Y-0.3929
X10.7829 Y-0.3891
X10.7822 Y-0.3853 Z6.8712
X10.7817 Y-0.3816
X10.7814 Y-0.3764
Y-0.3738
X10.7817 Y-0.368
X10.7822 Y-0.3639
X10.7831 Y-0.3597 Z6.8711
X10.7842 Y-0.3558
X10.7858 Y-0.3513
X10.7877 Y-0.3469 Z6.871
X10.7899 Y-0.3426
X10.7918 Y-0.3393 Z6.8709
X10.794 Y-0.3361
X10.7965 Y-0.3329 Z6.8708
X10.7986 Y-0.3304
X10.8008 Y-0.3282 Z6.8707
X10.804 Y-0.3253 Z6.8706
X10.8876 Y-0.2565 Z6.8686
X10.8927 Y-0.2517 Z6.8684
X10.8957 Y-0.2488
X10.8989 Y-0.2451 Z6.8683
X10.9022 Y-0.2409
X10.9053 Y-0.2366 Z6.8682
X10.908 Y-0.2323 Z6.8681
X10.9105 Y-0.2279
X10.9128 Y-0.2234 Z6.868
X10.9149 Y-0.2187
X10.9166 Y-0.2143 Z6.8679
X10.918 Y-0.2098
X10.9192 Y-0.2053
X10.9201 Y-0.2009
X10.9208 Y-0.1965
X10.9213 Y-0.1918 Z6.8678
X10.9217 Y-0.1843
Y-0.1732
Y-0.165
X10.8631 Z6.8692
X10.7779 Z6.8713
Z6.8613 F1.
X10.8631 Z6.8592 F3.
X10.9217 Z6.8578
Y-0.1732
Y-0.1843
X10.9213 Y-0.1918
X10.9208 Y-0.1965 Z6.8579
X10.9201 Y-0.2009
X10.9192 Y-0.2053
X10.918 Y-0.2098
X10.9166 Y-0.2143
X10.9149 Y-0.2187 Z6.858
X10.9128 Y-0.2234
X10.9105 Y-0.2279 Z6.8581
X10.908 Y-0.2323
X10.9053 Y-0.2366 Z6.8582
X10.9022 Y-0.2409 Z6.8583
X10.8989 Y-0.2451
X10.8957 Y-0.2488 Z6.8584
X10.8927 Y-0.2517
X10.8876 Y-0.2565 Z6.8586
X10.804 Y-0.3253 Z6.8606
X10.8008 Y-0.3282 Z6.8607
X10.7986 Y-0.3304 Z6.8608
X10.7965 Y-0.3329
X10.794 Y-0.3361 Z6.8609
X10.7918 Y-0.3393
X10.7899 Y-0.3426 Z6.861
X10.7877 Y-0.3469
X10.7858 Y-0.3513 Z6.8611
X10.7842 Y-0.3558
X10.7831 Y-0.3597
X10.7822 Y-0.3639 Z6.8612
X10.7817 Y-0.368
X10.7814 Y-0.3738
Y-0.3764
X10.7817 Y-0.3816
X10.7822 Y-0.3853
X10.7829 Y-0.3891 Z6.8611
X10.7839 Y-0.3929
X10.7853 Y-0.3967
X10.7872 Y-0.4011 Z6.861
X10.7894 Y-0.4055
X10.7919 Y-0.4096 Z6.8609
X10.7947 Y-0.4134
X10.7978 Y-0.4171 Z6.8608
X10.8011 Y-0.4204 Z6.8607
X10.8045 Y-0.4235 Z6.8606
X10.8084 Y-0.4265 Z6.8605
X10.8122 Y-0.4291 Z6.8604
X10.816 Y-0.4313 Z6.8603
X10.8204 Y-0.4336 Z6.8602
X10.8247 Y-0.4355 Z6.8601
X10.8292 Y-0.4372 Z6.86
X10.8342 Y-0.4387 Z6.8599
X10.8392 Y-0.44 Z6.8597
X10.8443 Y-0.441 Z6.8596
X10.8491 Y-0.4416 Z6.8595
X10.8534 Y-0.442 Z6.8594
X10.8594 Y-0.4422 Z6.8592
X10.8647 Y-0.4421 Z6.8591
X10.87 Y-0.4417 Z6.859
X10.876 Y-0.441 Z6.8588
X10.8823 Y-0.44 Z6.8587
X10.8879 Y-0.4388 Z6.8586
X10.8923 Y-0.4376 Z6.8585
X10.8963 Y-0.4363 Z6.8584
X10.9 Y-0.4348 Z6.8583
X10.9035 Y-0.4331 Z6.8582
X10.9091 Y-0.4301 Z6.8581
X10.9129 Y-0.428 Z6.858
X10.9165 Y-0.4256 Z6.8579
X10.9207 Y-0.4226
Z6.8479 F1.
X10.9165 Y-0.4256 F3.
X10.9129 Y-0.428 Z6.848
X10.9091 Y-0.4301 Z6.8481
X10.9035 Y-0.4331 Z6.8482
X10.9 Y-0.4348 Z6.8483
X10.8963 Y-0.4363 Z6.8484
X10.8923 Y-0.4376 Z6.8485
X10.8879 Y-0.4388 Z6.8486
X10.8823 Y-0.44 Z6.8487
X10.876 Y-0.441 Z6.8488
X10.87 Y-0.4417 Z6.849
X10.8647 Y-0.4421 Z6.8491
X10.8594 Y-0.4422 Z6.8492
X10.8534 Y-0.442 Z6.8494
X10.8491 Y-0.4416 Z6.8495
X10.8443 Y-0.441 Z6.8496
X10.8392 Y-0.44 Z6.8497
X10.8342 Y-0.4387 Z6.8499
X10.8292 Y-0.4372 Z6.85
X10.8247 Y-0.4355 Z6.8501
X10.8204 Y-0.4336 Z6.8502
X10.816 Y-0.4313 Z6.8503
X10.8122 Y-0.4291 Z6.8504
X10.8084 Y-0.4265 Z6.8505
X10.8045 Y-0.4235 Z6.8506
X10.8011 Y-0.4204 Z6.8507
X10.7978 Y-0.4171 Z6.8508
X10.7947 Y-0.4134 Z6.8509
X10.7919 Y-0.4096
X10.7894 Y-0.4055 Z6.851
X10.7872 Y-0.4011
X10.7853 Y-0.3967 Z6.8511
X10.7839 Y-0.3929
X10.7829 Y-0.3891
X10.7822 Y-0.3853 Z6.8512
X10.7817 Y-0.3816
X10.7814 Y-0.3764
Y-0.3738
X10.7817 Y-0.368
X10.7822 Y-0.3639
X10.7831 Y-0.3597 Z6.8511
X10.7842 Y-0.3558
X10.7858 Y-0.3513
X10.7877 Y-0.3469 Z6.851
X10.7899 Y-0.3426
X10.7918 Y-0.3393 Z6.8509
X10.794 Y-0.3361
X10.7965 Y-0.3329 Z6.8508
X10.7986 Y-0.3304
X10.8008 Y-0.3282 Z6.8507
X10.804 Y-0.3253 Z6.8506
X10.8876 Y-0.2565 Z6.8486
X10.8927 Y-0.2517 Z6.8484
X10.8957 Y-0.2488
X10.8989 Y-0.2451 Z6.8483
X10.9022 Y-0.2409
X10.9053 Y-0.2366 Z6.8482
X10.908 Y-0.2323 Z6.8481
X10.9105 Y-0.2279
X10.9128 Y-0.2234 Z6.848
X10.9149 Y-0.2187
X10.9166 Y-0.2143 Z6.8479
X10.918 Y-0.2098
X10.9192 Y-0.2053
X10.9201 Y-0.2009
X10.9208 Y-0.1965
X10.9213 Y-0.1918 Z6.8478
X10.9217 Y-0.1843
Y-0.1732
Y-0.165
X10.8631 Z6.8492
X10.7779 Z6.8513
Z6.8413 F1.
X10.8631 Z6.8392 F3.
X10.9217 Z6.8378
Y-0.1732
Y-0.1843
X10.9213 Y-0.1918
X10.9208 Y-0.1965 Z6.8379
X10.9201 Y-0.2009
X10.9192 Y-0.2053
X10.918 Y-0.2098
X10.9166 Y-0.2143
X10.9149 Y-0.2187 Z6.838
X10.9128 Y-0.2234
X10.9105 Y-0.2279 Z6.8381
X10.908 Y-0.2323
X10.9053 Y-0.2366 Z6.8382
X10.9022 Y-0.2409 Z6.8383
X10.8989 Y-0.2451
X10.8957 Y-0.2488 Z6.8384
X10.8927 Y-0.2517
X10.8876 Y-0.2565 Z6.8386
X10.804 Y-0.3253 Z6.8406
X10.8008 Y-0.3282 Z6.8407
X10.7986 Y-0.3304 Z6.8408
X10.7965 Y-0.3329
X10.794 Y-0.3361 Z6.8409
X10.7918 Y-0.3393
X10.7899 Y-0.3426 Z6.841
X10.7877 Y-0.3469
X10.7858 Y-0.3513 Z6.8411
X10.7842 Y-0.3558
X10.7831 Y-0.3597
X10.7822 Y-0.3639 Z6.8412
X10.7817 Y-0.368
X10.7814 Y-0.3738
Y-0.3764
X10.7817 Y-0.3816
X10.7822 Y-0.3853
X10.7829 Y-0.3891 Z6.8411
X10.7839 Y-0.3929
X10.7853 Y-0.3967
X10.7872 Y-0.4011 Z6.841
X10.7894 Y-0.4055
X10.7919 Y-0.4096 Z6.8409
X10.7947 Y-0.4134
X10.7978 Y-0.4171 Z6.8408
X10.8011 Y-0.4204 Z6.8407
X10.8045 Y-0.4235 Z6.8406
X10.8084 Y-0.4265 Z6.8405
X10.8122 Y-0.4291 Z6.8404
X10.816 Y-0.4313 Z6.8403
X10.8204 Y-0.4336 Z6.8402
X10.8247 Y-0.4355 Z6.8401
X10.8292 Y-0.4372 Z6.84
X10.8342 Y-0.4387 Z6.8399
X10.8392 Y-0.44 Z6.8397
X10.8443 Y-0.441 Z6.8396
X10.8491 Y-0.4416 Z6.8395
X10.8534 Y-0.442 Z6.8394
X10.8594 Y-0.4422 Z6.8392
X10.8647 Y-0.4421 Z6.8391
X10.87 Y-0.4417 Z6.839
X10.876 Y-0.441 Z6.8388
X10.8823 Y-0.44 Z6.8387
X10.8879 Y-0.4388 Z6.8386
X10.8923 Y-0.4376 Z6.8385
X10.8963 Y-0.4363 Z6.8384
X10.9 Y-0.4348 Z6.8383
X10.9035 Y-0.4331 Z6.8382
X10.9091 Y-0.4301 Z6.8381
X10.9129 Y-0.428 Z6.838
X10.9165 Y-0.4256 Z6.8379
X10.9207 Y-0.4226
G0 Z7.3559
X10.6007
Z6.9527
G1 Z6.8766 F1.
X10.5965 Y-0.4256 Z6.8767 F3.
X10.5929 Y-0.428 Z6.8768
X10.5891 Y-0.43 Z6.8769
X10.5835 Y-0.4331 Z6.8771
X10.58 Y-0.4348 Z6.8772
X10.5763 Y-0.4363 Z6.8773
X10.5723 Y-0.4376 Z6.8775
X10.5679 Y-0.4388 Z6.8776
X10.5624 Y-0.44 Z6.8778
X10.5561 Y-0.441 Z6.878
X10.55 Y-0.4417 Z6.8782
X10.5447 Y-0.4421 Z6.8784
X10.5394 Y-0.4422 Z6.8786
X10.5334 Y-0.442 Z6.8788
X10.5291 Y-0.4416 Z6.879
X10.5243 Y-0.441 Z6.8791
X10.5192 Y-0.44 Z6.8793
X10.5142 Y-0.4387 Z6.8795
X10.5092 Y-0.4372 Z6.8797
X10.5047 Y-0.4355 Z6.8798
X10.5004 Y-0.4337 Z6.88
X10.496 Y-0.4314 Z6.8802
X10.4922 Y-0.4291 Z6.8803
X10.4884 Y-0.4265 Z6.8804
X10.4845 Y-0.4235 Z6.8806
X10.4811 Y-0.4204 Z6.8807
X10.4778 Y-0.4171 Z6.8808
X10.4747 Y-0.4134 Z6.8809
X10.4719 Y-0.4096 Z6.881
X10.4694 Y-0.4055 Z6.8811
X10.4671 Y-0.4012 Z6.8812
X10.4652 Y-0.3967 Z6.8813
X10.4639 Y-0.3929
X10.4629 Y-0.3891
X10.4622 Y-0.3854 Z6.8814
X10.4617 Y-0.3816
X10.4614 Y-0.3764
X10.4613 Y-0.3738
X10.4617 Y-0.3681
X10.4621 Y-0.3643
X10.4628 Y-0.3609 Z6.8813
X10.4636 Y-0.3578
X10.4645 Y-0.355
X10.4658 Y-0.3512 Z6.8812
X10.4677 Y-0.3469
X10.4698 Y-0.3427 Z6.8811
X10.4718 Y-0.3393 Z6.881
X10.4739 Y-0.3361 Z6.8809
X10.4764 Y-0.3329
X10.4785 Y-0.3305 Z6.8808
X10.4807 Y-0.3282 Z6.8807
X10.484 Y-0.3253 Z6.8806
X10.5676 Y-0.2565 Z6.8776
X10.5727 Y-0.2518 Z6.8775
X10.5756 Y-0.2488 Z6.8774
X10.5789 Y-0.2451 Z6.8773
X10.5821 Y-0.241 Z6.8772
X10.5852 Y-0.2366 Z6.8771
X10.588 Y-0.2323 Z6.877
X10.5905 Y-0.2279 Z6.8769
X10.5928 Y-0.2234 Z6.8768
X10.5948 Y-0.2187 Z6.8767
X10.5965 Y-0.2143
X10.5979 Y-0.2099 Z6.8766
X10.5991 Y-0.2053
X10.6001 Y-0.2009
X10.6008 Y-0.1965
X10.6013 Y-0.1918 Z6.8765
X10.6017 Y-0.1843
Y-0.1732
Y-0.165
X10.5394 Z6.8786
X10.4578 Z6.8815
Z6.8715 F1.
X10.5394 Z6.8686 F3.
X10.6017 Z6.8665
Y-0.1732
Y-0.1843
X10.6013 Y-0.1918
X10.6008 Y-0.1965 Z6.8666
X10.6001 Y-0.2009
X10.5991 Y-0.2053
X10.5979 Y-0.2099
X10.5965 Y-0.2143 Z6.8667
X10.5948 Y-0.2187
X10.5928 Y-0.2234 Z6.8668
X10.5905 Y-0.2279 Z6.8669
X10.588 Y-0.2323 Z6.867
X10.5852 Y-0.2366 Z6.8671
X10.5821 Y-0.241 Z6.8672
X10.5789 Y-0.2451 Z6.8673
X10.5756 Y-0.2488 Z6.8674
X10.5727 Y-0.2518 Z6.8675
X10.5676 Y-0.2565 Z6.8676
X10.484 Y-0.3253 Z6.8706
X10.4807 Y-0.3282 Z6.8707
X10.4785 Y-0.3305 Z6.8708
X10.4764 Y-0.3329 Z6.8709
X10.4739 Y-0.3361
X10.4718 Y-0.3393 Z6.871
X10.4698 Y-0.3427 Z6.8711
X10.4677 Y-0.3469 Z6.8712
X10.4658 Y-0.3512
X10.4645 Y-0.355 Z6.8713
X10.4636 Y-0.3578
X10.4628 Y-0.3609
X10.4621 Y-0.3643 Z6.8714
X10.4617 Y-0.3681
X10.4613 Y-0.3738
X10.4614 Y-0.3764
X10.4617 Y-0.3816
X10.4622 Y-0.3854
X10.4629 Y-0.3891 Z6.8713
X10.4639 Y-0.3929
X10.4652 Y-0.3967
X10.4671 Y-0.4012 Z6.8712
X10.4694 Y-0.4055 Z6.8711
X10.4719 Y-0.4096 Z6.871
X10.4747 Y-0.4134 Z6.8709
X10.4778 Y-0.4171 Z6.8708
X10.4811 Y-0.4204 Z6.8707
X10.4845 Y-0.4235 Z6.8706
X10.4884 Y-0.4265 Z6.8704
X10.4922 Y-0.4291 Z6.8703
X10.496 Y-0.4314 Z6.8702
X10.5004 Y-0.4337 Z6.87
X10.5047 Y-0.4355 Z6.8698
X10.5092 Y-0.4372 Z6.8697
X10.5142 Y-0.4387 Z6.8695
X10.5192 Y-0.44 Z6.8693
X10.5243 Y-0.441 Z6.8691
X10.5291 Y-0.4416 Z6.869
X10.5334 Y-0.442 Z6.8688
X10.5394 Y-0.4422 Z6.8686
X10.5447 Y-0.4421 Z6.8684
X10.55 Y-0.4417 Z6.8682
X10.5561 Y-0.441 Z6.868
X10.5624 Y-0.44 Z6.8678
X10.5679 Y-0.4388 Z6.8676
X10.5723 Y-0.4376 Z6.8675
X10.5763 Y-0.4363 Z6.8673
X10.58 Y-0.4348 Z6.8672
X10.5835 Y-0.4331 Z6.8671
X10.5891 Y-0.43 Z6.8669
X10.5929 Y-0.428 Z6.8668
X10.5965 Y-0.4256 Z6.8667
X10.6007 Y-0.4226 Z6.8666
Z6.8566 F1.
X10.5965 Y-0.4256 Z6.8567 F3.
X10.5929 Y-0.428 Z6.8568
X10.5891 Y-0.43 Z6.8569
X10.5835 Y-0.4331 Z6.8571
X10.58 Y-0.4348 Z6.8572
X10.5763 Y-0.4363 Z6.8573
X10.5723 Y-0.4376 Z6.8575
X10.5679 Y-0.4388 Z6.8576
X10.5624 Y-0.44 Z6.8578
X10.5561 Y-0.441 Z6.858
X10.55 Y-0.4417 Z6.8582
X10.5447 Y-0.4421 Z6.8584
X10.5394 Y-0.4422 Z6.8586
X10.5334 Y-0.442 Z6.8588
X10.5291 Y-0.4416 Z6.859
X10.5243 Y-0.441 Z6.8591
X10.5192 Y-0.44 Z6.8593
X10.5142 Y-0.4387 Z6.8595
X10.5092 Y-0.4372 Z6.8597
X10.5047 Y-0.4355 Z6.8598
X10.5004 Y-0.4337 Z6.86
X10.496 Y-0.4314 Z6.8602
X10.4922 Y-0.4291 Z6.8603
X10.4884 Y-0.4265 Z6.8604
X10.4845 Y-0.4235 Z6.8606
X10.4811 Y-0.4204 Z6.8607
X10.4778 Y-0.4171 Z6.8608
X10.4747 Y-0.4134 Z6.8609
X10.4719 Y-0.4096 Z6.861
X10.4694 Y-0.4055 Z6.8611
X10.4671 Y-0.4012 Z6.8612
X10.4652 Y-0.3967 Z6.8613
X10.4639 Y-0.3929
X10.4629 Y-0.3891
X10.4622 Y-0.3854 Z6.8614
X10.4617 Y-0.3816
X10.4614 Y-0.3764
X10.4613 Y-0.3738
X10.4617 Y-0.3681
X10.4621 Y-0.3643
X10.4628 Y-0.3609 Z6.8613
X10.4636 Y-0.3578
X10.4645 Y-0.355
X10.4658 Y-0.3512 Z6.8612
X10.4677 Y-0.3469
X10.4698 Y-0.3427 Z6.8611
X10.4718 Y-0.3393 Z6.861
X10.4739 Y-0.3361 Z6.8609
X10.4764 Y-0.3329
X10.4785 Y-0.3305 Z6.8608
X10.4807 Y-0.3282 Z6.8607
X10.484 Y-0.3253 Z6.8606
X10.5676 Y-0.2565 Z6.8576
X10.5727 Y-0.2518 Z6.8575
X10.5756 Y-0.2488 Z6.8574
X10.5789 Y-0.2451 Z6.8573
X10.5821 Y-0.241 Z6.8572
X10.5852 Y-0.2366 Z6.8571
X10.588 Y-0.2323 Z6.857
X10.5905 Y-0.2279 Z6.8569
X10.5928 Y-0.2234 Z6.8568
X10.5948 Y-0.2187 Z6.8567
X10.5965 Y-0.2143
X10.5979 Y-0.2099 Z6.8566
X10.5991 Y-0.2053
X10.6001 Y-0.2009
X10.6008 Y-0.1965
X10.6013 Y-0.1918 Z6.8565
X10.6017 Y-0.1843
Y-0.1732
Y-0.165
X10.5394 Z6.8586
X10.4578 Z6.8615
Z6.8515 F1.
X10.5394 Z6.8486 F3.
X10.6017 Z6.8465
Y-0.1732
Y-0.1843
X10.6013 Y-0.1918
X10.6008 Y-0.1965 Z6.8466
X10.6001 Y-0.2009
X10.5991 Y-0.2053
X10.5979 Y-0.2099
X10.5965 Y-0.2143 Z6.8467
X10.5948 Y-0.2187
X10.5928 Y-0.2234 Z6.8468
X10.5905 Y-0.2279 Z6.8469
X10.588 Y-0.2323 Z6.847
X10.5852 Y-0.2366 Z6.8471
X10.5821 Y-0.241 Z6.8472
X10.5789 Y-0.2451 Z6.8473
X10.5756 Y-0.2488 Z6.8474
X10.5727 Y-0.2518 Z6.8475
X10.5676 Y-0.2565 Z6.8476
X10.484 Y-0.3253 Z6.8506
X10.4807 Y-0.3282 Z6.8507
X10.4785 Y-0.3305 Z6.8508
X10.4764 Y-0.3329 Z6.8509
X10.4739 Y-0.3361
X10.4718 Y-0.3393 Z6.851
X10.4698 Y-0.3427 Z6.8511
X10.4677 Y-0.3469 Z6.8512
X10.4658 Y-0.3512
X10.4645 Y-0.355 Z6.8513
X10.4636 Y-0.3578
X10.4628 Y-0.3609
X10.4621 Y-0.3643 Z6.8514
X10.4617 Y-0.3681
X10.4613 Y-0.3738
X10.4614 Y-0.3764
X10.4617 Y-0.3816
X10.4622 Y-0.3854
X10.4629 Y-0.3891 Z6.8513
X10.4639 Y-0.3929
X10.4652 Y-0.3967
X10.4671 Y-0.4012 Z6.8512
X10.4694 Y-0.4055 Z6.8511
X10.4719 Y-0.4096 Z6.851
X10.4747 Y-0.4134 Z6.8509
X10.4778 Y-0.4171 Z6.8508
X10.4811 Y-0.4204 Z6.8507
X10.4845 Y-0.4235 Z6.8506
X10.4884 Y-0.4265 Z6.8504
X10.4922 Y-0.4291 Z6.8503
X10.496 Y-0.4314 Z6.8502
X10.5004 Y-0.4337 Z6.85
X10.5047 Y-0.4355 Z6.8498
X10.5092 Y-0.4372 Z6.8497
X10.5142 Y-0.4387 Z6.8495
X10.5192 Y-0.44 Z6.8493
X10.5243 Y-0.441 Z6.8491
X10.5291 Y-0.4416 Z6.849
X10.5334 Y-0.442 Z6.8488
X10.5394 Y-0.4422 Z6.8486
X10.5447 Y-0.4421 Z6.8484
X10.55 Y-0.4417 Z6.8482
X10.5561 Y-0.441 Z6.848
X10.5624 Y-0.44 Z6.8478
X10.5679 Y-0.4388 Z6.8476
X10.5723 Y-0.4376 Z6.8475
X10.5763 Y-0.4363 Z6.8473
X10.58 Y-0.4348 Z6.8472
X10.5835 Y-0.4331 Z6.8471
X10.5891 Y-0.43 Z6.8469
X10.5929 Y-0.428 Z6.8468
X10.5965 Y-0.4256 Z6.8467
X10.6007 Y-0.4226 Z6.8466
G0 Z7.3559
X10.2807
Z6.9653
G1 Z6.8887 F1.
X10.2764 Y-0.4256 Z6.8889 F3.
X10.2729 Y-0.4279 Z6.8891
X10.2691 Y-0.43 Z6.8892
X10.2634 Y-0.4331 Z6.8895
X10.26 Y-0.4348 Z6.8896
X10.2563 Y-0.4363 Z6.8898
X10.2523 Y-0.4376 Z6.89
X10.2479 Y-0.4388 Z6.8901
X10.2425 Y-0.44 Z6.8904
X10.2361 Y-0.441 Z6.8907
X10.2299 Y-0.4417 Z6.8909
X10.2247 Y-0.4421 Z6.8912
X10.2194 Y-0.4422 Z6.8914
X10.2134 Y-0.442 Z6.8917
X10.2091 Y-0.4416 Z6.8919
X10.2042 Y-0.441 Z6.8921
X10.1992 Y-0.44 Z6.8924
X10.1941 Y-0.4387 Z6.8926
X10.1892 Y-0.4372 Z6.8928
X10.1847 Y-0.4355 Z6.8931
X10.1804 Y-0.4337 Z6.8933
X10.176 Y-0.4314 Z6.8935
X10.1722 Y-0.4291 Z6.8936
X10.1683 Y-0.4265 Z6.8938
X10.1645 Y-0.4235 Z6.894
X10.161 Y-0.4204 Z6.8942
X10.1578 Y-0.4171 Z6.8943
X10.1547 Y-0.4134 Z6.8945
X10.1519 Y-0.4096 Z6.8946
X10.1493 Y-0.4055 Z6.8947
X10.1471 Y-0.4012 Z6.8948
X10.1452 Y-0.3967 Z6.8949
X10.1439 Y-0.3929 Z6.895
X10.1429 Y-0.3891
X10.1421 Y-0.3854 Z6.8951
X10.1416 Y-0.3816
X10.1413 Y-0.3765
Y-0.3739
X10.1416 Y-0.3682
X10.142 Y-0.3647
X10.1426 Y-0.3619 Z6.895
X10.1432 Y-0.359
X10.1442 Y-0.3556
X10.1458 Y-0.3513 Z6.8949
X10.1476 Y-0.347 Z6.8948
X10.1498 Y-0.3427 Z6.8947
X10.1517 Y-0.3393 Z6.8946
X10.1539 Y-0.3361 Z6.8945
X10.1563 Y-0.333 Z6.8944
X10.1584 Y-0.3305 Z6.8943
X10.1607 Y-0.3282 Z6.8942
X10.1639 Y-0.3254 Z6.894
X10.2476 Y-0.2565 Z6.8902
X10.2526 Y-0.2518 Z6.8899
X10.2555 Y-0.2488 Z6.8898
X10.2588 Y-0.2451 Z6.8897
X10.2621 Y-0.241 Z6.8895
X10.2651 Y-0.2367 Z6.8894
X10.2679 Y-0.2323 Z6.8893
X10.2704 Y-0.2279 Z6.8892
X10.2727 Y-0.2235 Z6.8891
X10.2748 Y-0.2187 Z6.889
X10.2765 Y-0.2143 Z6.8889
X10.2779 Y-0.2099 Z6.8888
X10.2791 Y-0.2053
X10.28 Y-0.2009
X10.2807 Y-0.1965 Z6.8887
X10.2812 Y-0.1918
X10.2816 Y-0.1843
Y-0.1733
Y-0.165
X10.2152 Z6.8916
X10.1378 Z6.8953
Z6.8853 F1.
X10.2152 Z6.8816 F3.
X10.2816 Z6.8787
Y-0.1733
Y-0.1843
X10.2812 Y-0.1918
X10.2807 Y-0.1965
X10.28 Y-0.2009 Z6.8788
X10.2791 Y-0.2053
X10.2779 Y-0.2099
X10.2765 Y-0.2143 Z6.8789
X10.2748 Y-0.2187 Z6.879
X10.2727 Y-0.2235 Z6.8791
X10.2704 Y-0.2279 Z6.8792
X10.2679 Y-0.2323 Z6.8793
X10.2651 Y-0.2367 Z6.8794
X10.2621 Y-0.241 Z6.8795
X10.2588 Y-0.2451 Z6.8797
X10.2555 Y-0.2488 Z6.8798
X10.2526 Y-0.2518 Z6.8799
X10.2476 Y-0.2565 Z6.8802
X10.1639 Y-0.3254 Z6.884
X10.1607 Y-0.3282 Z6.8842
X10.1584 Y-0.3305 Z6.8843
X10.1563 Y-0.333 Z6.8844
X10.1539 Y-0.3361 Z6.8845
X10.1517 Y-0.3393 Z6.8846
X10.1498 Y-0.3427 Z6.8847
X10.1476 Y-0.347 Z6.8848
X10.1458 Y-0.3513 Z6.8849
X10.1442 Y-0.3556 Z6.885
X10.1432 Y-0.359
X10.1426 Y-0.3619
X10.142 Y-0.3647 Z6.8851
X10.1416 Y-0.3682
X10.1413 Y-0.3739
Y-0.3765
X10.1416 Y-0.3816
X10.1421 Y-0.3854
X10.1429 Y-0.3891 Z6.885
X10.1439 Y-0.3929
X10.1452 Y-0.3967 Z6.8849
X10.1471 Y-0.4012 Z6.8848
X10.1493 Y-0.4055 Z6.8847
X10.1519 Y-0.4096 Z6.8846
X10.1547 Y-0.4134 Z6.8845
X10.1578 Y-0.4171 Z6.8843
X10.161 Y-0.4204 Z6.8842
X10.1645 Y-0.4235 Z6.884
X10.1683 Y-0.4265 Z6.8838
X10.1722 Y-0.4291 Z6.8836
X10.176 Y-0.4314 Z6.8835
X10.1804 Y-0.4337 Z6.8833
X10.1847 Y-0.4355 Z6.8831
X10.1892 Y-0.4372 Z6.8828
X10.1941 Y-0.4387 Z6.8826
X10.1992 Y-0.44 Z6.8824
X10.2042 Y-0.441 Z6.8821
X10.2091 Y-0.4416 Z6.8819
X10.2134 Y-0.442 Z6.8817
X10.2194 Y-0.4422 Z6.8814
X10.2247 Y-0.4421 Z6.8812
X10.2299 Y-0.4417 Z6.8809
X10.2361 Y-0.441 Z6.8807
X10.2425 Y-0.44 Z6.8804
X10.2479 Y-0.4388 Z6.8801
X10.2523 Y-0.4376 Z6.88
X10.2563 Y-0.4363 Z6.8798
X10.26 Y-0.4348 Z6.8796
X10.2634 Y-0.4331 Z6.8795
X10.2691 Y-0.43 Z6.8792
X10.2729 Y-0.4279 Z6.8791
X10.2764 Y-0.4256 Z6.8789
X10.2807 Y-0.4226 Z6.8787
Z6.8687 F1.
X10.2764 Y-0.4256 Z6.8689 F3.
X10.2729 Y-0.4279 Z6.8691
X10.2691 Y-0.43 Z6.8692
X10.2634 Y-0.4331 Z6.8695
X10.26 Y-0.4348 Z6.8696
X10.2563 Y-0.4363 Z6.8698
X10.2523 Y-0.4376 Z6.87
X10.2479 Y-0.4388 Z6.8701
X10.2425 Y-0.44 Z6.8704
X10.2361 Y-0.441 Z6.8707
X10.2299 Y-0.4417 Z6.8709
X10.2247 Y-0.4421 Z6.8712
X10.2194 Y-0.4422 Z6.8714
X10.2134 Y-0.442 Z6.8717
X10.2091 Y-0.4416 Z6.8719
X10.2042 Y-0.441 Z6.8721
X10.1992 Y-0.44 Z6.8724
X10.1941 Y-0.4387 Z6.8726
X10.1892 Y-0.4372 Z6.8728
X10.1847 Y-0.4355 Z6.8731
X10.1804 Y-0.4337 Z6.8733
X10.176 Y-0.4314 Z6.8735
X10.1722 Y-0.4291 Z6.8736
X10.1683 Y-0.4265 Z6.8738
X10.1645 Y-0.4235 Z6.874
X10.161 Y-0.4204 Z6.8742
X10.1578 Y-0.4171 Z6.8743
X10.1547 Y-0.4134 Z6.8745
X10.1519 Y-0.4096 Z6.8746
X10.1493 Y-0.4055 Z6.8747
X10.1471 Y-0.4012 Z6.8748
X10.1452 Y-0.3967 Z6.8749
X10.1439 Y-0.3929 Z6.875
X10.1429 Y-0.3891
X10.1421 Y-0.3854 Z6.8751
X10.1416 Y-0.3816
X10.1413 Y-0.3765
Y-0.3739
X10.1416 Y-0.3682
X10.142 Y-0.3647
X10.1426 Y-0.3619 Z6.875
X10.1432 Y-0.359
X10.1442 Y-0.3556
X10.1458 Y-0.3513 Z6.8749
X10.1476 Y-0.347 Z6.8748
X10.1498 Y-0.3427 Z6.8747
X10.1517 Y-0.3393 Z6.8746
X10.1539 Y-0.3361 Z6.8745
X10.1563 Y-0.333 Z6.8744
X10.1584 Y-0.3305 Z6.8743
X10.1607 Y-0.3282 Z6.8742
X10.1639 Y-0.3254 Z6.874
X10.2476 Y-0.2565 Z6.8702
X10.2526 Y-0.2518 Z6.8699
X10.2555 Y-0.2488 Z6.8698
X10.2588 Y-0.2451 Z6.8697
X10.2621 Y-0.241 Z6.8695
X10.2651 Y-0.2367 Z6.8694
X10.2679 Y-0.2323 Z6.8693
X10.2704 Y-0.2279 Z6.8692
X10.2727 Y-0.2235 Z6.8691
X10.2748 Y-0.2187 Z6.869
X10.2765 Y-0.2143 Z6.8689
X10.2779 Y-0.2099 Z6.8688
X10.2791 Y-0.2053
X10.28 Y-0.2009
X10.2807 Y-0.1965 Z6.8687
X10.2812 Y-0.1918
X10.2816 Y-0.1843
Y-0.1733
Y-0.165
X10.2152 Z6.8716
X10.1378 Z6.8753
Z6.8653 F1.
X10.2152 Z6.8616 F3.
X10.2816 Z6.8587
Y-0.1733
Y-0.1843
X10.2812 Y-0.1918
X10.2807 Y-0.1965
X10.28 Y-0.2009 Z6.8588
X10.2791 Y-0.2053
X10.2779 Y-0.2099
X10.2765 Y-0.2143 Z6.8589
X10.2748 Y-0.2187 Z6.859
X10.2727 Y-0.2235 Z6.8591
X10.2704 Y-0.2279 Z6.8592
X10.2679 Y-0.2323 Z6.8593
X10.2651 Y-0.2367 Z6.8594
X10.2621 Y-0.241 Z6.8595
X10.2588 Y-0.2451 Z6.8597
X10.2555 Y-0.2488 Z6.8598
X10.2526 Y-0.2518 Z6.8599
X10.2476 Y-0.2565 Z6.8602
X10.1639 Y-0.3254 Z6.864
X10.1607 Y-0.3282 Z6.8642
X10.1584 Y-0.3305 Z6.8643
X10.1563 Y-0.333 Z6.8644
X10.1539 Y-0.3361 Z6.8645
X10.1517 Y-0.3393 Z6.8646
X10.1498 Y-0.3427 Z6.8647
X10.1476 Y-0.347 Z6.8648
X10.1458 Y-0.3513 Z6.8649
X10.1442 Y-0.3556 Z6.865
X10.1432 Y-0.359
X10.1426 Y-0.3619
X10.142 Y-0.3647 Z6.8651
X10.1416 Y-0.3682
X10.1413 Y-0.3739
Y-0.3765
X10.1416 Y-0.3816
X10.1421 Y-0.3854
X10.1429 Y-0.3891 Z6.865
X10.1439 Y-0.3929
X10.1452 Y-0.3967 Z6.8649
X10.1471 Y-0.4012 Z6.8648
X10.1493 Y-0.4055 Z6.8647
X10.1519 Y-0.4096 Z6.8646
X10.1547 Y-0.4134 Z6.8645
X10.1578 Y-0.4171 Z6.8643
X10.161 Y-0.4204 Z6.8642
X10.1645 Y-0.4235 Z6.864
X10.1683 Y-0.4265 Z6.8638
X10.1722 Y-0.4291 Z6.8636
X10.176 Y-0.4314 Z6.8635
X10.1804 Y-0.4337 Z6.8633
X10.1847 Y-0.4355 Z6.8631
X10.1892 Y-0.4372 Z6.8628
X10.1941 Y-0.4387 Z6.8626
X10.1992 Y-0.44 Z6.8624
X10.2042 Y-0.441 Z6.8621
X10.2091 Y-0.4416 Z6.8619
X10.2134 Y-0.442 Z6.8617
X10.2194 Y-0.4422 Z6.8614
X10.2247 Y-0.4421 Z6.8612
X10.2299 Y-0.4417 Z6.8609
X10.2361 Y-0.441 Z6.8607
X10.2425 Y-0.44 Z6.8604
X10.2479 Y-0.4388 Z6.8601
X10.2523 Y-0.4376 Z6.86
X10.2563 Y-0.4363 Z6.8598
X10.26 Y-0.4348 Z6.8596
X10.2634 Y-0.4331 Z6.8595
X10.2691 Y-0.43 Z6.8592
X10.2729 Y-0.4279 Z6.8591
X10.2764 Y-0.4256 Z6.8589
X10.2807 Y-0.4226 Z6.8587
G0 Z7.3559
X9.9606
Z6.9813
G1 Z6.9044 F1.
X9.9564 Y-0.4256 Z6.9046 F3.
X9.9528 Y-0.4279 Z6.9048
X9.9491 Y-0.43 Z6.905
X9.9434 Y-0.4331 Z6.9053
X9.9399 Y-0.4348 Z6.9055
X9.9363 Y-0.4362 Z6.9057
X9.9323 Y-0.4376 Z6.9059
X9.9279 Y-0.4388 Z6.9062
X9.9226 Y-0.4399 Z6.9064
X9.9162 Y-0.441 Z6.9068
X9.9099 Y-0.4417 Z6.9071
X9.9047 Y-0.4421 Z6.9074
X9.8993 Y-0.4422 Z6.9077
X9.8934 Y-0.442 Z6.9081
X9.8891 Y-0.4416 Z6.9083
X9.8842 Y-0.441 Z6.9086
X9.8792 Y-0.44 Z6.9089
X9.8741 Y-0.4387 Z6.9092
X9.8692 Y-0.4372 Z6.9095
X9.8647 Y-0.4356 Z6.9098
X9.8604 Y-0.4337 Z6.91
X9.856 Y-0.4314 Z6.9103
X9.8521 Y-0.4291 Z6.9105
X9.8483 Y-0.4266 Z6.9107
X9.8445 Y-0.4235 Z6.9109
X9.841 Y-0.4204 Z6.9111
X9.8377 Y-0.4171 Z6.9113
X9.8346 Y-0.4134 Z6.9115
X9.8318 Y-0.4096 Z6.9117
X9.8293 Y-0.4055 Z6.9118
X9.8271 Y-0.4012 Z6.9119
X9.8251 Y-0.3967 Z6.912
X9.8238 Y-0.3929 Z6.9121
X9.8228 Y-0.3892 Z6.9122
X9.8221 Y-0.3854
X9.8216 Y-0.3816 Z6.9123
X9.8213 Y-0.3766
X9.8212 Y-0.3739
X9.8216 Y-0.3683
X9.822 Y-0.3651 Z6.9122
X9.8224 Y-0.3623
X9.8231 Y-0.3592
X9.8242 Y-0.3557 Z6.9121
X9.8257 Y-0.3513 Z6.912
X9.8276 Y-0.347 Z6.9119
X9.8297 Y-0.3427 Z6.9118
X9.8317 Y-0.3394 Z6.9117
X9.8338 Y-0.3362 Z6.9115
X9.8363 Y-0.333 Z6.9114
X9.8384 Y-0.3306 Z6.9113
X9.8406 Y-0.3282 Z6.9112
X9.8438 Y-0.3254 Z6.911
X9.9263 Y-0.2575 Z6.9062
X9.9287 Y-0.2555 Z6.9061
X9.9331 Y-0.2512 Z6.9059
X9.9357 Y-0.2486 Z6.9057
X9.9388 Y-0.2451 Z6.9056
X9.9421 Y-0.241 Z6.9054
X9.9451 Y-0.2367 Z6.9052
X9.9479 Y-0.2323 Z6.9051
X9.9504 Y-0.228 Z6.9049
X9.9527 Y-0.2235 Z6.9048
X9.9547 Y-0.2188 Z6.9047
X9.9564 Y-0.2143 Z6.9046
X9.9579 Y-0.2099 Z6.9045
X9.9591 Y-0.2053
X9.96 Y-0.2009 Z6.9044
X9.9607 Y-0.1965
X9.9612 Y-0.1918
X9.9616 Y-0.1843 Z6.9043
Y-0.1733
Y-0.165
X9.8909 Z6.9082
X9.8178 Z6.9125
Z6.9025 F1.
X9.8909 Z6.8982 F3.
X9.9616 Z6.8943
Y-0.1733
Y-0.1843
X9.9612 Y-0.1918 Z6.8944
X9.9607 Y-0.1965
X9.96 Y-0.2009
X9.9591 Y-0.2053 Z6.8945
X9.9579 Y-0.2099
X9.9564 Y-0.2143 Z6.8946
X9.9547 Y-0.2188 Z6.8947
X9.9527 Y-0.2235 Z6.8948
X9.9504 Y-0.228 Z6.8949
X9.9479 Y-0.2323 Z6.8951
X9.9451 Y-0.2367 Z6.8952
X9.9421 Y-0.241 Z6.8954
X9.9388 Y-0.2451 Z6.8956
X9.9357 Y-0.2486 Z6.8957
X9.9331 Y-0.2512 Z6.8959
X9.9287 Y-0.2555 Z6.8961
X9.9263 Y-0.2575 Z6.8962
X9.8438 Y-0.3254 Z6.901
X9.8406 Y-0.3282 Z6.9012
X9.8384 Y-0.3306 Z6.9013
X9.8363 Y-0.333 Z6.9014
X9.8338 Y-0.3362 Z6.9015
X9.8317 Y-0.3394 Z6.9017
X9.8297 Y-0.3427 Z6.9018
X9.8276 Y-0.347 Z6.9019
X9.8257 Y-0.3513 Z6.902
X9.8242 Y-0.3557 Z6.9021
X9.8231 Y-0.3592 Z6.9022
X9.8224 Y-0.3623
X9.822 Y-0.3651
X9.8216 Y-0.3683 Z6.9023
X9.8212 Y-0.3739
X9.8213 Y-0.3766
X9.8216 Y-0.3816
X9.8221 Y-0.3854 Z6.9022
X9.8228 Y-0.3892
X9.8238 Y-0.3929 Z6.9021
X9.8251 Y-0.3967 Z6.902
X9.8271 Y-0.4012 Z6.9019
X9.8293 Y-0.4055 Z6.9018
X9.8318 Y-0.4096 Z6.9017
X9.8346 Y-0.4134 Z6.9015
X9.8377 Y-0.4171 Z6.9013
X9.841 Y-0.4204 Z6.9011
X9.8445 Y-0.4235 Z6.9009
X9.8483 Y-0.4266 Z6.9007
X9.8521 Y-0.4291 Z6.9005
X9.856 Y-0.4314 Z6.9003
X9.8604 Y-0.4337 Z6.9
X9.8647 Y-0.4356 Z6.8998
X9.8692 Y-0.4372 Z6.8995
X9.8741 Y-0.4387 Z6.8992
X9.8792 Y-0.44 Z6.8989
X9.8842 Y-0.441 Z6.8986
X9.8891 Y-0.4416 Z6.8983
X9.8934 Y-0.442 Z6.8981
X9.8993 Y-0.4422 Z6.8977
X9.9047 Y-0.4421 Z6.8974
X9.9099 Y-0.4417 Z6.8971
X9.9162 Y-0.441 Z6.8968
X9.9226 Y-0.4399 Z6.8964
X9.9279 Y-0.4388 Z6.8962
X9.9323 Y-0.4376 Z6.8959
X9.9363 Y-0.4362 Z6.8957
X9.9399 Y-0.4348 Z6.8955
X9.9434 Y-0.4331 Z6.8953
X9.9491 Y-0.43 Z6.895
X9.9528 Y-0.4279 Z6.8948
X9.9564 Y-0.4256 Z6.8946
X9.9606 Y-0.4226 Z6.8944
Z6.8844 F1.
X9.9564 Y-0.4256 Z6.8846 F3.
X9.9528 Y-0.4279 Z6.8848
X9.9491 Y-0.43 Z6.885
X9.9434 Y-0.4331 Z6.8853
X9.9399 Y-0.4348 Z6.8855
X9.9363 Y-0.4362 Z6.8857
X9.9323 Y-0.4376 Z6.8859
X9.9279 Y-0.4388 Z6.8862
X9.9226 Y-0.4399 Z6.8864
X9.9162 Y-0.441 Z6.8868
X9.9099 Y-0.4417 Z6.8871
X9.9047 Y-0.4421 Z6.8874
X9.8993 Y-0.4422 Z6.8877
X9.8934 Y-0.442 Z6.8881
X9.8891 Y-0.4416 Z6.8883
X9.8842 Y-0.441 Z6.8886
X9.8792 Y-0.44 Z6.8889
X9.8741 Y-0.4387 Z6.8892
X9.8692 Y-0.4372 Z6.8895
X9.8647 Y-0.4356 Z6.8898
X9.8604 Y-0.4337 Z6.89
X9.856 Y-0.4314 Z6.8903
X9.8521 Y-0.4291 Z6.8905
X9.8483 Y-0.4266 Z6.8907
X9.8445 Y-0.4235 Z6.8909
X9.841 Y-0.4204 Z6.8911
X9.8377 Y-0.4171 Z6.8913
X9.8346 Y-0.4134 Z6.8915
X9.8318 Y-0.4096 Z6.8917
X9.8293 Y-0.4055 Z6.8918
X9.8271 Y-0.4012 Z6.8919
X9.8251 Y-0.3967 Z6.892
X9.8238 Y-0.3929 Z6.8921
X9.8228 Y-0.3892 Z6.8922
X9.8221 Y-0.3854
X9.8216 Y-0.3816 Z6.8923
X9.8213 Y-0.3766
X9.8212 Y-0.3739
X9.8216 Y-0.3683
X9.822 Y-0.3651 Z6.8922
X9.8224 Y-0.3623
X9.8231 Y-0.3592
X9.8242 Y-0.3557 Z6.8921
X9.8257 Y-0.3513 Z6.892
X9.8276 Y-0.347 Z6.8919
X9.8297 Y-0.3427 Z6.8918
X9.8317 Y-0.3394 Z6.8917
X9.8338 Y-0.3362 Z6.8915
X9.8363 Y-0.333 Z6.8914
X9.8384 Y-0.3306 Z6.8913
X9.8406 Y-0.3282 Z6.8912
X9.8438 Y-0.3254 Z6.891
X9.9263 Y-0.2575 Z6.8862
X9.9287 Y-0.2555 Z6.8861
X9.9331 Y-0.2512 Z6.8859
X9.9357 Y-0.2486 Z6.8857
X9.9388 Y-0.2451 Z6.8856
X9.9421 Y-0.241 Z6.8854
X9.9451 Y-0.2367 Z6.8852
X9.9479 Y-0.2323 Z6.8851
X9.9504 Y-0.228 Z6.8849
X9.9527 Y-0.2235 Z6.8848
X9.9547 Y-0.2188 Z6.8847
X9.9564 Y-0.2143 Z6.8846
X9.9579 Y-0.2099 Z6.8845
X9.9591 Y-0.2053
X9.96 Y-0.2009 Z6.8844
X9.9607 Y-0.1965
X9.9612 Y-0.1918
X9.9616 Y-0.1843 Z6.8843
Y-0.1733
Y-0.165
X9.8909 Z6.8882
X9.8178 Z6.8925
Z6.8825 F1.
X9.8909 Z6.8782 F3.
X9.9616 Z6.8743
Y-0.1733
Y-0.1843
X9.9612 Y-0.1918 Z6.8744
X9.9607 Y-0.1965
X9.96 Y-0.2009
X9.9591 Y-0.2053 Z6.8745
X9.9579 Y-0.2099
X9.9564 Y-0.2143 Z6.8746
X9.9547 Y-0.2188 Z6.8747
X9.9527 Y-0.2235 Z6.8748
X9.9504 Y-0.228 Z6.8749
X9.9479 Y-0.2323 Z6.8751
X9.9451 Y-0.2367 Z6.8752
X9.9421 Y-0.241 Z6.8754
X9.9388 Y-0.2451 Z6.8756
X9.9357 Y-0.2486 Z6.8757
X9.9331 Y-0.2512 Z6.8759
X9.9287 Y-0.2555 Z6.8761
X9.9263 Y-0.2575 Z6.8762
X9.8438 Y-0.3254 Z6.881
X9.8406 Y-0.3282 Z6.8812
X9.8384 Y-0.3306 Z6.8813
X9.8363 Y-0.333 Z6.8814
X9.8338 Y-0.3362 Z6.8815
X9.8317 Y-0.3394 Z6.8817
X9.8297 Y-0.3427 Z6.8818
X9.8276 Y-0.347 Z6.8819
X9.8257 Y-0.3513 Z6.882
X9.8242 Y-0.3557 Z6.8821
X9.8231 Y-0.3592 Z6.8822
X9.8224 Y-0.3623
X9.822 Y-0.3651
X9.8216 Y-0.3683 Z6.8823
X9.8212 Y-0.3739
X9.8213 Y-0.3766
X9.8216 Y-0.3816
X9.8221 Y-0.3854 Z6.8822
X9.8228 Y-0.3892
X9.8238 Y-0.3929 Z6.8821
X9.8251 Y-0.3967 Z6.882
X9.8271 Y-0.4012 Z6.8819
X9.8293 Y-0.4055 Z6.8818
X9.8318 Y-0.4096 Z6.8817
X9.8346 Y-0.4134 Z6.8815
X9.8377 Y-0.4171 Z6.8813
X9.841 Y-0.4204 Z6.8811
X9.8445 Y-0.4235 Z6.8809
X9.8483 Y-0.4266 Z6.8807
X9.8521 Y-0.4291 Z6.8805
X9.856 Y-0.4314 Z6.8803
X9.8604 Y-0.4337 Z6.88
X9.8647 Y-0.4356 Z6.8798
X9.8692 Y-0.4372 Z6.8795
X9.8741 Y-0.4387 Z6.8792
X9.8792 Y-0.44 Z6.8789
X9.8842 Y-0.441 Z6.8786
X9.8891 Y-0.4416 Z6.8783
X9.8934 Y-0.442 Z6.8781
X9.8993 Y-0.4422 Z6.8777
X9.9047 Y-0.4421 Z6.8774
X9.9099 Y-0.4417 Z6.8771
X9.9162 Y-0.441 Z6.8768
X9.9226 Y-0.4399 Z6.8764
X9.9279 Y-0.4388 Z6.8762
X9.9323 Y-0.4376 Z6.8759
X9.9363 Y-0.4362 Z6.8757
X9.9399 Y-0.4348 Z6.8755
X9.9434 Y-0.4331 Z6.8753
X9.9491 Y-0.43 Z6.875
X9.9528 Y-0.4279 Z6.8748
X9.9564 Y-0.4256 Z6.8746
X9.9606 Y-0.4226 Z6.8744
G0 Z7.6059

M5
M9
G53 G0 Z0.
G53 G0 X0. Y0.
G49
G69
G0 A0. C0.
M30
