O0053 (EMTSERIALSUB-33333)

(PROGRAM CREATED FOR MAZAK VARIAXIS-I700 5-AXIS MILL ONLY)

(PROVEN BY: )
(PROVEN ON: )

(QC ACCEPTED BY: )
(QC ACCEPTED ON: )

(T50 D=0.125 CR=0. TAPER=30DEG - CHAMFER MILL)

G90 G94 G17 G49
G20
G53 G0 Z0.

(SERIAL ENGRAVE TIT)
T50 M6
S18000 M3
G90 G94 G17
G54.1 P2
G68.2 X0. Y0. Z0. I107.642 J90. K180.
G53.1 P2
M8
G0 X11.2486 Y-0.4383
G43 Z7.6059 H50
G0 Z6.9379
G1 Z6.8626 F1.
X11.1889 Z6.8632 F3.
X11.1048 Z6.8644
Y-0.4275
X11.1896 Y-0.3285 Z6.8632
X11.1835 Y-0.3284 Z6.8633
X11.1771 Y-0.3281 Z6.8634
X11.1726 Y-0.3276 Z6.8635
X11.1683 Y-0.3269
X11.1643 Y-0.3261 Z6.8636
X11.1606 Y-0.3251
X11.1566 Y-0.3239 Z6.8637
X11.1521 Y-0.3224
X11.1475 Y-0.3205 Z6.8638
X11.1435 Y-0.3187 Z6.8639
X11.1394 Y-0.3166
X11.1348 Y-0.3141 Z6.864
X11.13 Y-0.311
X11.1255 Y-0.3076 Z6.8641
X11.1213 Y-0.3041 Z6.8642
X11.1172 Y-0.3003
X11.1137 Y-0.2967 Z6.8643
X11.1106 Y-0.2931
X11.1076 Y-0.2892 Z6.8644
X11.1048 Y-0.2852
X11.1023 Y-0.2811
X11.1001 Y-0.277 Z6.8645
X11.0981 Y-0.2727
X11.0966 Y-0.269
X11.0954 Y-0.265
X11.0944 Y-0.2612 Z6.8646
X11.0937 Y-0.2577
X11.0932 Y-0.2539
X11.0929 Y-0.2485
Y-0.2459
X11.0931 Y-0.2407
X11.0934 Y-0.2377
X11.094 Y-0.234
X11.095 Y-0.2298
X11.0961 Y-0.2258 Z6.8645
X11.0975 Y-0.2221
X11.0993 Y-0.2178
X11.1016 Y-0.2134 Z6.8644
X11.104 Y-0.2092
X11.1067 Y-0.2053
X11.11 Y-0.2008 Z6.8643
X11.1137 Y-0.1966
X11.1176 Y-0.1925 Z6.8642
X11.1219 Y-0.1887
X11.1263 Y-0.1852 Z6.8641
X11.1309 Y-0.182 Z6.864
X11.1358 Y-0.179
X11.1408 Y-0.1763 Z6.8639
X11.1459 Y-0.1739 Z6.8638
X11.151 Y-0.1718
X11.1561 Y-0.1699 Z6.8637
X11.1615 Y-0.1683 Z6.8636
X11.1666 Y-0.1671 Z6.8635
X11.1716 Y-0.1662
X11.1767 Y-0.1655 Z6.8634
X11.1828 Y-0.1651 Z6.8633
X11.1874 Y-0.165
X11.194 Y-0.1652 Z6.8632
X11.199 Y-0.1656 Z6.8631
X11.2053 Y-0.1662 Z6.863
X11.2113 Y-0.1671 Z6.8629
X11.217 Y-0.1682
X11.2226 Y-0.1697 Z6.8628
X11.2283 Y-0.1716
X11.2337 Y-0.1737 Z6.8627
X11.2391 Y-0.1761
X11.2456 Y-0.1795 Z6.8626
X11.2486 Y-0.1811
Z6.8526 F1.
X11.2456 Y-0.1795 F3.
X11.2391 Y-0.1761 Z6.8527
X11.2337 Y-0.1737
X11.2283 Y-0.1716 Z6.8528
X11.2226 Y-0.1697
X11.217 Y-0.1682 Z6.8529
X11.2113 Y-0.1671
X11.2053 Y-0.1662 Z6.853
X11.199 Y-0.1656 Z6.8531
X11.194 Y-0.1652 Z6.8532
X11.1874 Y-0.165 Z6.8533
X11.1828 Y-0.1651
X11.1767 Y-0.1655 Z6.8534
X11.1716 Y-0.1662 Z6.8535
X11.1666 Y-0.1671
X11.1615 Y-0.1683 Z6.8536
X11.1561 Y-0.1699 Z6.8537
X11.151 Y-0.1718 Z6.8538
X11.1459 Y-0.1739
X11.1408 Y-0.1763 Z6.8539
X11.1358 Y-0.179 Z6.854
X11.1309 Y-0.182
X11.1263 Y-0.1852 Z6.8541
X11.1219 Y-0.1887 Z6.8542
X11.1176 Y-0.1925
X11.1137 Y-0.1966 Z6.8543
X11.11 Y-0.2008
X11.1067 Y-0.2053 Z6.8544
X11.104 Y-0.2092
X11.1016 Y-0.2134
X11.0993 Y-0.2178 Z6.8545
X11.0975 Y-0.2221
X11.0961 Y-0.2258
X11.095 Y-0.2298 Z6.8546
X11.094 Y-0.234
X11.0934 Y-0.2377
X11.0931 Y-0.2407
X11.0929 Y-0.2459
Y-0.2485
X11.0932 Y-0.2539
X11.0937 Y-0.2577
X11.0944 Y-0.2612
X11.0954 Y-0.265 Z6.8545
X11.0966 Y-0.269
X11.0981 Y-0.2727
X11.1001 Y-0.277
X11.1023 Y-0.2811 Z6.8544
X11.1048 Y-0.2852
X11.1076 Y-0.2892
X11.1106 Y-0.2931 Z6.8543
X11.1137 Y-0.2967
X11.1172 Y-0.3003 Z6.8542
X11.1213 Y-0.3041
X11.1255 Y-0.3076 Z6.8541
X11.13 Y-0.311 Z6.854
X11.1348 Y-0.3141
X11.1394 Y-0.3166 Z6.8539
X11.1435 Y-0.3187
X11.1475 Y-0.3205 Z6.8538
X11.1521 Y-0.3224 Z6.8537
X11.1566 Y-0.3239
X11.1606 Y-0.3251 Z6.8536
X11.1643 Y-0.3261
X11.1683 Y-0.3269 Z6.8535
X11.1726 Y-0.3276
X11.1771 Y-0.3281 Z6.8534
X11.1835 Y-0.3284 Z6.8533
X11.1896 Y-0.3285 Z6.8532
X11.1048 Y-0.4275 Z6.8544
Y-0.4383
X11.1889 Z6.8532
X11.2486 Z6.8526
Z6.8426 F1.
X11.1889 Z6.8432 F3.
X11.1048 Z6.8444
Y-0.4275
X11.1896 Y-0.3285 Z6.8432
X11.1835 Y-0.3284 Z6.8433
X11.1771 Y-0.3281 Z6.8434
X11.1726 Y-0.3276 Z6.8435
X11.1683 Y-0.3269
X11.1643 Y-0.3261 Z6.8436
X11.1606 Y-0.3251
X11.1566 Y-0.3239 Z6.8437
X11.1521 Y-0.3224
X11.1475 Y-0.3205 Z6.8438
X11.1435 Y-0.3187 Z6.8439
X11.1394 Y-0.3166
X11.1348 Y-0.3141 Z6.844
X11.13 Y-0.311
X11.1255 Y-0.3076 Z6.8441
X11.1213 Y-0.3041 Z6.8442
X11.1172 Y-0.3003
X11.1137 Y-0.2967 Z6.8443
X11.1106 Y-0.2931
X11.1076 Y-0.2892 Z6.8444
X11.1048 Y-0.2852
X11.1023 Y-0.2811
X11.1001 Y-0.277 Z6.8445
X11.0981 Y-0.2727
X11.0966 Y-0.269
X11.0954 Y-0.265
X11.0944 Y-0.2612 Z6.8446
X11.0937 Y-0.2577
X11.0932 Y-0.2539
X11.0929 Y-0.2485
Y-0.2459
X11.0931 Y-0.2407
X11.0934 Y-0.2377
X11.094 Y-0.234
X11.095 Y-0.2298
X11.0961 Y-0.2258 Z6.8445
X11.0975 Y-0.2221
X11.0993 Y-0.2178
X11.1016 Y-0.2134 Z6.8444
X11.104 Y-0.2092
X11.1067 Y-0.2053
X11.11 Y-0.2008 Z6.8443
X11.1137 Y-0.1966
X11.1176 Y-0.1925 Z6.8442
X11.1219 Y-0.1887
X11.1263 Y-0.1852 Z6.8441
X11.1309 Y-0.182 Z6.844
X11.1358 Y-0.179
X11.1408 Y-0.1763 Z6.8439
X11.1459 Y-0.1739 Z6.8438
X11.151 Y-0.1718
X11.1561 Y-0.1699 Z6.8437
X11.1615 Y-0.1683 Z6.8436
X11.1666 Y-0.1671 Z6.8435
X11.1716 Y-0.1662
X11.1767 Y-0.1655 Z6.8434
X11.1828 Y-0.1651 Z6.8433
X11.1874 Y-0.165
X11.194 Y-0.1652 Z6.8432
X11.199 Y-0.1656 Z6.8431
X11.2053 Y-0.1662 Z6.843
X11.2113 Y-0.1671 Z6.8429
X11.217 Y-0.1682
X11.2226 Y-0.1697 Z6.8428
X11.2283 Y-0.1716
X11.2337 Y-0.1737 Z6.8427
X11.2391 Y-0.1761
X11.2456 Y-0.1795 Z6.8426
X11.2486 Y-0.1811
Z6.8326 F1.
X11.2456 Y-0.1795 F3.
X11.2391 Y-0.1761 Z6.8327
X11.2337 Y-0.1737
X11.2283 Y-0.1716 Z6.8328
X11.2226 Y-0.1697
X11.217 Y-0.1682 Z6.8329
X11.2113 Y-0.1671
X11.2053 Y-0.1662 Z6.833
X11.199 Y-0.1656 Z6.8331
X11.194 Y-0.1652 Z6.8332
X11.1874 Y-0.165 Z6.8333
X11.1828 Y-0.1651
X11.1767 Y-0.1655 Z6.8334
X11.1716 Y-0.1662 Z6.8335
X11.1666 Y-0.1671
X11.1615 Y-0.1683 Z6.8336
X11.1561 Y-0.1699 Z6.8337
X11.151 Y-0.1718 Z6.8338
X11.1459 Y-0.1739
X11.1408 Y-0.1763 Z6.8339
X11.1358 Y-0.179 Z6.834
X11.1309 Y-0.182
X11.1263 Y-0.1852 Z6.8341
X11.1219 Y-0.1887 Z6.8342
X11.1176 Y-0.1925
X11.1137 Y-0.1966 Z6.8343
X11.11 Y-0.2008
X11.1067 Y-0.2053 Z6.8344
X11.104 Y-0.2092
X11.1016 Y-0.2134
X11.0993 Y-0.2178 Z6.8345
X11.0975 Y-0.2221
X11.0961 Y-0.2258
X11.095 Y-0.2298 Z6.8346
X11.094 Y-0.234
X11.0934 Y-0.2377
X11.0931 Y-0.2407
X11.0929 Y-0.2459
Y-0.2485
X11.0932 Y-0.2539
X11.0937 Y-0.2577
X11.0944 Y-0.2612
X11.0954 Y-0.265 Z6.8345
X11.0966 Y-0.269
X11.0981 Y-0.2727
X11.1001 Y-0.277
X11.1023 Y-0.2811 Z6.8344
X11.1048 Y-0.2852
X11.1076 Y-0.2892
X11.1106 Y-0.2931 Z6.8343
X11.1137 Y-0.2967
X11.1172 Y-0.3003 Z6.8342
X11.1213 Y-0.3041
X11.1255 Y-0.3076 Z6.8341
X11.13 Y-0.311 Z6.834
X11.1348 Y-0.3141
X11.1394 Y-0.3166 Z6.8339
X11.1435 Y-0.3187
X11.1475 Y-0.3205 Z6.8338
X11.1521 Y-0.3224 Z6.8337
X11.1566 Y-0.3239
X11.1606 Y-0.3251 Z6.8336
X11.1643 Y-0.3261
X11.1683 Y-0.3269 Z6.8335
X11.1726 Y-0.3276
X11.1771 Y-0.3281 Z6.8334
X11.1835 Y-0.3284 Z6.8333
X11.1896 Y-0.3285 Z6.8332
X11.1048 Y-0.4275 Z6.8344
Y-0.4383
X11.1889 Z6.8332
X11.2486 Z6.8326
G0 Z7.3559
X10.9285
Z6.9434
G1 Z6.8677 F1.
X10.8649 Z6.8691 F3.
X10.7847 Z6.8711
Y-0.4275
X10.8696 Y-0.3285 Z6.869
X10.8635 Y-0.3284 Z6.8691
X10.8572 Y-0.3281 Z6.8693
X10.8531 Y-0.3277 Z6.8694
X10.8495 Y-0.3271 Z6.8695
X10.8455 Y-0.3264 Z6.8696
X10.8413 Y-0.3253 Z6.8697
X10.8369 Y-0.324 Z6.8698
X10.8323 Y-0.3224 Z6.8699
X10.8276 Y-0.3206 Z6.87
X10.8236 Y-0.3187 Z6.8701
X10.8194 Y-0.3167 Z6.8702
X10.8148 Y-0.3141 Z6.8704
X10.81 Y-0.311 Z6.8705
X10.8055 Y-0.3076 Z6.8706
X10.8013 Y-0.3041 Z6.8707
X10.7971 Y-0.3003 Z6.8708
X10.7937 Y-0.2968 Z6.8709
X10.7905 Y-0.2931 Z6.871
X10.7876 Y-0.2893
X10.7848 Y-0.2853 Z6.8711
X10.7823 Y-0.2811 Z6.8712
X10.78 Y-0.277
X10.778 Y-0.2727 Z6.8713
X10.7766 Y-0.269
X10.7753 Y-0.265
X10.7744 Y-0.2612 Z6.8714
X10.7737 Y-0.2577
X10.7732 Y-0.254
X10.7729 Y-0.2486
X10.7728 Y-0.246
X10.7731 Y-0.2408
X10.7734 Y-0.2378
X10.774 Y-0.234
X10.7749 Y-0.2298 Z6.8713
X10.7761 Y-0.2259
X10.7774 Y-0.2221
X10.7793 Y-0.2178 Z6.8712
X10.7815 Y-0.2134
X10.784 Y-0.2092 Z6.8711
X10.7866 Y-0.2053
X10.79 Y-0.2008 Z6.871
X10.7936 Y-0.1966 Z6.8709
X10.7976 Y-0.1925 Z6.8708
X10.8019 Y-0.1887 Z6.8707
X10.8063 Y-0.1852 Z6.8706
X10.8109 Y-0.182 Z6.8705
X10.8157 Y-0.179 Z6.8703
X10.8207 Y-0.1763 Z6.8702
X10.8258 Y-0.1739 Z6.8701
X10.8309 Y-0.1718 Z6.87
X10.8361 Y-0.1699 Z6.8698
X10.8414 Y-0.1683 Z6.8697
X10.8466 Y-0.1671 Z6.8696
X10.8516 Y-0.1662 Z6.8694
X10.8567 Y-0.1655 Z6.8693
X10.8627 Y-0.1651 Z6.8692
X10.8673 Y-0.165 Z6.8691
X10.8739 Y-0.1652 Z6.8689
X10.8788 Y-0.1655 Z6.8688
X10.885 Y-0.1662 Z6.8686
X10.8908 Y-0.1671 Z6.8685
X10.8955 Y-0.1679 Z6.8684
X10.8989 Y-0.1687 Z6.8683
X10.9032 Y-0.1699 Z6.8682
X10.9084 Y-0.1716 Z6.8681
X10.9137 Y-0.1737 Z6.868
X10.9191 Y-0.1761 Z6.8679
X10.9255 Y-0.1795 Z6.8678
X10.9285 Y-0.1811 Z6.8677
Z6.8577 F1.
X10.9255 Y-0.1795 Z6.8578 F3.
X10.9191 Y-0.1761 Z6.8579
X10.9137 Y-0.1737 Z6.858
X10.9084 Y-0.1716 Z6.8581
X10.9032 Y-0.1699 Z6.8582
X10.8989 Y-0.1687 Z6.8583
X10.8955 Y-0.1679 Z6.8584
X10.8908 Y-0.1671 Z6.8585
X10.885 Y-0.1662 Z6.8586
X10.8788 Y-0.1655 Z6.8588
X10.8739 Y-0.1652 Z6.8589
X10.8673 Y-0.165 Z6.8591
X10.8627 Y-0.1651 Z6.8592
X10.8567 Y-0.1655 Z6.8593
X10.8516 Y-0.1662 Z6.8594
X10.8466 Y-0.1671 Z6.8596
X10.8414 Y-0.1683 Z6.8597
X10.8361 Y-0.1699 Z6.8598
X10.8309 Y-0.1718 Z6.86
X10.8258 Y-0.1739 Z6.8601
X10.8207 Y-0.1763 Z6.8602
X10.8157 Y-0.179 Z6.8603
X10.8109 Y-0.182 Z6.8605
X10.8063 Y-0.1852 Z6.8606
X10.8019 Y-0.1887 Z6.8607
X10.7976 Y-0.1925 Z6.8608
X10.7936 Y-0.1966 Z6.8609
X10.79 Y-0.2008 Z6.861
X10.7866 Y-0.2053 Z6.8611
X10.784 Y-0.2092
X10.7815 Y-0.2134 Z6.8612
X10.7793 Y-0.2178
X10.7774 Y-0.2221 Z6.8613
X10.7761 Y-0.2259
X10.7749 Y-0.2298
X10.774 Y-0.234 Z6.8614
X10.7734 Y-0.2378
X10.7731 Y-0.2408
X10.7728 Y-0.246
X10.7729 Y-0.2486
X10.7732 Y-0.254
X10.7737 Y-0.2577
X10.7744 Y-0.2612
X10.7753 Y-0.265 Z6.8613
X10.7766 Y-0.269
X10.778 Y-0.2727
X10.78 Y-0.277 Z6.8612
X10.7823 Y-0.2811
X10.7848 Y-0.2853 Z6.8611
X10.7876 Y-0.2893 Z6.861
X10.7905 Y-0.2931
X10.7937 Y-0.2968 Z6.8609
X10.7971 Y-0.3003 Z6.8608
X10.8013 Y-0.3041 Z6.8607
X10.8055 Y-0.3076 Z6.8606
X10.81 Y-0.311 Z6.8605
X10.8148 Y-0.3141 Z6.8604
X10.8194 Y-0.3167 Z6.8602
X10.8236 Y-0.3187 Z6.8601
X10.8276 Y-0.3206 Z6.86
X10.8323 Y-0.3224 Z6.8599
X10.8369 Y-0.324 Z6.8598
X10.8413 Y-0.3253 Z6.8597
X10.8455 Y-0.3264 Z6.8596
X10.8495 Y-0.3271 Z6.8595
X10.8531 Y-0.3277 Z6.8594
X10.8572 Y-0.3281 Z6.8593
X10.8635 Y-0.3284 Z6.8591
X10.8696 Y-0.3285 Z6.859
X10.7847 Y-0.4275 Z6.8611
Y-0.4383
X10.8649 Z6.8591
X10.9285 Z6.8577
Z6.8477 F1.
X10.8649 Z6.8491 F3.
X10.7847 Z6.8511
Y-0.4275
X10.8696 Y-0.3285 Z6.849
X10.8635 Y-0.3284 Z6.8491
X10.8572 Y-0.3281 Z6.8493
X10.8531 Y-0.3277 Z6.8494
X10.8495 Y-0.3271 Z6.8495
X10.8455 Y-0.3264 Z6.8496
X10.8413 Y-0.3253 Z6.8497
X10.8369 Y-0.324 Z6.8498
X10.8323 Y-0.3224 Z6.8499
X10.8276 Y-0.3206 Z6.85
X10.8236 Y-0.3187 Z6.8501
X10.8194 Y-0.3167 Z6.8502
X10.8148 Y-0.3141 Z6.8504
X10.81 Y-0.311 Z6.8505
X10.8055 Y-0.3076 Z6.8506
X10.8013 Y-0.3041 Z6.8507
X10.7971 Y-0.3003 Z6.8508
X10.7937 Y-0.2968 Z6.8509
X10.7905 Y-0.2931 Z6.851
X10.7876 Y-0.2893
X10.7848 Y-0.2853 Z6.8511
X10.7823 Y-0.2811 Z6.8512
X10.78 Y-0.277
X10.778 Y-0.2727 Z6.8513
X10.7766 Y-0.269
X10.7753 Y-0.265
X10.7744 Y-0.2612 Z6.8514
X10.7737 Y-0.2577
X10.7732 Y-0.254
X10.7729 Y-0.2486
X10.7728 Y-0.246
X10.7731 Y-0.2408
X10.7734 Y-0.2378
X10.774 Y-0.234
X10.7749 Y-0.2298 Z6.8513
X10.7761 Y-0.2259
X10.7774 Y-0.2221
X10.7793 Y-0.2178 Z6.8512
X10.7815 Y-0.2134
X10.784 Y-0.2092 Z6.8511
X10.7866 Y-0.2053
X10.79 Y-0.2008 Z6.851
X10.7936 Y-0.1966 Z6.8509
X10.7976 Y-0.1925 Z6.8508
X10.8019 Y-0.1887 Z6.8507
X10.8063 Y-0.1852 Z6.8506
X10.8109 Y-0.182 Z6.8505
X10.8157 Y-0.179 Z6.8503
X10.8207 Y-0.1763 Z6.8502
X10.8258 Y-0.1739 Z6.8501
X10.8309 Y-0.1718 Z6.85
X10.8361 Y-0.1699 Z6.8498
X10.8414 Y-0.1683 Z6.8497
X10.8466 Y-0.1671 Z6.8496
X10.8516 Y-0.1662 Z6.8494
X10.8567 Y-0.1655 Z6.8493
X10.8627 Y-0.1651 Z6.8492
X10.8673 Y-0.165 Z6.8491
X10.8739 Y-0.1652 Z6.8489
X10.8788 Y-0.1655 Z6.8488
X10.885 Y-0.1662 Z6.8486
X10.8908 Y-0.1671 Z6.8485
X10.8955 Y-0.1679 Z6.8484
X10.8989 Y-0.1687 Z6.8483
X10.9032 Y-0.1699 Z6.8482
X10.9084 Y-0.1716 Z6.8481
X10.9137 Y-0.1737 Z6.848
X10.9191 Y-0.1761 Z6.8479
X10.9255 Y-0.1795 Z6.8478
X10.9285 Y-0.1811 Z6.8477
Z6.8377 F1.
X10.9255 Y-0.1795 Z6.8378 F3.
X10.9191 Y-0.1761 Z6.8379
X10.9137 Y-0.1737 Z6.838
X10.9084 Y-0.1716 Z6.8381
X10.9032 Y-0.1699 Z6.8382
X10.8989 Y-0.1687 Z6.8383
X10.8955 Y-0.1679 Z6.8384
X10.8908 Y-0.1671 Z6.8385
X10.885 Y-0.1662 Z6.8386
X10.8788 Y-0.1655 Z6.8388
X10.8739 Y-0.1652 Z6.8389
X10.8673 Y-0.165 Z6.8391
X10.8627 Y-0.1651 Z6.8392
X10.8567 Y-0.1655 Z6.8393
X10.8516 Y-0.1662 Z6.8394
X10.8466 Y-0.1671 Z6.8396
X10.8414 Y-0.1683 Z6.8397
X10.8361 Y-0.1699 Z6.8398
X10.8309 Y-0.1718 Z6.84
X10.8258 Y-0.1739 Z6.8401
X10.8207 Y-0.1763 Z6.8402
X10.8157 Y-0.179 Z6.8403
X10.8109 Y-0.182 Z6.8405
X10.8063 Y-0.1852 Z6.8406
X10.8019 Y-0.1887 Z6.8407
X10.7976 Y-0.1925 Z6.8408
X10.7936 Y-0.1966 Z6.8409
X10.79 Y-0.2008 Z6.841
X10.7866 Y-0.2053 Z6.8411
X10.784 Y-0.2092
X10.7815 Y-0.2134 Z6.8412
X10.7793 Y-0.2178
X10.7774 Y-0.2221 Z6.8413
X10.7761 Y-0.2259
X10.7749 Y-0.2298
X10.774 Y-0.234 Z6.8414
X10.7734 Y-0.2378
X10.7731 Y-0.2408
X10.7728 Y-0.246
X10.7729 Y-0.2486
X10.7732 Y-0.254
X10.7737 Y-0.2577
X10.7744 Y-0.2612
X10.7753 Y-0.265 Z6.8413
X10.7766 Y-0.269
X10.778 Y-0.2727
X10.78 Y-0.277 Z6.8412
X10.7823 Y-0.2811
X10.7848 Y-0.2853 Z6.8411
X10.7876 Y-0.2893 Z6.841
X10.7905 Y-0.2931
X10.7937 Y-0.2968 Z6.8409
X10.7971 Y-0.3003 Z6.8408
X10.8013 Y-0.3041 Z6.8407
X10.8055 Y-0.3076 Z6.8406
X10.81 Y-0.311 Z6.8405
X10.8148 Y-0.3141 Z6.8404
X10.8194 Y-0.3167 Z6.8402
X10.8236 Y-0.3187 Z6.8401
X10.8276 Y-0.3206 Z6.84
X10.8323 Y-0.3224 Z6.8399
X10.8369 Y-0.324 Z6.8398
X10.8413 Y-0.3253 Z6.8397
X10.8455 Y-0.3264 Z6.8396
X10.8495 Y-0.3271 Z6.8395
X10.8531 Y-0.3277 Z6.8394
X10.8572 Y-0.3281 Z6.8393
X10.8635 Y-0.3284 Z6.8391
X10.8696 Y-0.3285 Z6.839
X10.7847 Y-0.4275 Z6.8411
Y-0.4383
X10.8649 Z6.8391
X10.9285 Z6.8377
G0 Z7.3559
X10.6085
Z6.9524
G1 Z6.8763 F1.
X10.5405 Z6.8786 F3.
X10.4647 Z6.8813
Y-0.4275
X10.5496 Y-0.3285 Z6.8782
X10.5435 Y-0.3284 Z6.8785
X10.5373 Y-0.3281 Z6.8787
X10.5336 Y-0.3277 Z6.8788
X10.53 Y-0.3272 Z6.8789
X10.5257 Y-0.3264 Z6.8791
X10.5214 Y-0.3254 Z6.8792
X10.5169 Y-0.3241 Z6.8794
X10.5123 Y-0.3225 Z6.8796
X10.5076 Y-0.3206 Z6.8797
X10.5036 Y-0.3188 Z6.8799
X10.4993 Y-0.3167 Z6.88
X10.4947 Y-0.3141 Z6.8802
X10.49 Y-0.311 Z6.8804
X10.4855 Y-0.3076 Z6.8805
X10.4812 Y-0.3041 Z6.8807
X10.4771 Y-0.3004 Z6.8808
X10.4737 Y-0.2968 Z6.881
X10.4705 Y-0.2931 Z6.8811
X10.4676 Y-0.2893 Z6.8812
X10.4648 Y-0.2853 Z6.8813
X10.4623 Y-0.2812 Z6.8814
X10.46 Y-0.277
X10.458 Y-0.2727 Z6.8815
X10.4565 Y-0.269 Z6.8816
X10.4553 Y-0.2651
X10.4543 Y-0.2612
X10.4536 Y-0.2577 Z6.8817
X10.4531 Y-0.254
X10.4528 Y-0.2486
Y-0.246
X10.4531 Y-0.2409
X10.4533 Y-0.2378
X10.4539 Y-0.234
X10.4549 Y-0.2298 Z6.8816
X10.4561 Y-0.2259
X10.4574 Y-0.2221 Z6.8815
X10.4592 Y-0.2178
X10.4615 Y-0.2134 Z6.8814
X10.4639 Y-0.2092 Z6.8813
X10.4666 Y-0.2053 Z6.8812
X10.4699 Y-0.2008 Z6.8811
X10.4736 Y-0.1966 Z6.881
X10.4775 Y-0.1925 Z6.8808
X10.4818 Y-0.1887 Z6.8807
X10.4862 Y-0.1852 Z6.8805
X10.4908 Y-0.182 Z6.8803
X10.4956 Y-0.179 Z6.8802
X10.5007 Y-0.1763 Z6.88
X10.5058 Y-0.1739 Z6.8798
X10.5109 Y-0.1718 Z6.8796
X10.516 Y-0.1699 Z6.8794
X10.5214 Y-0.1683 Z6.8792
X10.5265 Y-0.1671 Z6.8791
X10.5316 Y-0.1662 Z6.8789
X10.5366 Y-0.1655 Z6.8787
X10.5426 Y-0.1651 Z6.8785
X10.5473 Y-0.165 Z6.8783
X10.5539 Y-0.1652 Z6.8781
X10.5588 Y-0.1655 Z6.8779
X10.5649 Y-0.1662 Z6.8777
X10.5705 Y-0.167 Z6.8775
X10.5749 Y-0.1678 Z6.8774
X10.5785 Y-0.1686 Z6.8773
X10.583 Y-0.1699 Z6.8771
X10.5883 Y-0.1716 Z6.877
X10.5937 Y-0.1737 Z6.8768
X10.599 Y-0.1761 Z6.8766
X10.6054 Y-0.1794 Z6.8764
X10.6085 Y-0.1811 Z6.8763
Z6.8663 F1.
X10.6054 Y-0.1794 Z6.8664 F3.
X10.599 Y-0.1761 Z6.8666
X10.5937 Y-0.1737 Z6.8668
X10.5883 Y-0.1716 Z6.867
X10.583 Y-0.1699 Z6.8671
X10.5785 Y-0.1686 Z6.8673
X10.5749 Y-0.1678 Z6.8674
X10.5705 Y-0.167 Z6.8675
X10.5649 Y-0.1662 Z6.8677
X10.5588 Y-0.1655 Z6.8679
X10.5539 Y-0.1652 Z6.8681
X10.5473 Y-0.165 Z6.8683
X10.5426 Y-0.1651 Z6.8685
X10.5366 Y-0.1655 Z6.8687
X10.5316 Y-0.1662 Z6.8689
X10.5265 Y-0.1671 Z6.8691
X10.5214 Y-0.1683 Z6.8692
X10.516 Y-0.1699 Z6.8694
X10.5109 Y-0.1718 Z6.8696
X10.5058 Y-0.1739 Z6.8698
X10.5007 Y-0.1763 Z6.87
X10.4956 Y-0.179 Z6.8702
X10.4908 Y-0.182 Z6.8703
X10.4862 Y-0.1852 Z6.8705
X10.4818 Y-0.1887 Z6.8707
X10.4775 Y-0.1925 Z6.8708
X10.4736 Y-0.1966 Z6.871
X10.4699 Y-0.2008 Z6.8711
X10.4666 Y-0.2053 Z6.8712
X10.4639 Y-0.2092 Z6.8713
X10.4615 Y-0.2134 Z6.8714
X10.4592 Y-0.2178 Z6.8715
X10.4574 Y-0.2221
X10.4561 Y-0.2259 Z6.8716
X10.4549 Y-0.2298
X10.4539 Y-0.234 Z6.8717
X10.4533 Y-0.2378
X10.4531 Y-0.2409
X10.4528 Y-0.246
Y-0.2486
X10.4531 Y-0.254
X10.4536 Y-0.2577
X10.4543 Y-0.2612 Z6.8716
X10.4553 Y-0.2651
X10.4565 Y-0.269
X10.458 Y-0.2727 Z6.8715
X10.46 Y-0.277 Z6.8714
X10.4623 Y-0.2812
X10.4648 Y-0.2853 Z6.8713
X10.4676 Y-0.2893 Z6.8712
X10.4705 Y-0.2931 Z6.8711
X10.4737 Y-0.2968 Z6.871
X10.4771 Y-0.3004 Z6.8708
X10.4812 Y-0.3041 Z6.8707
X10.4855 Y-0.3076 Z6.8705
X10.49 Y-0.311 Z6.8704
X10.4947 Y-0.3141 Z6.8702
X10.4993 Y-0.3167 Z6.87
X10.5036 Y-0.3188 Z6.8699
X10.5076 Y-0.3206 Z6.8697
X10.5123 Y-0.3225 Z6.8696
X10.5169 Y-0.3241 Z6.8694
X10.5214 Y-0.3254 Z6.8692
X10.5257 Y-0.3264 Z6.8691
X10.53 Y-0.3272 Z6.8689
X10.5336 Y-0.3277 Z6.8688
X10.5373 Y-0.3281 Z6.8687
X10.5435 Y-0.3284 Z6.8685
X10.5496 Y-0.3285 Z6.8682
X10.4647 Y-0.4275 Z6.8713
Y-0.4383
X10.5405 Z6.8686
X10.6085 Z6.8663
Z6.8563 F1.
X10.5405 Z6.8586 F3.
X10.4647 Z6.8613
Y-0.4275
X10.5496 Y-0.3285 Z6.8582
X10.5435 Y-0.3284 Z6.8585
X10.5373 Y-0.3281 Z6.8587
X10.5336 Y-0.3277 Z6.8588
X10.53 Y-0.3272 Z6.8589
X10.5257 Y-0.3264 Z6.8591
X10.5214 Y-0.3254 Z6.8592
X10.5169 Y-0.3241 Z6.8594
X10.5123 Y-0.3225 Z6.8596
X10.5076 Y-0.3206 Z6.8597
X10.5036 Y-0.3188 Z6.8599
X10.4993 Y-0.3167 Z6.86
X10.4947 Y-0.3141 Z6.8602
X10.49 Y-0.311 Z6.8604
X10.4855 Y-0.3076 Z6.8605
X10.4812 Y-0.3041 Z6.8607
X10.4771 Y-0.3004 Z6.8608
X10.4737 Y-0.2968 Z6.861
X10.4705 Y-0.2931 Z6.8611
X10.4676 Y-0.2893 Z6.8612
X10.4648 Y-0.2853 Z6.8613
X10.4623 Y-0.2812 Z6.8614
X10.46 Y-0.277
X10.458 Y-0.2727 Z6.8615
X10.4565 Y-0.269 Z6.8616
X10.4553 Y-0.2651
X10.4543 Y-0.2612
X10.4536 Y-0.2577 Z6.8617
X10.4531 Y-0.254
X10.4528 Y-0.2486
Y-0.246
X10.4531 Y-0.2409
X10.4533 Y-0.2378
X10.4539 Y-0.234
X10.4549 Y-0.2298 Z6.8616
X10.4561 Y-0.2259
X10.4574 Y-0.2221 Z6.8615
X10.4592 Y-0.2178
X10.4615 Y-0.2134 Z6.8614
X10.4639 Y-0.2092 Z6.8613
X10.4666 Y-0.2053 Z6.8612
X10.4699 Y-0.2008 Z6.8611
X10.4736 Y-0.1966 Z6.861
X10.4775 Y-0.1925 Z6.8608
X10.4818 Y-0.1887 Z6.8607
X10.4862 Y-0.1852 Z6.8605
X10.4908 Y-0.182 Z6.8603
X10.4956 Y-0.179 Z6.8602
X10.5007 Y-0.1763 Z6.86
X10.5058 Y-0.1739 Z6.8598
X10.5109 Y-0.1718 Z6.8596
X10.516 Y-0.1699 Z6.8594
X10.5214 Y-0.1683 Z6.8592
X10.5265 Y-0.1671 Z6.8591
X10.5316 Y-0.1662 Z6.8589
X10.5366 Y-0.1655 Z6.8587
X10.5426 Y-0.1651 Z6.8585
X10.5473 Y-0.165 Z6.8583
X10.5539 Y-0.1652 Z6.8581
X10.5588 Y-0.1655 Z6.8579
X10.5649 Y-0.1662 Z6.8577
X10.5705 Y-0.167 Z6.8575
X10.5749 Y-0.1678 Z6.8574
X10.5785 Y-0.1686 Z6.8573
X10.583 Y-0.1699 Z6.8571
X10.5883 Y-0.1716 Z6.857
X10.5937 Y-0.1737 Z6.8568
X10.599 Y-0.1761 Z6.8566
X10.6054 Y-0.1794 Z6.8564
X10.6085 Y-0.1811 Z6.8563
Z6.8463 F1.
X10.6054 Y-0.1794 Z6.8464 F3.
X10.599 Y-0.1761 Z6.8466
X10.5937 Y-0.1737 Z6.8468
X10.5883 Y-0.1716 Z6.847
X10.583 Y-0.1699 Z6.8471
X10.5785 Y-0.1686 Z6.8473
X10.5749 Y-0.1678 Z6.8474
X10.5705 Y-0.167 Z6.8475
X10.5649 Y-0.1662 Z6.8477
X10.5588 Y-0.1655 Z6.8479
X10.5539 Y-0.1652 Z6.8481
X10.5473 Y-0.165 Z6.8483
X10.5426 Y-0.1651 Z6.8485
X10.5366 Y-0.1655 Z6.8487
X10.5316 Y-0.1662 Z6.8489
X10.5265 Y-0.1671 Z6.8491
X10.5214 Y-0.1683 Z6.8492
X10.516 Y-0.1699 Z6.8494
X10.5109 Y-0.1718 Z6.8496
X10.5058 Y-0.1739 Z6.8498
X10.5007 Y-0.1763 Z6.85
X10.4956 Y-0.179 Z6.8502
X10.4908 Y-0.182 Z6.8503
X10.4862 Y-0.1852 Z6.8505
X10.4818 Y-0.1887 Z6.8507
X10.4775 Y-0.1925 Z6.8508
X10.4736 Y-0.1966 Z6.851
X10.4699 Y-0.2008 Z6.8511
X10.4666 Y-0.2053 Z6.8512
X10.4639 Y-0.2092 Z6.8513
X10.4615 Y-0.2134 Z6.8514
X10.4592 Y-0.2178 Z6.8515
X10.4574 Y-0.2221
X10.4561 Y-0.2259 Z6.8516
X10.4549 Y-0.2298
X10.4539 Y-0.234 Z6.8517
X10.4533 Y-0.2378
X10.4531 Y-0.2409
X10.4528 Y-0.246
Y-0.2486
X10.4531 Y-0.254
X10.4536 Y-0.2577
X10.4543 Y-0.2612 Z6.8516
X10.4553 Y-0.2651
X10.4565 Y-0.269
X10.458 Y-0.2727 Z6.8515
X10.46 Y-0.277 Z6.8514
X10.4623 Y-0.2812
X10.4648 Y-0.2853 Z6.8513
X10.4676 Y-0.2893 Z6.8512
X10.4705 Y-0.2931 Z6.8511
X10.4737 Y-0.2968 Z6.851
X10.4771 Y-0.3004 Z6.8508
X10.4812 Y-0.3041 Z6.8507
X10.4855 Y-0.3076 Z6.8505
X10.49 Y-0.311 Z6.8504
X10.4947 Y-0.3141 Z6.8502
X10.4993 Y-0.3167 Z6.85
X10.5036 Y-0.3188 Z6.8499
X10.5076 Y-0.3206 Z6.8497
X10.5123 Y-0.3225 Z6.8496
X10.5169 Y-0.3241 Z6.8494
X10.5214 Y-0.3254 Z6.8492
X10.5257 Y-0.3264 Z6.8491
X10.53 Y-0.3272 Z6.8489
X10.5336 Y-0.3277 Z6.8488
X10.5373 Y-0.3281 Z6.8487
X10.5435 Y-0.3284 Z6.8485
X10.5496 Y-0.3285 Z6.8482
X10.4647 Y-0.4275 Z6.8513
Y-0.4383
X10.5405 Z6.8486
X10.6085 Z6.8463
G0 Z7.3559
X10.2885
Z6.9649
G1 Z6.8884 F1.
X10.2161 Z6.8916 F3.
X10.1446 Z6.8949
Y-0.4275
X10.2295 Y-0.3285 Z6.891
X10.2235 Y-0.3284 Z6.8912
X10.2174 Y-0.3281 Z6.8915
X10.2139 Y-0.3278 Z6.8917
X10.2102 Y-0.3272 Z6.8919
X10.2058 Y-0.3264 Z6.8921
X10.2014 Y-0.3254 Z6.8923
X10.1969 Y-0.3241 Z6.8925
X10.1923 Y-0.3225 Z6.8927
X10.1877 Y-0.3206 Z6.8929
X10.1836 Y-0.3188 Z6.8931
X10.1793 Y-0.3167 Z6.8933
X10.1747 Y-0.3141 Z6.8935
X10.17 Y-0.311 Z6.8937
X10.1655 Y-0.3077 Z6.894
X10.1612 Y-0.3041 Z6.8942
X10.1571 Y-0.3004 Z6.8944
X10.1537 Y-0.2968 Z6.8945
X10.1505 Y-0.2931 Z6.8947
X10.1476 Y-0.2893 Z6.8948
X10.1448 Y-0.2853 Z6.8949
X10.1422 Y-0.2812 Z6.895
X10.14 Y-0.277 Z6.8952
X10.138 Y-0.2728
X10.1365 Y-0.269 Z6.8953
X10.1353 Y-0.2651 Z6.8954
X10.1343 Y-0.2612
X10.1336 Y-0.2577 Z6.8955
X10.1331 Y-0.254
X10.1328 Y-0.2486
X10.1327 Y-0.2461
X10.133 Y-0.2409
X10.1333 Y-0.2379
X10.1339 Y-0.234 Z6.8954
X10.1348 Y-0.2299
X10.136 Y-0.2259 Z6.8953
X10.1373 Y-0.2221
X10.1392 Y-0.2178 Z6.8952
X10.1414 Y-0.2134 Z6.8951
X10.1439 Y-0.2092 Z6.895
X10.1465 Y-0.2053 Z6.8948
X10.1498 Y-0.2009 Z6.8947
X10.1535 Y-0.1966 Z6.8945
X10.1575 Y-0.1925 Z6.8943
X10.1618 Y-0.1887 Z6.8941
X10.1662 Y-0.1852 Z6.8939
X10.1708 Y-0.182 Z6.8937
X10.1756 Y-0.179 Z6.8935
X10.1806 Y-0.1763 Z6.8933
X10.1857 Y-0.1739 Z6.893
X10.1908 Y-0.1718 Z6.8928
X10.196 Y-0.1699 Z6.8925
X10.2013 Y-0.1684 Z6.8923
X10.2064 Y-0.1671 Z6.892
X10.2115 Y-0.1662 Z6.8918
X10.2166 Y-0.1655 Z6.8916
X10.2225 Y-0.1651 Z6.8913
X10.2272 Y-0.165 Z6.8911
X10.2338 Y-0.1652 Z6.8908
X10.2386 Y-0.1655 Z6.8905
X10.2447 Y-0.1662 Z6.8903
X10.2502 Y-0.167 Z6.89
X10.2544 Y-0.1677 Z6.8899
X10.2582 Y-0.1686 Z6.8897
X10.2629 Y-0.1698 Z6.8895
X10.2683 Y-0.1716 Z6.8893
X10.2736 Y-0.1737 Z6.889
X10.2789 Y-0.1761 Z6.8888
X10.2853 Y-0.1794 Z6.8885
X10.2885 Y-0.1811 Z6.8884
Z6.8784 F1.
X10.2853 Y-0.1794 Z6.8785 F3.
X10.2789 Y-0.1761 Z6.8788
X10.2736 Y-0.1737 Z6.879
X10.2683 Y-0.1716 Z6.8793
X10.2629 Y-0.1698 Z6.8795
X10.2582 Y-0.1686 Z6.8797
X10.2544 Y-0.1677 Z6.8799
X10.2502 Y-0.167 Z6.88
X10.2447 Y-0.1662 Z6.8803
X10.2386 Y-0.1655 Z6.8805
X10.2338 Y-0.1652 Z6.8808
X10.2272 Y-0.165 Z6.8811
X10.2225 Y-0.1651 Z6.8813
X10.2166 Y-0.1655 Z6.8816
X10.2115 Y-0.1662 Z6.8818
X10.2064 Y-0.1671 Z6.882
X10.2013 Y-0.1684 Z6.8823
X10.196 Y-0.1699 Z6.8825
X10.1908 Y-0.1718 Z6.8828
X10.1857 Y-0.1739 Z6.883
X10.1806 Y-0.1763 Z6.8833
X10.1756 Y-0.179 Z6.8835
X10.1708 Y-0.182 Z6.8837
X10.1662 Y-0.1852 Z6.8839
X10.1618 Y-0.1887 Z6.8841
X10.1575 Y-0.1925 Z6.8843
X10.1535 Y-0.1966 Z6.8845
X10.1498 Y-0.2009 Z6.8847
X10.1465 Y-0.2053 Z6.8848
X10.1439 Y-0.2092 Z6.885
X10.1414 Y-0.2134 Z6.8851
X10.1392 Y-0.2178 Z6.8852
X10.1373 Y-0.2221 Z6.8853
X10.136 Y-0.2259
X10.1348 Y-0.2299 Z6.8854
X10.1339 Y-0.234
X10.1333 Y-0.2379 Z6.8855
X10.133 Y-0.2409
X10.1327 Y-0.2461
X10.1328 Y-0.2486
X10.1331 Y-0.254
X10.1336 Y-0.2577
X10.1343 Y-0.2612 Z6.8854
X10.1353 Y-0.2651
X10.1365 Y-0.269 Z6.8853
X10.138 Y-0.2728 Z6.8852
X10.14 Y-0.277
X10.1422 Y-0.2812 Z6.885
X10.1448 Y-0.2853 Z6.8849
X10.1476 Y-0.2893 Z6.8848
X10.1505 Y-0.2931 Z6.8847
X10.1537 Y-0.2968 Z6.8845
X10.1571 Y-0.3004 Z6.8844
X10.1612 Y-0.3041 Z6.8842
X10.1655 Y-0.3077 Z6.884
X10.17 Y-0.311 Z6.8837
X10.1747 Y-0.3141 Z6.8835
X10.1793 Y-0.3167 Z6.8833
X10.1836 Y-0.3188 Z6.8831
X10.1877 Y-0.3206 Z6.8829
X10.1923 Y-0.3225 Z6.8827
X10.1969 Y-0.3241 Z6.8825
X10.2014 Y-0.3254 Z6.8823
X10.2058 Y-0.3264 Z6.8821
X10.2102 Y-0.3272 Z6.8819
X10.2139 Y-0.3278 Z6.8817
X10.2174 Y-0.3281 Z6.8815
X10.2235 Y-0.3284 Z6.8812
X10.2295 Y-0.3285 Z6.881
X10.1446 Y-0.4275 Z6.8849
Y-0.4383
X10.2161 Z6.8816
X10.2885 Z6.8784
Z6.8684 F1.
X10.2161 Z6.8716 F3.
X10.1446 Z6.8749
Y-0.4275
X10.2295 Y-0.3285 Z6.871
X10.2235 Y-0.3284 Z6.8712
X10.2174 Y-0.3281 Z6.8715
X10.2139 Y-0.3278 Z6.8717
X10.2102 Y-0.3272 Z6.8719
X10.2058 Y-0.3264 Z6.8721
X10.2014 Y-0.3254 Z6.8723
X10.1969 Y-0.3241 Z6.8725
X10.1923 Y-0.3225 Z6.8727
X10.1877 Y-0.3206 Z6.8729
X10.1836 Y-0.3188 Z6.8731
X10.1793 Y-0.3167 Z6.8733
X10.1747 Y-0.3141 Z6.8735
X10.17 Y-0.311 Z6.8737
X10.1655 Y-0.3077 Z6.874
X10.1612 Y-0.3041 Z6.8742
X10.1571 Y-0.3004 Z6.8744
X10.1537 Y-0.2968 Z6.8745
X10.1505 Y-0.2931 Z6.8747
X10.1476 Y-0.2893 Z6.8748
X10.1448 Y-0.2853 Z6.8749
X10.1422 Y-0.2812 Z6.875
X10.14 Y-0.277 Z6.8752
X10.138 Y-0.2728
X10.1365 Y-0.269 Z6.8753
X10.1353 Y-0.2651 Z6.8754
X10.1343 Y-0.2612
X10.1336 Y-0.2577 Z6.8755
X10.1331 Y-0.254
X10.1328 Y-0.2486
X10.1327 Y-0.2461
X10.133 Y-0.2409
X10.1333 Y-0.2379
X10.1339 Y-0.234 Z6.8754
X10.1348 Y-0.2299
X10.136 Y-0.2259 Z6.8753
X10.1373 Y-0.2221
X10.1392 Y-0.2178 Z6.8752
X10.1414 Y-0.2134 Z6.8751
X10.1439 Y-0.2092 Z6.875
X10.1465 Y-0.2053 Z6.8748
X10.1498 Y-0.2009 Z6.8747
X10.1535 Y-0.1966 Z6.8745
X10.1575 Y-0.1925 Z6.8743
X10.1618 Y-0.1887 Z6.8741
X10.1662 Y-0.1852 Z6.8739
X10.1708 Y-0.182 Z6.8737
X10.1756 Y-0.179 Z6.8735
X10.1806 Y-0.1763 Z6.8733
X10.1857 Y-0.1739 Z6.873
X10.1908 Y-0.1718 Z6.8728
X10.196 Y-0.1699 Z6.8725
X10.2013 Y-0.1684 Z6.8723
X10.2064 Y-0.1671 Z6.872
X10.2115 Y-0.1662 Z6.8718
X10.2166 Y-0.1655 Z6.8716
X10.2225 Y-0.1651 Z6.8713
X10.2272 Y-0.165 Z6.8711
X10.2338 Y-0.1652 Z6.8708
X10.2386 Y-0.1655 Z6.8705
X10.2447 Y-0.1662 Z6.8703
X10.2502 Y-0.167 Z6.87
X10.2544 Y-0.1677 Z6.8699
X10.2582 Y-0.1686 Z6.8697
X10.2629 Y-0.1698 Z6.8695
X10.2683 Y-0.1716 Z6.8693
X10.2736 Y-0.1737 Z6.869
X10.2789 Y-0.1761 Z6.8688
X10.2853 Y-0.1794 Z6.8685
X10.2885 Y-0.1811 Z6.8684
Z6.8584 F1.
X10.2853 Y-0.1794 Z6.8585 F3.
X10.2789 Y-0.1761 Z6.8588
X10.2736 Y-0.1737 Z6.859
X10.2683 Y-0.1716 Z6.8593
X10.2629 Y-0.1698 Z6.8595
X10.2582 Y-0.1686 Z6.8597
X10.2544 Y-0.1677 Z6.8599
X10.2502 Y-0.167 Z6.86
X10.2447 Y-0.1662 Z6.8603
X10.2386 Y-0.1655 Z6.8605
X10.2338 Y-0.1652 Z6.8608
X10.2272 Y-0.165 Z6.8611
X10.2225 Y-0.1651 Z6.8613
X10.2166 Y-0.1655 Z6.8616
X10.2115 Y-0.1662 Z6.8618
X10.2064 Y-0.1671 Z6.862
X10.2013 Y-0.1684 Z6.8623
X10.196 Y-0.1699 Z6.8625
X10.1908 Y-0.1718 Z6.8628
X10.1857 Y-0.1739 Z6.863
X10.1806 Y-0.1763 Z6.8633
X10.1756 Y-0.179 Z6.8635
X10.1708 Y-0.182 Z6.8637
X10.1662 Y-0.1852 Z6.8639
X10.1618 Y-0.1887 Z6.8641
X10.1575 Y-0.1925 Z6.8643
X10.1535 Y-0.1966 Z6.8645
X10.1498 Y-0.2009 Z6.8647
X10.1465 Y-0.2053 Z6.8648
X10.1439 Y-0.2092 Z6.865
X10.1414 Y-0.2134 Z6.8651
X10.1392 Y-0.2178 Z6.8652
X10.1373 Y-0.2221 Z6.8653
X10.136 Y-0.2259
X10.1348 Y-0.2299 Z6.8654
X10.1339 Y-0.234
X10.1333 Y-0.2379 Z6.8655
X10.133 Y-0.2409
X10.1327 Y-0.2461
X10.1328 Y-0.2486
X10.1331 Y-0.254
X10.1336 Y-0.2577
X10.1343 Y-0.2612 Z6.8654
X10.1353 Y-0.2651
X10.1365 Y-0.269 Z6.8653
X10.138 Y-0.2728 Z6.8652
X10.14 Y-0.277
X10.1422 Y-0.2812 Z6.865
X10.1448 Y-0.2853 Z6.8649
X10.1476 Y-0.2893 Z6.8648
X10.1505 Y-0.2931 Z6.8647
X10.1537 Y-0.2968 Z6.8645
X10.1571 Y-0.3004 Z6.8644
X10.1612 Y-0.3041 Z6.8642
X10.1655 Y-0.3077 Z6.864
X10.17 Y-0.311 Z6.8637
X10.1747 Y-0.3141 Z6.8635
X10.1793 Y-0.3167 Z6.8633
X10.1836 Y-0.3188 Z6.8631
X10.1877 Y-0.3206 Z6.8629
X10.1923 Y-0.3225 Z6.8627
X10.1969 Y-0.3241 Z6.8625
X10.2014 Y-0.3254 Z6.8623
X10.2058 Y-0.3264 Z6.8621
X10.2102 Y-0.3272 Z6.8619
X10.2139 Y-0.3278 Z6.8617
X10.2174 Y-0.3281 Z6.8615
X10.2235 Y-0.3284 Z6.8612
X10.2295 Y-0.3285 Z6.861
X10.1446 Y-0.4275 Z6.8649
Y-0.4383
X10.2161 Z6.8616
X10.2885 Z6.8584
G0 Z7.3559
X9.9684
Z6.9809
G1 Z6.904 F1.
X9.8916 Z6.9082 F3.
X9.8246 Z6.9121
Y-0.4275
X9.9095 Y-0.3285 Z6.9072
X9.9035 Y-0.3284 Z6.9075
X9.8974 Y-0.3281 Z6.9079
X9.8939 Y-0.3278 Z6.9081
X9.8902 Y-0.3273 Z6.9083
X9.8858 Y-0.3264 Z6.9085
X9.8814 Y-0.3254 Z6.9088
X9.8769 Y-0.3241 Z6.909
X9.8723 Y-0.3225 Z6.9093
X9.8677 Y-0.3207 Z6.9096
X9.8637 Y-0.3189 Z6.9098
X9.8593 Y-0.3167 Z6.9101
X9.8547 Y-0.3141 Z6.9103
X9.85 Y-0.311 Z6.9106
X9.8454 Y-0.3077 Z6.9109
X9.8412 Y-0.3042 Z6.9111
X9.8371 Y-0.3004 Z6.9114
X9.8336 Y-0.2968 Z6.9116
X9.8305 Y-0.2931 Z6.9117
X9.8275 Y-0.2893 Z6.9119
X9.8247 Y-0.2853 Z6.9121
X9.8222 Y-0.2812 Z6.9122
X9.8199 Y-0.277 Z6.9123
X9.8179 Y-0.2728 Z6.9125
X9.8165 Y-0.269
X9.8152 Y-0.2651 Z6.9126
X9.8143 Y-0.2613 Z6.9127
X9.8136 Y-0.2578
X9.8131 Y-0.254
X9.8127 Y-0.2487 Z6.9128
Y-0.2461
X9.813 Y-0.241
X9.8133 Y-0.2379 Z6.9127
X9.8139 Y-0.2341
X9.8148 Y-0.2299 Z6.9126
X9.816 Y-0.2259
X9.8173 Y-0.2222 Z6.9125
X9.8192 Y-0.2178 Z6.9124
X9.8214 Y-0.2135 Z6.9123
X9.8238 Y-0.2093 Z6.9121
X9.8265 Y-0.2053 Z6.912
X9.8298 Y-0.2009 Z6.9118
X9.8335 Y-0.1966 Z6.9116
X9.8374 Y-0.1926 Z6.9113
X9.8417 Y-0.1887 Z6.9111
X9.8461 Y-0.1852 Z6.9108
X9.8507 Y-0.182 Z6.9106
X9.8555 Y-0.179 Z6.9103
X9.8606 Y-0.1763 Z6.91
X9.8656 Y-0.1739 Z6.9097
X9.8707 Y-0.1718 Z6.9094
X9.8759 Y-0.1699 Z6.9091
X9.8812 Y-0.1684 Z6.9088
X9.8864 Y-0.1671 Z6.9085
X9.8914 Y-0.1662 Z6.9082
X9.8965 Y-0.1655 Z6.9079
X9.9025 Y-0.1651 Z6.9076
X9.9071 Y-0.165 Z6.9073
X9.9136 Y-0.1652 Z6.9069
X9.9185 Y-0.1655 Z6.9067
X9.9245 Y-0.1662 Z6.9063
X9.9299 Y-0.1669 Z6.906
X9.934 Y-0.1677 Z6.9058
X9.9381 Y-0.1685 Z6.9056
X9.9428 Y-0.1698 Z6.9053
X9.9482 Y-0.1716 Z6.9051
X9.9536 Y-0.1737 Z6.9048
X9.9589 Y-0.1761 Z6.9045
X9.9653 Y-0.1794 Z6.9041
X9.9684 Y-0.1811 Z6.904
Z6.894 F1.
X9.9653 Y-0.1794 Z6.8941 F3.
X9.9589 Y-0.1761 Z6.8945
X9.9536 Y-0.1737 Z6.8948
X9.9482 Y-0.1716 Z6.8951
X9.9428 Y-0.1698 Z6.8953
X9.9381 Y-0.1685 Z6.8956
X9.934 Y-0.1677 Z6.8958
X9.9299 Y-0.1669 Z6.896
X9.9245 Y-0.1662 Z6.8963
X9.9185 Y-0.1655 Z6.8967
X9.9136 Y-0.1652 Z6.8969
X9.9071 Y-0.165 Z6.8973
X9.9025 Y-0.1651 Z6.8976
X9.8965 Y-0.1655 Z6.8979
X9.8914 Y-0.1662 Z6.8982
X9.8864 Y-0.1671 Z6.8985
X9.8812 Y-0.1684 Z6.8988
X9.8759 Y-0.1699 Z6.8991
X9.8707 Y-0.1718 Z6.8994
X9.8656 Y-0.1739 Z6.8997
X9.8606 Y-0.1763 Z6.9
X9.8555 Y-0.179 Z6.9003
X9.8507 Y-0.182 Z6.9006
X9.8461 Y-0.1852 Z6.9008
X9.8417 Y-0.1887 Z6.9011
X9.8374 Y-0.1926 Z6.9013
X9.8335 Y-0.1966 Z6.9016
X9.8298 Y-0.2009 Z6.9018
X9.8265 Y-0.2053 Z6.902
X9.8238 Y-0.2093 Z6.9021
X9.8214 Y-0.2135 Z6.9023
X9.8192 Y-0.2178 Z6.9024
X9.8173 Y-0.2222 Z6.9025
X9.816 Y-0.2259 Z6.9026
X9.8148 Y-0.2299
X9.8139 Y-0.2341 Z6.9027
X9.8133 Y-0.2379
X9.813 Y-0.241 Z6.9028
X9.8127 Y-0.2461
Y-0.2487
X9.8131 Y-0.254 Z6.9027
X9.8136 Y-0.2578
X9.8143 Y-0.2613
X9.8152 Y-0.2651 Z6.9026
X9.8165 Y-0.269 Z6.9025
X9.8179 Y-0.2728
X9.8199 Y-0.277 Z6.9023
X9.8222 Y-0.2812 Z6.9022
X9.8247 Y-0.2853 Z6.9021
X9.8275 Y-0.2893 Z6.9019
X9.8305 Y-0.2931 Z6.9017
X9.8336 Y-0.2968 Z6.9016
X9.8371 Y-0.3004 Z6.9014
X9.8412 Y-0.3042 Z6.9011
X9.8454 Y-0.3077 Z6.9009
X9.85 Y-0.311 Z6.9006
X9.8547 Y-0.3141 Z6.9003
X9.8593 Y-0.3167 Z6.9001
X9.8637 Y-0.3189 Z6.8998
X9.8677 Y-0.3207 Z6.8996
X9.8723 Y-0.3225 Z6.8993
X9.8769 Y-0.3241 Z6.899
X9.8814 Y-0.3254 Z6.8988
X9.8858 Y-0.3264 Z6.8985
X9.8902 Y-0.3273 Z6.8983
X9.8939 Y-0.3278 Z6.8981
X9.8974 Y-0.3281 Z6.8979
X9.9035 Y-0.3284 Z6.8975
X9.9095 Y-0.3285 Z6.8972
X9.8246 Y-0.4275 Z6.9021
Y-0.4383
X9.8916 Z6.8982
X9.9684 Z6.894
Z6.884 F1.
X9.8916 Z6.8882 F3.
X9.8246 Z6.8921
Y-0.4275
X9.9095 Y-0.3285 Z6.8872
X9.9035 Y-0.3284 Z6.8875
X9.8974 Y-0.3281 Z6.8879
X9.8939 Y-0.3278 Z6.8881
X9.8902 Y-0.3273 Z6.8883
X9.8858 Y-0.3264 Z6.8885
X9.8814 Y-0.3254 Z6.8888
X9.8769 Y-0.3241 Z6.889
X9.8723 Y-0.3225 Z6.8893
X9.8677 Y-0.3207 Z6.8896
X9.8637 Y-0.3189 Z6.8898
X9.8593 Y-0.3167 Z6.8901
X9.8547 Y-0.3141 Z6.8903
X9.85 Y-0.311 Z6.8906
X9.8454 Y-0.3077 Z6.8909
X9.8412 Y-0.3042 Z6.8911
X9.8371 Y-0.3004 Z6.8914
X9.8336 Y-0.2968 Z6.8916
X9.8305 Y-0.2931 Z6.8917
X9.8275 Y-0.2893 Z6.8919
X9.8247 Y-0.2853 Z6.8921
X9.8222 Y-0.2812 Z6.8922
X9.8199 Y-0.277 Z6.8923
X9.8179 Y-0.2728 Z6.8925
X9.8165 Y-0.269
X9.8152 Y-0.2651 Z6.8926
X9.8143 Y-0.2613 Z6.8927
X9.8136 Y-0.2578
X9.8131 Y-0.254
X9.8127 Y-0.2487 Z6.8928
Y-0.2461
X9.813 Y-0.241
X9.8133 Y-0.2379 Z6.8927
X9.8139 Y-0.2341
X9.8148 Y-0.2299 Z6.8926
X9.816 Y-0.2259
X9.8173 Y-0.2222 Z6.8925
X9.8192 Y-0.2178 Z6.8924
X9.8214 Y-0.2135 Z6.8923
X9.8238 Y-0.2093 Z6.8921
X9.8265 Y-0.2053 Z6.892
X9.8298 Y-0.2009 Z6.8918
X9.8335 Y-0.1966 Z6.8916
X9.8374 Y-0.1926 Z6.8913
X9.8417 Y-0.1887 Z6.8911
X9.8461 Y-0.1852 Z6.8908
X9.8507 Y-0.182 Z6.8906
X9.8555 Y-0.179 Z6.8903
X9.8606 Y-0.1763 Z6.89
X9.8656 Y-0.1739 Z6.8897
X9.8707 Y-0.1718 Z6.8894
X9.8759 Y-0.1699 Z6.8891
X9.8812 Y-0.1684 Z6.8888
X9.8864 Y-0.1671 Z6.8885
X9.8914 Y-0.1662 Z6.8882
X9.8965 Y-0.1655 Z6.8879
X9.9025 Y-0.1651 Z6.8876
X9.9071 Y-0.165 Z6.8873
X9.9136 Y-0.1652 Z6.8869
X9.9185 Y-0.1655 Z6.8867
X9.9245 Y-0.1662 Z6.8863
X9.9299 Y-0.1669 Z6.886
X9.934 Y-0.1677 Z6.8858
X9.9381 Y-0.1685 Z6.8856
X9.9428 Y-0.1698 Z6.8853
X9.9482 Y-0.1716 Z6.8851
X9.9536 Y-0.1737 Z6.8848
X9.9589 Y-0.1761 Z6.8845
X9.9653 Y-0.1794 Z6.8841
X9.9684 Y-0.1811 Z6.884
Z6.874 F1.
X9.9653 Y-0.1794 Z6.8741 F3.
X9.9589 Y-0.1761 Z6.8745
X9.9536 Y-0.1737 Z6.8748
X9.9482 Y-0.1716 Z6.8751
X9.9428 Y-0.1698 Z6.8753
X9.9381 Y-0.1685 Z6.8756
X9.934 Y-0.1677 Z6.8758
X9.9299 Y-0.1669 Z6.876
X9.9245 Y-0.1662 Z6.8763
X9.9185 Y-0.1655 Z6.8767
X9.9136 Y-0.1652 Z6.8769
X9.9071 Y-0.165 Z6.8773
X9.9025 Y-0.1651 Z6.8776
X9.8965 Y-0.1655 Z6.8779
X9.8914 Y-0.1662 Z6.8782
X9.8864 Y-0.1671 Z6.8785
X9.8812 Y-0.1684 Z6.8788
X9.8759 Y-0.1699 Z6.8791
X9.8707 Y-0.1718 Z6.8794
X9.8656 Y-0.1739 Z6.8797
X9.8606 Y-0.1763 Z6.88
X9.8555 Y-0.179 Z6.8803
X9.8507 Y-0.182 Z6.8806
X9.8461 Y-0.1852 Z6.8808
X9.8417 Y-0.1887 Z6.8811
X9.8374 Y-0.1926 Z6.8813
X9.8335 Y-0.1966 Z6.8816
X9.8298 Y-0.2009 Z6.8818
X9.8265 Y-0.2053 Z6.882
X9.8238 Y-0.2093 Z6.8821
X9.8214 Y-0.2135 Z6.8823
X9.8192 Y-0.2178 Z6.8824
X9.8173 Y-0.2222 Z6.8825
X9.816 Y-0.2259 Z6.8826
X9.8148 Y-0.2299
X9.8139 Y-0.2341 Z6.8827
X9.8133 Y-0.2379
X9.813 Y-0.241 Z6.8828
X9.8127 Y-0.2461
Y-0.2487
X9.8131 Y-0.254 Z6.8827
X9.8136 Y-0.2578
X9.8143 Y-0.2613
X9.8152 Y-0.2651 Z6.8826
X9.8165 Y-0.269 Z6.8825
X9.8179 Y-0.2728
X9.8199 Y-0.277 Z6.8823
X9.8222 Y-0.2812 Z6.8822
X9.8247 Y-0.2853 Z6.8821
X9.8275 Y-0.2893 Z6.8819
X9.8305 Y-0.2931 Z6.8817
X9.8336 Y-0.2968 Z6.8816
X9.8371 Y-0.3004 Z6.8814
X9.8412 Y-0.3042 Z6.8811
X9.8454 Y-0.3077 Z6.8809
X9.85 Y-0.311 Z6.8806
X9.8547 Y-0.3141 Z6.8803
X9.8593 Y-0.3167 Z6.8801
X9.8637 Y-0.3189 Z6.8798
X9.8677 Y-0.3207 Z6.8796
X9.8723 Y-0.3225 Z6.8793
X9.8769 Y-0.3241 Z6.879
X9.8814 Y-0.3254 Z6.8788
X9.8858 Y-0.3264 Z6.8785
X9.8902 Y-0.3273 Z6.8783
X9.8939 Y-0.3278 Z6.8781
X9.8974 Y-0.3281 Z6.8779
X9.9035 Y-0.3284 Z6.8775
X9.9095 Y-0.3285 Z6.8772
X9.8246 Y-0.4275 Z6.8821
Y-0.4383
X9.8916 Z6.8782
X9.9684 Z6.874
G0 Z7.6059

M5
M9
G53 G0 Z0.
G53 G0 X0. Y0.
G49
G69
G0 A0. C0.
M30
