O0054 (EMTSERIALSUB-44444)

(PROGRAM CREATED FOR MAZAK VARIAXIS-I700 5-AXIS MILL ONLY)

(PROVEN BY: )
(PROVEN ON: )

(QC ACCEPTED BY: )
(QC ACCEPTED ON: )

(T50 D=0.125 CR=0. TAPER=30DEG - CHAMFER MILL)

G90 G94 G17 G49
G20
G53 G0 Z0.

(SERIAL ENGRAVE TIT)
T50 M6
S18000 M3
G90 G94 G17
G54.1 P2
G68.2 X0. Y0. Z0. I107.642 J90. K180.
G53.1 P2
M8
G0 X11.1324 Y-0.165
G43 Z7.6059 H50
G0 Z6.9395
G1 Z6.864 F1.
Y-0.3034 F3.
Z6.854 F1.
Y-0.165 F3.
Z6.844 F1.
Y-0.3034 F3.
Z6.834 F1.
Y-0.165 F3.
G0 Z7.3559
X11.0914 Y-0.2351
Z6.9402
G1 Z6.8646 F1.
X11.1879 Z6.8632 F3.
X11.2455 Z6.8626
Y-0.2555
X11.23 Y-0.2921 Z6.8627
X11.1681 Y-0.4383 Z6.8635
Z6.8535 F1.
X11.23 Y-0.2921 Z6.8527 F3.
X11.2455 Y-0.2555 Z6.8526
Y-0.2351
X11.1879 Z6.8532
X11.0914 Z6.8546
Z6.8446 F1.
X11.1879 Z6.8432 F3.
X11.2455 Z6.8426
Y-0.2555
X11.23 Y-0.2921 Z6.8427
X11.1681 Y-0.4383 Z6.8435
Z6.8335 F1.
X11.23 Y-0.2921 Z6.8327 F3.
X11.2455 Y-0.2555 Z6.8326
Y-0.2351
X11.1879 Z6.8332
X11.0914 Z6.8346
G0 Z7.3559
X10.8123 Y-0.3034
Z6.9463
G1 Z6.8704 F1.
Y-0.165 F3.
Z6.8604 F1.
Y-0.3034 F3.
Z6.8504 F1.
Y-0.165 F3.
Z6.8404 F1.
Y-0.3034 F3.
G0 Z7.3559
X10.7714 Y-0.2351
Z6.9474
G1 Z6.8714 F1.
X10.8642 Z6.8691 F3.
X10.9255 Z6.8678
Y-0.2555
X10.9062 Y-0.3009 Z6.8682
X10.8481 Y-0.4383 Z6.8695
Z6.8595 F1.
X10.9062 Y-0.3009 Z6.8582 F3.
X10.9255 Y-0.2555 Z6.8578
Y-0.2351
X10.8642 Z6.8591
X10.7714 Z6.8614
Z6.8514 F1.
X10.8642 Z6.8491 F3.
X10.9255 Z6.8478
Y-0.2555
X10.9062 Y-0.3009 Z6.8482
X10.8481 Y-0.4383 Z6.8495
Z6.8395 F1.
X10.9062 Y-0.3009 Z6.8382 F3.
X10.9255 Y-0.2555 Z6.8378
Y-0.2351
X10.8642 Z6.8391
X10.7714 Z6.8414
G0 Z7.3559
X10.4923 Y-0.3034
Z6.9566
G1 Z6.8803 F1.
Y-0.165 F3.
Z6.8703 F1.
Y-0.3034 F3.
Z6.8603 F1.
Y-0.165 F3.
Z6.8503 F1.
Y-0.3034 F3.
G0 Z7.3559
X10.4514 Y-0.2351
Z6.9582
G1 Z6.8818 F1.
X10.5401 Z6.8786 F3.
X10.6054 Z6.8764
Y-0.2555
X10.5833 Y-0.3078 Z6.8771
X10.5281 Y-0.4383 Z6.879
Z6.869 F1.
X10.5833 Y-0.3078 Z6.8671 F3.
X10.6054 Y-0.2555 Z6.8664
Y-0.2351
X10.5401 Z6.8686
X10.4514 Z6.8718
Z6.8618 F1.
X10.5401 Z6.8586 F3.
X10.6054 Z6.8564
Y-0.2555
X10.5833 Y-0.3078 Z6.8571
X10.5281 Y-0.4383 Z6.859
Z6.849 F1.
X10.5833 Y-0.3078 Z6.8471 F3.
X10.6054 Y-0.2555 Z6.8464
Y-0.2351
X10.5401 Z6.8486
X10.4514 Z6.8518
G0 Z7.3559
X10.1723 Y-0.3034
Z6.9703
G1 Z6.8936 F1.
Y-0.165 F3.
Z6.8836 F1.
Y-0.3034 F3.
Z6.8736 F1.
Y-0.165 F3.
Z6.8636 F1.
Y-0.3034 F3.
G0 Z7.3559
X10.1313 Y-0.2351
Z6.9724
G1 Z6.8956 F1.
X10.2158 Z6.8916 F3.
X10.2854 Z6.8885
Y-0.2555
X10.2623 Y-0.3101 Z6.8895
X10.208 Y-0.4383 Z6.892
Z6.882 F1.
X10.2623 Y-0.3101 Z6.8795 F3.
X10.2854 Y-0.2555 Z6.8785
Y-0.2351
X10.2158 Z6.8816
X10.1313 Z6.8856
Z6.8756 F1.
X10.2158 Z6.8716 F3.
X10.2854 Z6.8685
Y-0.2555
X10.2623 Y-0.3101 Z6.8695
X10.208 Y-0.4383 Z6.872
Z6.862 F1.
X10.2623 Y-0.3101 Z6.8595 F3.
X10.2854 Y-0.2555 Z6.8585
Y-0.2351
X10.2158 Z6.8616
X10.1313 Z6.8656
G0 Z7.3559
X9.8522 Y-0.3034
Z6.9876
G1 Z6.9105 F1.
Y-0.165 F3.
Z6.9005 F1.
Y-0.3034 F3.
Z6.8905 F1.
Y-0.165 F3.
Z6.8805 F1.
Y-0.3034 F3.
G0 Z7.3559
X9.8113 Y-0.2351
Z6.99
G1 Z6.9128 F1.
X9.8913 Z6.9082 F3.
X9.9654 Z6.9041
Y-0.2555
X9.9468 Y-0.2993 Z6.9051
X9.888 Y-0.4383 Z6.9084
Z6.8984 F1.
X9.9468 Y-0.2993 Z6.8951 F3.
X9.9654 Y-0.2555 Z6.8941
Y-0.2351
X9.8913 Z6.8982
X9.8113 Z6.9028
Z6.8928 F1.
X9.8913 Z6.8882 F3.
X9.9654 Z6.8841
Y-0.2555
X9.9468 Y-0.2993 Z6.8851
X9.888 Y-0.4383 Z6.8884
Z6.8784 F1.
X9.9468 Y-0.2993 Z6.8751 F3.
X9.9654 Y-0.2555 Z6.8741
Y-0.2351
X9.8913 Z6.8782
X9.8113 Z6.8828
G0 Z7.6059

M5
M9
G53 G0 Z0.
G53 G0 X0. Y0.
G49
G69
G0 A0. C0.
M30
