O0055 (EMTSERIALSUB-55555)

(PROGRAM CREATED FOR MAZAK VARIAXIS-I700 5-AXIS MILL ONLY)

(PROVEN BY: )
(PROVEN ON: )

(QC ACCEPTED BY: )
(QC ACCEPTED ON: )

(T50 D=0.125 CR=0. TAPER=30DEG - CHAMFER MILL)

G90 G94 G17 G49
G20
G53 G0 Z0.

(SERIAL ENGRAVE TIT)
T50 M6
S18000 M3
G90 G94 G17
G54.1 P2
G68.2 X0. Y0. Z0. I107.642 J90. K180.
G53.1 P2
M8
G0 X11.1098 Y-0.4383
G43 Z7.6059 H50
G0 Z6.9399
G1 Z6.8643 F1.
X11.2256 Z6.8628 F3.
X11.2264
X11.2298 Y-0.3449 Z6.8627
X11.2228 Y-0.3447 Z6.8628
X11.2162 Y-0.344 Z6.8629
X11.2093 Y-0.343 Z6.863
X11.2024 Y-0.3417
X11.1961 Y-0.3402 Z6.8631
X11.1899 Y-0.3386 Z6.8632
X11.1836 Y-0.3367 Z6.8633
X11.1771 Y-0.3344 Z6.8634
X11.1706 Y-0.3318 Z6.8635
X11.1641 Y-0.3289 Z6.8636
X11.1576 Y-0.3257 Z6.8637
X11.1512 Y-0.3221 Z6.8638
X11.1462 Y-0.3189
X11.1416 Y-0.3157 Z6.8639
X11.1371 Y-0.3121
X11.1326 Y-0.3081 Z6.864
X11.1291 Y-0.3047 Z6.8641
X11.1261 Y-0.3014
X11.1232 Y-0.2979
X11.1204 Y-0.294 Z6.8642
X11.1181 Y-0.2904
X11.1161 Y-0.287
X11.1143 Y-0.2833 Z6.8643
X11.1128 Y-0.28
X11.1116 Y-0.2766
X11.1104 Y-0.2728
X11.1095 Y-0.2688
X11.1089 Y-0.2651
X11.1085 Y-0.2613
X11.1082 Y-0.2549
X11.1084 Y-0.2496
X11.1087 Y-0.246
X11.1092 Y-0.2421
X11.1101 Y-0.2382
X11.1111 Y-0.2344
X11.1124 Y-0.2307
X11.1142 Y-0.2266
X11.1164 Y-0.2222 Z6.8642
X11.1188 Y-0.2181
X11.1213 Y-0.2144
X11.1244 Y-0.2103 Z6.8641
X11.128 Y-0.2062
X11.1316 Y-0.2024 Z6.864
X11.1354 Y-0.1989
X11.1398 Y-0.1952 Z6.8639
X11.144 Y-0.1921
X11.1483 Y-0.1892 Z6.8638
X11.1527 Y-0.1865 Z6.8637
X11.1582 Y-0.1834
X11.1641 Y-0.1804 Z6.8636
X11.1701 Y-0.1777 Z6.8635
X11.1763 Y-0.1752 Z6.8634
X11.1826 Y-0.173 Z6.8633
X11.189 Y-0.171 Z6.8632
X11.1955 Y-0.1694 Z6.8631
X11.2014 Y-0.168
X11.2073 Y-0.167 Z6.863
X11.2134 Y-0.1661 Z6.8629
X11.2191 Y-0.1655
X11.2248 Y-0.1651 Z6.8628
X11.2328 Y-0.165 Z6.8627
X11.235
Z6.8527 F1.
X11.2328 F3.
X11.2248 Y-0.1651 Z6.8528
X11.2191 Y-0.1655 Z6.8529
X11.2134 Y-0.1661
X11.2073 Y-0.167 Z6.853
X11.2014 Y-0.168 Z6.8531
X11.1955 Y-0.1694
X11.189 Y-0.171 Z6.8532
X11.1826 Y-0.173 Z6.8533
X11.1763 Y-0.1752 Z6.8534
X11.1701 Y-0.1777 Z6.8535
X11.1641 Y-0.1804 Z6.8536
X11.1582 Y-0.1834 Z6.8537
X11.1527 Y-0.1865
X11.1483 Y-0.1892 Z6.8538
X11.144 Y-0.1921 Z6.8539
X11.1398 Y-0.1952
X11.1354 Y-0.1989 Z6.854
X11.1316 Y-0.2024
X11.128 Y-0.2062 Z6.8541
X11.1244 Y-0.2103
X11.1213 Y-0.2144 Z6.8542
X11.1188 Y-0.2181
X11.1164 Y-0.2222
X11.1142 Y-0.2266 Z6.8543
X11.1124 Y-0.2307
X11.1111 Y-0.2344
X11.1101 Y-0.2382
X11.1092 Y-0.2421
X11.1087 Y-0.246
X11.1084 Y-0.2496
X11.1082 Y-0.2549
X11.1085 Y-0.2613
X11.1089 Y-0.2651
X11.1095 Y-0.2688
X11.1104 Y-0.2728
X11.1116 Y-0.2766
X11.1128 Y-0.28
X11.1143 Y-0.2833
X11.1161 Y-0.287 Z6.8542
X11.1181 Y-0.2904
X11.1204 Y-0.294
X11.1232 Y-0.2979 Z6.8541
X11.1261 Y-0.3014
X11.1291 Y-0.3047
X11.1326 Y-0.3081 Z6.854
X11.1371 Y-0.3121 Z6.8539
X11.1416 Y-0.3157
X11.1462 Y-0.3189 Z6.8538
X11.1512 Y-0.3221
X11.1576 Y-0.3257 Z6.8537
X11.1641 Y-0.3289 Z6.8536
X11.1706 Y-0.3318 Z6.8535
X11.1771 Y-0.3344 Z6.8534
X11.1836 Y-0.3367 Z6.8533
X11.1899 Y-0.3386 Z6.8532
X11.1961 Y-0.3402 Z6.8531
X11.2024 Y-0.3417 Z6.853
X11.2093 Y-0.343
X11.2162 Y-0.344 Z6.8529
X11.2228 Y-0.3447 Z6.8528
X11.2298 Y-0.3449 Z6.8527
X11.2264 Y-0.4383 Z6.8528
X11.2256
X11.1098 Z6.8543
Z6.8443 F1.
X11.2256 Z6.8428 F3.
X11.2264
X11.2298 Y-0.3449 Z6.8427
X11.2228 Y-0.3447 Z6.8428
X11.2162 Y-0.344 Z6.8429
X11.2093 Y-0.343 Z6.843
X11.2024 Y-0.3417
X11.1961 Y-0.3402 Z6.8431
X11.1899 Y-0.3386 Z6.8432
X11.1836 Y-0.3367 Z6.8433
X11.1771 Y-0.3344 Z6.8434
X11.1706 Y-0.3318 Z6.8435
X11.1641 Y-0.3289 Z6.8436
X11.1576 Y-0.3257 Z6.8437
X11.1512 Y-0.3221 Z6.8438
X11.1462 Y-0.3189
X11.1416 Y-0.3157 Z6.8439
X11.1371 Y-0.3121
X11.1326 Y-0.3081 Z6.844
X11.1291 Y-0.3047 Z6.8441
X11.1261 Y-0.3014
X11.1232 Y-0.2979
X11.1204 Y-0.294 Z6.8442
X11.1181 Y-0.2904
X11.1161 Y-0.287
X11.1143 Y-0.2833 Z6.8443
X11.1128 Y-0.28
X11.1116 Y-0.2766
X11.1104 Y-0.2728
X11.1095 Y-0.2688
X11.1089 Y-0.2651
X11.1085 Y-0.2613
X11.1082 Y-0.2549
X11.1084 Y-0.2496
X11.1087 Y-0.246
X11.1092 Y-0.2421
X11.1101 Y-0.2382
X11.1111 Y-0.2344
X11.1124 Y-0.2307
X11.1142 Y-0.2266
X11.1164 Y-0.2222 Z6.8442
X11.1188 Y-0.2181
X11.1213 Y-0.2144
X11.1244 Y-0.2103 Z6.8441
X11.128 Y-0.2062
X11.1316 Y-0.2024 Z6.844
X11.1354 Y-0.1989
X11.1398 Y-0.1952 Z6.8439
X11.144 Y-0.1921
X11.1483 Y-0.1892 Z6.8438
X11.1527 Y-0.1865 Z6.8437
X11.1582 Y-0.1834
X11.1641 Y-0.1804 Z6.8436
X11.1701 Y-0.1777 Z6.8435
X11.1763 Y-0.1752 Z6.8434
X11.1826 Y-0.173 Z6.8433
X11.189 Y-0.171 Z6.8432
X11.1955 Y-0.1694 Z6.8431
X11.2014 Y-0.168
X11.2073 Y-0.167 Z6.843
X11.2134 Y-0.1661 Z6.8429
X11.2191 Y-0.1655
X11.2248 Y-0.1651 Z6.8428
X11.2328 Y-0.165 Z6.8427
X11.235
Z6.8327 F1.
X11.2328 F3.
X11.2248 Y-0.1651 Z6.8328
X11.2191 Y-0.1655 Z6.8329
X11.2134 Y-0.1661
X11.2073 Y-0.167 Z6.833
X11.2014 Y-0.168 Z6.8331
X11.1955 Y-0.1694
X11.189 Y-0.171 Z6.8332
X11.1826 Y-0.173 Z6.8333
X11.1763 Y-0.1752 Z6.8334
X11.1701 Y-0.1777 Z6.8335
X11.1641 Y-0.1804 Z6.8336
X11.1582 Y-0.1834 Z6.8337
X11.1527 Y-0.1865
X11.1483 Y-0.1892 Z6.8338
X11.144 Y-0.1921 Z6.8339
X11.1398 Y-0.1952
X11.1354 Y-0.1989 Z6.834
X11.1316 Y-0.2024
X11.128 Y-0.2062 Z6.8341
X11.1244 Y-0.2103
X11.1213 Y-0.2144 Z6.8342
X11.1188 Y-0.2181
X11.1164 Y-0.2222
X11.1142 Y-0.2266 Z6.8343
X11.1124 Y-0.2307
X11.1111 Y-0.2344
X11.1101 Y-0.2382
X11.1092 Y-0.2421
X11.1087 Y-0.246
X11.1084 Y-0.2496
X11.1082 Y-0.2549
X11.1085 Y-0.2613
X11.1089 Y-0.2651
X11.1095 Y-0.2688
X11.1104 Y-0.2728
X11.1116 Y-0.2766
X11.1128 Y-0.28
X11.1143 Y-0.2833
X11.1161 Y-0.287 Z6.8342
X11.1181 Y-0.2904
X11.1204 Y-0.294
X11.1232 Y-0.2979 Z6.8341
X11.1261 Y-0.3014
X11.1291 Y-0.3047
X11.1326 Y-0.3081 Z6.834
X11.1371 Y-0.3121 Z6.8339
X11.1416 Y-0.3157
X11.1462 Y-0.3189 Z6.8338
X11.1512 Y-0.3221
X11.1576 Y-0.3257 Z6.8337
X11.1641 Y-0.3289 Z6.8336
X11.1706 Y-0.3318 Z6.8335
X11.1771 Y-0.3344 Z6.8334
X11.1836 Y-0.3367 Z6.8333
X11.1899 Y-0.3386 Z6.8332
X11.1961 Y-0.3402 Z6.8331
X11.2024 Y-0.3417 Z6.833
X11.2093 Y-0.343
X11.2162 Y-0.344 Z6.8329
X11.2228 Y-0.3447 Z6.8328
X11.2298 Y-0.3449 Z6.8327
X11.2264 Y-0.4383 Z6.8328
X11.2256
X11.1098 Z6.8343
G0 Z7.3559
X10.7898
Z6.9469
G1 Z6.871 F1.
X10.9004 Z6.8683 F3.
X10.9064 Z6.8682
X10.9098 Y-0.3449 Z6.8681
X10.9028 Y-0.3447 Z6.8682
X10.8961 Y-0.344 Z6.8684
X10.8892 Y-0.343 Z6.8685
X10.8825 Y-0.3417 Z6.8687
X10.8761 Y-0.3403 Z6.8688
X10.8699 Y-0.3386 Z6.869
X10.8636 Y-0.3367 Z6.8691
X10.8571 Y-0.3344 Z6.8693
X10.8505 Y-0.3318 Z6.8695
X10.844 Y-0.3289 Z6.8696
X10.8375 Y-0.3257 Z6.8698
X10.8312 Y-0.3221 Z6.8699
X10.8262 Y-0.3189 Z6.8701
X10.8215 Y-0.3157 Z6.8702
X10.817 Y-0.3121 Z6.8703
X10.8126 Y-0.3081 Z6.8704
X10.8091 Y-0.3047 Z6.8705
X10.8061 Y-0.3014 Z6.8706
X10.8032 Y-0.2979
X10.8004 Y-0.294 Z6.8707
X10.7981 Y-0.2905 Z6.8708
X10.7961 Y-0.287
X10.7943 Y-0.2834 Z6.8709
X10.7928 Y-0.28
X10.7915 Y-0.2766
X10.7904 Y-0.2728 Z6.871
X10.7895 Y-0.2689
X10.7889 Y-0.2652
X10.7884 Y-0.2613
X10.7881 Y-0.255
X10.7883 Y-0.2501
X10.7886 Y-0.2461
X10.7892 Y-0.2422
X10.79 Y-0.2383
X10.7911 Y-0.2344 Z6.8709
X10.7924 Y-0.2307
X10.7942 Y-0.2266
X10.7964 Y-0.2222 Z6.8708
X10.7988 Y-0.2182
X10.8012 Y-0.2144 Z6.8707
X10.8044 Y-0.2103 Z6.8706
X10.8079 Y-0.2062 Z6.8705
X10.8115 Y-0.2024 Z6.8704
X10.8154 Y-0.1989 Z6.8703
X10.8198 Y-0.1953 Z6.8702
X10.8239 Y-0.1921 Z6.8701
X10.8282 Y-0.1892 Z6.87
X10.8326 Y-0.1865 Z6.8699
X10.8381 Y-0.1834 Z6.8698
X10.8441 Y-0.1804 Z6.8696
X10.8501 Y-0.1777 Z6.8695
X10.8562 Y-0.1752 Z6.8693
X10.8625 Y-0.173 Z6.8692
X10.8689 Y-0.1711 Z6.869
X10.8754 Y-0.1694 Z6.8689
X10.8813 Y-0.168 Z6.8687
X10.8872 Y-0.167 Z6.8686
X10.8933 Y-0.1661 Z6.8684
X10.899 Y-0.1655 Z6.8683
X10.9047 Y-0.1651 Z6.8682
X10.9127 Y-0.165 Z6.868
X10.9149
Z6.858 F1.
X10.9127 F3.
X10.9047 Y-0.1651 Z6.8582
X10.899 Y-0.1655 Z6.8583
X10.8933 Y-0.1661 Z6.8584
X10.8872 Y-0.167 Z6.8586
X10.8813 Y-0.168 Z6.8587
X10.8754 Y-0.1694 Z6.8589
X10.8689 Y-0.1711 Z6.859
X10.8625 Y-0.173 Z6.8592
X10.8562 Y-0.1752 Z6.8593
X10.8501 Y-0.1777 Z6.8595
X10.8441 Y-0.1804 Z6.8596
X10.8381 Y-0.1834 Z6.8598
X10.8326 Y-0.1865 Z6.8599
X10.8282 Y-0.1892 Z6.86
X10.8239 Y-0.1921 Z6.8601
X10.8198 Y-0.1953 Z6.8602
X10.8154 Y-0.1989 Z6.8603
X10.8115 Y-0.2024 Z6.8604
X10.8079 Y-0.2062 Z6.8605
X10.8044 Y-0.2103 Z6.8606
X10.8012 Y-0.2144 Z6.8607
X10.7988 Y-0.2182 Z6.8608
X10.7964 Y-0.2222
X10.7942 Y-0.2266 Z6.8609
X10.7924 Y-0.2307
X10.7911 Y-0.2344
X10.79 Y-0.2383 Z6.861
X10.7892 Y-0.2422
X10.7886 Y-0.2461
X10.7883 Y-0.2501
X10.7881 Y-0.255
X10.7884 Y-0.2613
X10.7889 Y-0.2652
X10.7895 Y-0.2689
X10.7904 Y-0.2728
X10.7915 Y-0.2766 Z6.8609
X10.7928 Y-0.28
X10.7943 Y-0.2834
X10.7961 Y-0.287 Z6.8608
X10.7981 Y-0.2905
X10.8004 Y-0.294 Z6.8607
X10.8032 Y-0.2979 Z6.8606
X10.8061 Y-0.3014
X10.8091 Y-0.3047 Z6.8605
X10.8126 Y-0.3081 Z6.8604
X10.817 Y-0.3121 Z6.8603
X10.8215 Y-0.3157 Z6.8602
X10.8262 Y-0.3189 Z6.8601
X10.8312 Y-0.3221 Z6.8599
X10.8375 Y-0.3257 Z6.8598
X10.844 Y-0.3289 Z6.8596
X10.8505 Y-0.3318 Z6.8595
X10.8571 Y-0.3344 Z6.8593
X10.8636 Y-0.3367 Z6.8591
X10.8699 Y-0.3386 Z6.859
X10.8761 Y-0.3403 Z6.8588
X10.8825 Y-0.3417 Z6.8587
X10.8892 Y-0.343 Z6.8585
X10.8961 Y-0.344 Z6.8584
X10.9028 Y-0.3447 Z6.8582
X10.9098 Y-0.3449 Z6.8581
X10.9064 Y-0.4383 Z6.8582
X10.9004 Z6.8583
X10.7898 Z6.861
Z6.851 F1.
X10.9004 Z6.8483 F3.
X10.9064 Z6.8482
X10.9098 Y-0.3449 Z6.8481
X10.9028 Y-0.3447 Z6.8482
X10.8961 Y-0.344 Z6.8484
X10.8892 Y-0.343 Z6.8485
X10.8825 Y-0.3417 Z6.8487
X10.8761 Y-0.3403 Z6.8488
X10.8699 Y-0.3386 Z6.849
X10.8636 Y-0.3367 Z6.8491
X10.8571 Y-0.3344 Z6.8493
X10.8505 Y-0.3318 Z6.8495
X10.844 Y-0.3289 Z6.8496
X10.8375 Y-0.3257 Z6.8498
X10.8312 Y-0.3221 Z6.8499
X10.8262 Y-0.3189 Z6.8501
X10.8215 Y-0.3157 Z6.8502
X10.817 Y-0.3121 Z6.8503
X10.8126 Y-0.3081 Z6.8504
X10.8091 Y-0.3047 Z6.8505
X10.8061 Y-0.3014 Z6.8506
X10.8032 Y-0.2979
X10.8004 Y-0.294 Z6.8507
X10.7981 Y-0.2905 Z6.8508
X10.7961 Y-0.287
X10.7943 Y-0.2834 Z6.8509
X10.7928 Y-0.28
X10.7915 Y-0.2766
X10.7904 Y-0.2728 Z6.851
X10.7895 Y-0.2689
X10.7889 Y-0.2652
X10.7884 Y-0.2613
X10.7881 Y-0.255
X10.7883 Y-0.2501
X10.7886 Y-0.2461
X10.7892 Y-0.2422
X10.79 Y-0.2383
X10.7911 Y-0.2344 Z6.8509
X10.7924 Y-0.2307
X10.7942 Y-0.2266
X10.7964 Y-0.2222 Z6.8508
X10.7988 Y-0.2182
X10.8012 Y-0.2144 Z6.8507
X10.8044 Y-0.2103 Z6.8506
X10.8079 Y-0.2062 Z6.8505
X10.8115 Y-0.2024 Z6.8504
X10.8154 Y-0.1989 Z6.8503
X10.8198 Y-0.1953 Z6.8502
X10.8239 Y-0.1921 Z6.8501
X10.8282 Y-0.1892 Z6.85
X10.8326 Y-0.1865 Z6.8499
X10.8381 Y-0.1834 Z6.8498
X10.8441 Y-0.1804 Z6.8496
X10.8501 Y-0.1777 Z6.8495
X10.8562 Y-0.1752 Z6.8493
X10.8625 Y-0.173 Z6.8492
X10.8689 Y-0.1711 Z6.849
X10.8754 Y-0.1694 Z6.8489
X10.8813 Y-0.168 Z6.8487
X10.8872 Y-0.167 Z6.8486
X10.8933 Y-0.1661 Z6.8484
X10.899 Y-0.1655 Z6.8483
X10.9047 Y-0.1651 Z6.8482
X10.9127 Y-0.165 Z6.848
X10.9149
Z6.838 F1.
X10.9127 F3.
X10.9047 Y-0.1651 Z6.8382
X10.899 Y-0.1655 Z6.8383
X10.8933 Y-0.1661 Z6.8384
X10.8872 Y-0.167 Z6.8386
X10.8813 Y-0.168 Z6.8387
X10.8754 Y-0.1694 Z6.8389
X10.8689 Y-0.1711 Z6.839
X10.8625 Y-0.173 Z6.8392
X10.8562 Y-0.1752 Z6.8393
X10.8501 Y-0.1777 Z6.8395
X10.8441 Y-0.1804 Z6.8396
X10.8381 Y-0.1834 Z6.8398
X10.8326 Y-0.1865 Z6.8399
X10.8282 Y-0.1892 Z6.84
X10.8239 Y-0.1921 Z6.8401
X10.8198 Y-0.1953 Z6.8402
X10.8154 Y-0.1989 Z6.8403
X10.8115 Y-0.2024 Z6.8404
X10.8079 Y-0.2062 Z6.8405
X10.8044 Y-0.2103 Z6.8406
X10.8012 Y-0.2144 Z6.8407
X10.7988 Y-0.2182 Z6.8408
X10.7964 Y-0.2222
X10.7942 Y-0.2266 Z6.8409
X10.7924 Y-0.2307
X10.7911 Y-0.2344
X10.79 Y-0.2383 Z6.841
X10.7892 Y-0.2422
X10.7886 Y-0.2461
X10.7883 Y-0.2501
X10.7881 Y-0.255
X10.7884 Y-0.2613
X10.7889 Y-0.2652
X10.7895 Y-0.2689
X10.7904 Y-0.2728
X10.7915 Y-0.2766 Z6.8409
X10.7928 Y-0.28
X10.7943 Y-0.2834
X10.7961 Y-0.287 Z6.8408
X10.7981 Y-0.2905
X10.8004 Y-0.294 Z6.8407
X10.8032 Y-0.2979 Z6.8406
X10.8061 Y-0.3014
X10.8091 Y-0.3047 Z6.8405
X10.8126 Y-0.3081 Z6.8404
X10.817 Y-0.3121 Z6.8403
X10.8215 Y-0.3157 Z6.8402
X10.8262 Y-0.3189 Z6.8401
X10.8312 Y-0.3221 Z6.8399
X10.8375 Y-0.3257 Z6.8398
X10.844 Y-0.3289 Z6.8396
X10.8505 Y-0.3318 Z6.8395
X10.8571 Y-0.3344 Z6.8393
X10.8636 Y-0.3367 Z6.8391
X10.8699 Y-0.3386 Z6.839
X10.8761 Y-0.3403 Z6.8388
X10.8825 Y-0.3417 Z6.8387
X10.8892 Y-0.343 Z6.8385
X10.8961 Y-0.344 Z6.8384
X10.9028 Y-0.3447 Z6.8382
X10.9098 Y-0.3449 Z6.8381
X10.9064 Y-0.4383 Z6.8382
X10.9004 Z6.8383
X10.7898 Z6.841
G0 Z7.3559
X10.4698
Z6.9574
G1 Z6.8811 F1.
X10.5753 Z6.8774 F3.
X10.5863 Z6.877
X10.5897 Y-0.3449 Z6.8769
X10.5828 Y-0.3447 Z6.8771
X10.5761 Y-0.344 Z6.8773
X10.5692 Y-0.343 Z6.8776
X10.5625 Y-0.3417 Z6.8778
X10.5561 Y-0.3403 Z6.878
X10.5499 Y-0.3386 Z6.8782
X10.5437 Y-0.3367 Z6.8784
X10.5371 Y-0.3344 Z6.8787
X10.5306 Y-0.3319 Z6.8789
X10.524 Y-0.329 Z6.8792
X10.5175 Y-0.3257 Z6.8794
X10.5112 Y-0.3221 Z6.8796
X10.5062 Y-0.3189 Z6.8798
X10.5016 Y-0.3157 Z6.88
X10.497 Y-0.3121 Z6.8801
X10.4925 Y-0.3081 Z6.8803
X10.489 Y-0.3047 Z6.8804
X10.4861 Y-0.3014 Z6.8805
X10.4832 Y-0.2979 Z6.8806
X10.4804 Y-0.2941 Z6.8807
X10.4781 Y-0.2905 Z6.8808
X10.4761 Y-0.287 Z6.8809
X10.4743 Y-0.2834
X10.4728 Y-0.2801 Z6.881
X10.4715 Y-0.2766
X10.4704 Y-0.2728 Z6.8811
X10.4695 Y-0.2689
X10.4688 Y-0.2652
X10.4684 Y-0.2614
X10.4681 Y-0.2552 Z6.8812
X10.4682 Y-0.2505
X10.4686 Y-0.2462 Z6.8811
X10.4692 Y-0.2422
X10.47 Y-0.2383
X10.471 Y-0.2344
X10.4723 Y-0.2308 Z6.881
X10.4741 Y-0.2266 Z6.8809
X10.4763 Y-0.2222
X10.4787 Y-0.2182 Z6.8808
X10.4812 Y-0.2144 Z6.8807
X10.4844 Y-0.2103 Z6.8806
X10.4879 Y-0.2062 Z6.8804
X10.4915 Y-0.2024 Z6.8803
X10.4953 Y-0.1989 Z6.8802
X10.4997 Y-0.1953 Z6.88
X10.5038 Y-0.1922 Z6.8799
X10.5081 Y-0.1892 Z6.8797
X10.5126 Y-0.1865 Z6.8796
X10.518 Y-0.1834 Z6.8794
X10.524 Y-0.1804 Z6.8792
X10.53 Y-0.1777 Z6.8789
X10.5361 Y-0.1752 Z6.8787
X10.5424 Y-0.173 Z6.8785
X10.5489 Y-0.1711 Z6.8783
X10.5553 Y-0.1694 Z6.878
X10.5613 Y-0.168 Z6.8778
X10.5672 Y-0.167 Z6.8776
X10.5732 Y-0.1661 Z6.8774
X10.5789 Y-0.1655 Z6.8773
X10.5846 Y-0.1651 Z6.8771
X10.5925 Y-0.165 Z6.8768
X10.5949 Z6.8767
Z6.8667 F1.
X10.5925 Z6.8668 F3.
X10.5846 Y-0.1651 Z6.8671
X10.5789 Y-0.1655 Z6.8673
X10.5732 Y-0.1661 Z6.8674
X10.5672 Y-0.167 Z6.8676
X10.5613 Y-0.168 Z6.8678
X10.5553 Y-0.1694 Z6.868
X10.5489 Y-0.1711 Z6.8683
X10.5424 Y-0.173 Z6.8685
X10.5361 Y-0.1752 Z6.8687
X10.53 Y-0.1777 Z6.8689
X10.524 Y-0.1804 Z6.8692
X10.518 Y-0.1834 Z6.8694
X10.5126 Y-0.1865 Z6.8696
X10.5081 Y-0.1892 Z6.8697
X10.5038 Y-0.1922 Z6.8699
X10.4997 Y-0.1953 Z6.87
X10.4953 Y-0.1989 Z6.8702
X10.4915 Y-0.2024 Z6.8703
X10.4879 Y-0.2062 Z6.8704
X10.4844 Y-0.2103 Z6.8706
X10.4812 Y-0.2144 Z6.8707
X10.4787 Y-0.2182 Z6.8708
X10.4763 Y-0.2222 Z6.8709
X10.4741 Y-0.2266
X10.4723 Y-0.2308 Z6.871
X10.471 Y-0.2344 Z6.8711
X10.47 Y-0.2383
X10.4692 Y-0.2422
X10.4686 Y-0.2462
X10.4682 Y-0.2505 Z6.8712
X10.4681 Y-0.2552
X10.4684 Y-0.2614 Z6.8711
X10.4688 Y-0.2652
X10.4695 Y-0.2689
X10.4704 Y-0.2728
X10.4715 Y-0.2766 Z6.871
X10.4728 Y-0.2801
X10.4743 Y-0.2834 Z6.8709
X10.4761 Y-0.287
X10.4781 Y-0.2905 Z6.8708
X10.4804 Y-0.2941 Z6.8707
X10.4832 Y-0.2979 Z6.8706
X10.4861 Y-0.3014 Z6.8705
X10.489 Y-0.3047 Z6.8704
X10.4925 Y-0.3081 Z6.8703
X10.497 Y-0.3121 Z6.8701
X10.5016 Y-0.3157 Z6.87
X10.5062 Y-0.3189 Z6.8698
X10.5112 Y-0.3221 Z6.8696
X10.5175 Y-0.3257 Z6.8694
X10.524 Y-0.329 Z6.8692
X10.5306 Y-0.3319 Z6.8689
X10.5371 Y-0.3344 Z6.8687
X10.5437 Y-0.3367 Z6.8684
X10.5499 Y-0.3386 Z6.8682
X10.5561 Y-0.3403 Z6.868
X10.5625 Y-0.3417 Z6.8678
X10.5692 Y-0.343 Z6.8676
X10.5761 Y-0.344 Z6.8673
X10.5828 Y-0.3447 Z6.8671
X10.5897 Y-0.3449 Z6.8669
X10.5863 Y-0.4383 Z6.867
X10.5753 Z6.8674
X10.4698 Z6.8711
Z6.8611 F1.
X10.5753 Z6.8574 F3.
X10.5863 Z6.857
X10.5897 Y-0.3449 Z6.8569
X10.5828 Y-0.3447 Z6.8571
X10.5761 Y-0.344 Z6.8573
X10.5692 Y-0.343 Z6.8576
X10.5625 Y-0.3417 Z6.8578
X10.5561 Y-0.3403 Z6.858
X10.5499 Y-0.3386 Z6.8582
X10.5437 Y-0.3367 Z6.8584
X10.5371 Y-0.3344 Z6.8587
X10.5306 Y-0.3319 Z6.8589
X10.524 Y-0.329 Z6.8592
X10.5175 Y-0.3257 Z6.8594
X10.5112 Y-0.3221 Z6.8596
X10.5062 Y-0.3189 Z6.8598
X10.5016 Y-0.3157 Z6.86
X10.497 Y-0.3121 Z6.8601
X10.4925 Y-0.3081 Z6.8603
X10.489 Y-0.3047 Z6.8604
X10.4861 Y-0.3014 Z6.8605
X10.4832 Y-0.2979 Z6.8606
X10.4804 Y-0.2941 Z6.8607
X10.4781 Y-0.2905 Z6.8608
X10.4761 Y-0.287 Z6.8609
X10.4743 Y-0.2834
X10.4728 Y-0.2801 Z6.861
X10.4715 Y-0.2766
X10.4704 Y-0.2728 Z6.8611
X10.4695 Y-0.2689
X10.4688 Y-0.2652
X10.4684 Y-0.2614
X10.4681 Y-0.2552 Z6.8612
X10.4682 Y-0.2505
X10.4686 Y-0.2462 Z6.8611
X10.4692 Y-0.2422
X10.47 Y-0.2383
X10.471 Y-0.2344
X10.4723 Y-0.2308 Z6.861
X10.4741 Y-0.2266 Z6.8609
X10.4763 Y-0.2222
X10.4787 Y-0.2182 Z6.8608
X10.4812 Y-0.2144 Z6.8607
X10.4844 Y-0.2103 Z6.8606
X10.4879 Y-0.2062 Z6.8604
X10.4915 Y-0.2024 Z6.8603
X10.4953 Y-0.1989 Z6.8602
X10.4997 Y-0.1953 Z6.86
X10.5038 Y-0.1922 Z6.8599
X10.5081 Y-0.1892 Z6.8597
X10.5126 Y-0.1865 Z6.8596
X10.518 Y-0.1834 Z6.8594
X10.524 Y-0.1804 Z6.8592
X10.53 Y-0.1777 Z6.8589
X10.5361 Y-0.1752 Z6.8587
X10.5424 Y-0.173 Z6.8585
X10.5489 Y-0.1711 Z6.8583
X10.5553 Y-0.1694 Z6.858
X10.5613 Y-0.168 Z6.8578
X10.5672 Y-0.167 Z6.8576
X10.5732 Y-0.1661 Z6.8574
X10.5789 Y-0.1655 Z6.8573
X10.5846 Y-0.1651 Z6.8571
X10.5925 Y-0.165 Z6.8568
X10.5949 Z6.8567
Z6.8467 F1.
X10.5925 Z6.8468 F3.
X10.5846 Y-0.1651 Z6.8471
X10.5789 Y-0.1655 Z6.8473
X10.5732 Y-0.1661 Z6.8474
X10.5672 Y-0.167 Z6.8476
X10.5613 Y-0.168 Z6.8478
X10.5553 Y-0.1694 Z6.848
X10.5489 Y-0.1711 Z6.8483
X10.5424 Y-0.173 Z6.8485
X10.5361 Y-0.1752 Z6.8487
X10.53 Y-0.1777 Z6.8489
X10.524 Y-0.1804 Z6.8492
X10.518 Y-0.1834 Z6.8494
X10.5126 Y-0.1865 Z6.8496
X10.5081 Y-0.1892 Z6.8497
X10.5038 Y-0.1922 Z6.8499
X10.4997 Y-0.1953 Z6.85
X10.4953 Y-0.1989 Z6.8502
X10.4915 Y-0.2024 Z6.8503
X10.4879 Y-0.2062 Z6.8504
X10.4844 Y-0.2103 Z6.8506
X10.4812 Y-0.2144 Z6.8507
X10.4787 Y-0.2182 Z6.8508
X10.4763 Y-0.2222 Z6.8509
X10.4741 Y-0.2266
X10.4723 Y-0.2308 Z6.851
X10.471 Y-0.2344 Z6.8511
X10.47 Y-0.2383
X10.4692 Y-0.2422
X10.4686 Y-0.2462
X10.4682 Y-0.2505 Z6.8512
X10.4681 Y-0.2552
X10.4684 Y-0.2614 Z6.8511
X10.4688 Y-0.2652
X10.4695 Y-0.2689
X10.4704 Y-0.2728
X10.4715 Y-0.2766 Z6.851
X10.4728 Y-0.2801
X10.4743 Y-0.2834 Z6.8509
X10.4761 Y-0.287
X10.4781 Y-0.2905 Z6.8508
X10.4804 Y-0.2941 Z6.8507
X10.4832 Y-0.2979 Z6.8506
X10.4861 Y-0.3014 Z6.8505
X10.489 Y-0.3047 Z6.8504
X10.4925 Y-0.3081 Z6.8503
X10.497 Y-0.3121 Z6.8501
X10.5016 Y-0.3157 Z6.85
X10.5062 Y-0.3189 Z6.8498
X10.5112 Y-0.3221 Z6.8496
X10.5175 Y-0.3257 Z6.8494
X10.524 Y-0.329 Z6.8492
X10.5306 Y-0.3319 Z6.8489
X10.5371 Y-0.3344 Z6.8487
X10.5437 Y-0.3367 Z6.8484
X10.5499 Y-0.3386 Z6.8482
X10.5561 Y-0.3403 Z6.848
X10.5625 Y-0.3417 Z6.8478
X10.5692 Y-0.343 Z6.8476
X10.5761 Y-0.344 Z6.8473
X10.5828 Y-0.3447 Z6.8471
X10.5897 Y-0.3449 Z6.8469
X10.5863 Y-0.4383 Z6.847
X10.5753 Z6.8474
X10.4698 Z6.8511
G0 Z7.3559
X10.1497
Z6.9714
G1 Z6.8947 F1.
X10.2503 Z6.89 F3.
X10.2663 Z6.8893
X10.2697 Y-0.3449 Z6.8892
X10.2628 Y-0.3447 Z6.8895
X10.2561 Y-0.344 Z6.8898
X10.2493 Y-0.343 Z6.8901
X10.2425 Y-0.3417 Z6.8904
X10.2361 Y-0.3403 Z6.8907
X10.2298 Y-0.3386 Z6.8909
X10.2236 Y-0.3367 Z6.8912
X10.2171 Y-0.3344 Z6.8915
X10.2105 Y-0.3319 Z6.8918
X10.204 Y-0.329 Z6.8922
X10.1975 Y-0.3257 Z6.8925
X10.1911 Y-0.3221 Z6.8928
X10.1862 Y-0.319 Z6.893
X10.1815 Y-0.3157 Z6.8932
X10.177 Y-0.3121 Z6.8934
X10.1725 Y-0.3082 Z6.8936
X10.169 Y-0.3047 Z6.8938
X10.166 Y-0.3014 Z6.8939
X10.1631 Y-0.2979 Z6.8941
X10.1603 Y-0.2941 Z6.8942
X10.1581 Y-0.2906 Z6.8943
X10.1561 Y-0.2871 Z6.8944
X10.1543 Y-0.2835 Z6.8945
X10.1528 Y-0.2801 Z6.8946
X10.1515 Y-0.2767
X10.1503 Y-0.2728 Z6.8947
X10.1494 Y-0.2689
X10.1488 Y-0.2652
X10.1484 Y-0.2614 Z6.8948
X10.1481 Y-0.2553
X10.1482 Y-0.2508
X10.1485 Y-0.2463
X10.1491 Y-0.2422 Z6.8947
X10.1499 Y-0.2383
X10.151 Y-0.2344 Z6.8946
X10.1523 Y-0.2308
X10.1541 Y-0.2266 Z6.8945
X10.1563 Y-0.2223 Z6.8944
X10.1587 Y-0.2182 Z6.8943
X10.1612 Y-0.2144 Z6.8942
X10.1643 Y-0.2103 Z6.894
X10.1678 Y-0.2062 Z6.8938
X10.1714 Y-0.2025 Z6.8937
X10.1752 Y-0.1989 Z6.8935
X10.1796 Y-0.1953 Z6.8933
X10.1838 Y-0.1922 Z6.8931
X10.188 Y-0.1893 Z6.8929
X10.1925 Y-0.1865 Z6.8927
X10.198 Y-0.1834 Z6.8924
X10.2039 Y-0.1804 Z6.8922
X10.2099 Y-0.1777 Z6.8919
X10.2161 Y-0.1753 Z6.8916
X10.2223 Y-0.1731 Z6.8913
X10.2288 Y-0.1711 Z6.891
X10.2353 Y-0.1694 Z6.8907
X10.2412 Y-0.1681 Z6.8904
X10.2471 Y-0.167 Z6.8902
X10.2532 Y-0.1661 Z6.8899
X10.2588 Y-0.1655 Z6.8897
X10.2646 Y-0.1651 Z6.8894
X10.2724 Y-0.165 Z6.8891
X10.2748 Z6.889
Z6.879 F1.
X10.2724 Z6.8791 F3.
X10.2646 Y-0.1651 Z6.8794
X10.2588 Y-0.1655 Z6.8797
X10.2532 Y-0.1661 Z6.8799
X10.2471 Y-0.167 Z6.8802
X10.2412 Y-0.1681 Z6.8804
X10.2353 Y-0.1694 Z6.8807
X10.2288 Y-0.1711 Z6.881
X10.2223 Y-0.1731 Z6.8813
X10.2161 Y-0.1753 Z6.8816
X10.2099 Y-0.1777 Z6.8819
X10.2039 Y-0.1804 Z6.8822
X10.198 Y-0.1834 Z6.8824
X10.1925 Y-0.1865 Z6.8827
X10.188 Y-0.1893 Z6.8829
X10.1838 Y-0.1922 Z6.8831
X10.1796 Y-0.1953 Z6.8833
X10.1752 Y-0.1989 Z6.8835
X10.1714 Y-0.2025 Z6.8837
X10.1678 Y-0.2062 Z6.8838
X10.1643 Y-0.2103 Z6.884
X10.1612 Y-0.2144 Z6.8842
X10.1587 Y-0.2182 Z6.8843
X10.1563 Y-0.2223 Z6.8844
X10.1541 Y-0.2266 Z6.8845
X10.1523 Y-0.2308 Z6.8846
X10.151 Y-0.2344
X10.1499 Y-0.2383 Z6.8847
X10.1491 Y-0.2422
X10.1485 Y-0.2463 Z6.8848
X10.1482 Y-0.2508
X10.1481 Y-0.2553
X10.1484 Y-0.2614
X10.1488 Y-0.2652 Z6.8847
X10.1494 Y-0.2689
X10.1503 Y-0.2728
X10.1515 Y-0.2767 Z6.8846
X10.1528 Y-0.2801
X10.1543 Y-0.2835 Z6.8845
X10.1561 Y-0.2871 Z6.8844
X10.1581 Y-0.2906 Z6.8843
X10.1603 Y-0.2941 Z6.8842
X10.1631 Y-0.2979 Z6.8841
X10.166 Y-0.3014 Z6.8839
X10.169 Y-0.3047 Z6.8838
X10.1725 Y-0.3082 Z6.8836
X10.177 Y-0.3121 Z6.8834
X10.1815 Y-0.3157 Z6.8832
X10.1862 Y-0.319 Z6.883
X10.1911 Y-0.3221 Z6.8828
X10.1975 Y-0.3257 Z6.8825
X10.204 Y-0.329 Z6.8822
X10.2105 Y-0.3319 Z6.8818
X10.2171 Y-0.3344 Z6.8815
X10.2236 Y-0.3367 Z6.8812
X10.2298 Y-0.3386 Z6.8809
X10.2361 Y-0.3403 Z6.8807
X10.2425 Y-0.3417 Z6.8804
X10.2493 Y-0.343 Z6.8801
X10.2561 Y-0.344 Z6.8798
X10.2628 Y-0.3447 Z6.8795
X10.2697 Y-0.3449 Z6.8792
X10.2663 Y-0.4383 Z6.8793
X10.2503 Z6.88
X10.1497 Z6.8847
Z6.8747 F1.
X10.2503 Z6.87 F3.
X10.2663 Z6.8693
X10.2697 Y-0.3449 Z6.8692
X10.2628 Y-0.3447 Z6.8695
X10.2561 Y-0.344 Z6.8698
X10.2493 Y-0.343 Z6.8701
X10.2425 Y-0.3417 Z6.8704
X10.2361 Y-0.3403 Z6.8707
X10.2298 Y-0.3386 Z6.8709
X10.2236 Y-0.3367 Z6.8712
X10.2171 Y-0.3344 Z6.8715
X10.2105 Y-0.3319 Z6.8718
X10.204 Y-0.329 Z6.8722
X10.1975 Y-0.3257 Z6.8725
X10.1911 Y-0.3221 Z6.8728
X10.1862 Y-0.319 Z6.873
X10.1815 Y-0.3157 Z6.8732
X10.177 Y-0.3121 Z6.8734
X10.1725 Y-0.3082 Z6.8736
X10.169 Y-0.3047 Z6.8738
X10.166 Y-0.3014 Z6.8739
X10.1631 Y-0.2979 Z6.8741
X10.1603 Y-0.2941 Z6.8742
X10.1581 Y-0.2906 Z6.8743
X10.1561 Y-0.2871 Z6.8744
X10.1543 Y-0.2835 Z6.8745
X10.1528 Y-0.2801 Z6.8746
X10.1515 Y-0.2767
X10.1503 Y-0.2728 Z6.8747
X10.1494 Y-0.2689
X10.1488 Y-0.2652
X10.1484 Y-0.2614 Z6.8748
X10.1481 Y-0.2553
X10.1482 Y-0.2508
X10.1485 Y-0.2463
X10.1491 Y-0.2422 Z6.8747
X10.1499 Y-0.2383
X10.151 Y-0.2344 Z6.8746
X10.1523 Y-0.2308
X10.1541 Y-0.2266 Z6.8745
X10.1563 Y-0.2223 Z6.8744
X10.1587 Y-0.2182 Z6.8743
X10.1612 Y-0.2144 Z6.8742
X10.1643 Y-0.2103 Z6.874
X10.1678 Y-0.2062 Z6.8738
X10.1714 Y-0.2025 Z6.8737
X10.1752 Y-0.1989 Z6.8735
X10.1796 Y-0.1953 Z6.8733
X10.1838 Y-0.1922 Z6.8731
X10.188 Y-0.1893 Z6.8729
X10.1925 Y-0.1865 Z6.8727
X10.198 Y-0.1834 Z6.8724
X10.2039 Y-0.1804 Z6.8722
X10.2099 Y-0.1777 Z6.8719
X10.2161 Y-0.1753 Z6.8716
X10.2223 Y-0.1731 Z6.8713
X10.2288 Y-0.1711 Z6.871
X10.2353 Y-0.1694 Z6.8707
X10.2412 Y-0.1681 Z6.8704
X10.2471 Y-0.167 Z6.8702
X10.2532 Y-0.1661 Z6.8699
X10.2588 Y-0.1655 Z6.8697
X10.2646 Y-0.1651 Z6.8694
X10.2724 Y-0.165 Z6.8691
X10.2748 Z6.869
Z6.859 F1.
X10.2724 Z6.8591 F3.
X10.2646 Y-0.1651 Z6.8594
X10.2588 Y-0.1655 Z6.8597
X10.2532 Y-0.1661 Z6.8599
X10.2471 Y-0.167 Z6.8602
X10.2412 Y-0.1681 Z6.8604
X10.2353 Y-0.1694 Z6.8607
X10.2288 Y-0.1711 Z6.861
X10.2223 Y-0.1731 Z6.8613
X10.2161 Y-0.1753 Z6.8616
X10.2099 Y-0.1777 Z6.8619
X10.2039 Y-0.1804 Z6.8622
X10.198 Y-0.1834 Z6.8624
X10.1925 Y-0.1865 Z6.8627
X10.188 Y-0.1893 Z6.8629
X10.1838 Y-0.1922 Z6.8631
X10.1796 Y-0.1953 Z6.8633
X10.1752 Y-0.1989 Z6.8635
X10.1714 Y-0.2025 Z6.8637
X10.1678 Y-0.2062 Z6.8638
X10.1643 Y-0.2103 Z6.864
X10.1612 Y-0.2144 Z6.8642
X10.1587 Y-0.2182 Z6.8643
X10.1563 Y-0.2223 Z6.8644
X10.1541 Y-0.2266 Z6.8645
X10.1523 Y-0.2308 Z6.8646
X10.151 Y-0.2344
X10.1499 Y-0.2383 Z6.8647
X10.1491 Y-0.2422
X10.1485 Y-0.2463 Z6.8648
X10.1482 Y-0.2508
X10.1481 Y-0.2553
X10.1484 Y-0.2614
X10.1488 Y-0.2652 Z6.8647
X10.1494 Y-0.2689
X10.1503 Y-0.2728
X10.1515 Y-0.2767 Z6.8646
X10.1528 Y-0.2801
X10.1543 Y-0.2835 Z6.8645
X10.1561 Y-0.2871 Z6.8644
X10.1581 Y-0.2906 Z6.8643
X10.1603 Y-0.2941 Z6.8642
X10.1631 Y-0.2979 Z6.8641
X10.166 Y-0.3014 Z6.8639
X10.169 Y-0.3047 Z6.8638
X10.1725 Y-0.3082 Z6.8636
X10.177 Y-0.3121 Z6.8634
X10.1815 Y-0.3157 Z6.8632
X10.1862 Y-0.319 Z6.863
X10.1911 Y-0.3221 Z6.8628
X10.1975 Y-0.3257 Z6.8625
X10.204 Y-0.329 Z6.8622
X10.2105 Y-0.3319 Z6.8618
X10.2171 Y-0.3344 Z6.8615
X10.2236 Y-0.3367 Z6.8612
X10.2298 Y-0.3386 Z6.8609
X10.2361 Y-0.3403 Z6.8607
X10.2425 Y-0.3417 Z6.8604
X10.2493 Y-0.343 Z6.8601
X10.2561 Y-0.344 Z6.8598
X10.2628 Y-0.3447 Z6.8595
X10.2697 Y-0.3449 Z6.8592
X10.2663 Y-0.4383 Z6.8593
X10.2503 Z6.86
X10.1497 Z6.8647
G0 Z7.3559
X9.8297
Z6.9889
G1 Z6.9118 F1.
X9.9256 Z6.9063 F3.
X9.9463 Z6.9052
X9.9497 Y-0.3449 Z6.905
X9.9427 Y-0.3447 Z6.9054
X9.9361 Y-0.344 Z6.9057
X9.9292 Y-0.343 Z6.9061
X9.9224 Y-0.3417 Z6.9065
X9.9161 Y-0.3403 Z6.9068
X9.9099 Y-0.3386 Z6.9071
X9.9036 Y-0.3367 Z6.9075
X9.897 Y-0.3344 Z6.9079
X9.8905 Y-0.3319 Z6.9083
X9.8839 Y-0.329 Z6.9086
X9.8775 Y-0.3257 Z6.909
X9.8711 Y-0.3221 Z6.9094
X9.8661 Y-0.319 Z6.9097
X9.8615 Y-0.3157 Z6.9099
X9.8569 Y-0.3121 Z6.9102
X9.8525 Y-0.3082 Z6.9105
X9.849 Y-0.3048 Z6.9107
X9.846 Y-0.3015 Z6.9108
X9.8431 Y-0.298 Z6.911
X9.8403 Y-0.2941 Z6.9112
X9.8381 Y-0.2906 Z6.9113
X9.8361 Y-0.2871 Z6.9114
X9.8343 Y-0.2836 Z6.9115
X9.8328 Y-0.2802 Z6.9116
X9.8314 Y-0.2767 Z6.9117
X9.8303 Y-0.2729
X9.8294 Y-0.2689 Z6.9118
X9.8288 Y-0.2652
X9.8283 Y-0.2614 Z6.9119
X9.828 Y-0.2554
X9.8281 Y-0.2514
X9.8285 Y-0.2465
X9.8291 Y-0.2423 Z6.9118
X9.8299 Y-0.2383
X9.831 Y-0.2345 Z6.9117
X9.8323 Y-0.2308 Z6.9116
X9.834 Y-0.2266 Z6.9115
X9.8362 Y-0.2223 Z6.9114
X9.8386 Y-0.2182 Z6.9113
X9.8411 Y-0.2145 Z6.9111
X9.8443 Y-0.2103 Z6.9109
X9.8478 Y-0.2062 Z6.9107
X9.8514 Y-0.2025 Z6.9105
X9.8552 Y-0.1989 Z6.9103
X9.8596 Y-0.1953 Z6.9101
X9.8637 Y-0.1922 Z6.9098
X9.868 Y-0.1893 Z6.9096
X9.8724 Y-0.1865 Z6.9093
X9.8779 Y-0.1834 Z6.909
X9.8839 Y-0.1804 Z6.9086
X9.8899 Y-0.1777 Z6.9083
X9.896 Y-0.1753 Z6.9079
X9.9023 Y-0.1731 Z6.9076
X9.9087 Y-0.1711 Z6.9072
X9.9152 Y-0.1694 Z6.9069
X9.9211 Y-0.1681 Z6.9065
X9.927 Y-0.167 Z6.9062
X9.9331 Y-0.1661 Z6.9059
X9.9388 Y-0.1655 Z6.9056
X9.9445 Y-0.1651 Z6.9053
X9.9523 Y-0.165 Z6.9048
X9.9548 Z6.9047
Z6.8947 F1.
X9.9523 Z6.8948 F3.
X9.9445 Y-0.1651 Z6.8953
X9.9388 Y-0.1655 Z6.8956
X9.9331 Y-0.1661 Z6.8959
X9.927 Y-0.167 Z6.8962
X9.9211 Y-0.1681 Z6.8965
X9.9152 Y-0.1694 Z6.8969
X9.9087 Y-0.1711 Z6.8972
X9.9023 Y-0.1731 Z6.8976
X9.896 Y-0.1753 Z6.8979
X9.8899 Y-0.1777 Z6.8983
X9.8839 Y-0.1804 Z6.8986
X9.8779 Y-0.1834 Z6.899
X9.8724 Y-0.1865 Z6.8993
X9.868 Y-0.1893 Z6.8996
X9.8637 Y-0.1922 Z6.8998
X9.8596 Y-0.1953 Z6.9001
X9.8552 Y-0.1989 Z6.9003
X9.8514 Y-0.2025 Z6.9005
X9.8478 Y-0.2062 Z6.9007
X9.8443 Y-0.2103 Z6.9009
X9.8411 Y-0.2145 Z6.9011
X9.8386 Y-0.2182 Z6.9013
X9.8362 Y-0.2223 Z6.9014
X9.834 Y-0.2266 Z6.9015
X9.8323 Y-0.2308 Z6.9016
X9.831 Y-0.2345 Z6.9017
X9.8299 Y-0.2383 Z6.9018
X9.8291 Y-0.2423
X9.8285 Y-0.2465 Z6.9019
X9.8281 Y-0.2514
X9.828 Y-0.2554
X9.8283 Y-0.2614
X9.8288 Y-0.2652 Z6.9018
X9.8294 Y-0.2689
X9.8303 Y-0.2729 Z6.9017
X9.8314 Y-0.2767
X9.8328 Y-0.2802 Z6.9016
X9.8343 Y-0.2836 Z6.9015
X9.8361 Y-0.2871 Z6.9014
X9.8381 Y-0.2906 Z6.9013
X9.8403 Y-0.2941 Z6.9012
X9.8431 Y-0.298 Z6.901
X9.846 Y-0.3015 Z6.9008
X9.849 Y-0.3048 Z6.9007
X9.8525 Y-0.3082 Z6.9005
X9.8569 Y-0.3121 Z6.9002
X9.8615 Y-0.3157 Z6.8999
X9.8661 Y-0.319 Z6.8997
X9.8711 Y-0.3221 Z6.8994
X9.8775 Y-0.3257 Z6.899
X9.8839 Y-0.329 Z6.8986
X9.8905 Y-0.3319 Z6.8983
X9.897 Y-0.3344 Z6.8979
X9.9036 Y-0.3367 Z6.8975
X9.9099 Y-0.3386 Z6.8971
X9.9161 Y-0.3403 Z6.8968
X9.9224 Y-0.3417 Z6.8965
X9.9292 Y-0.343 Z6.8961
X9.9361 Y-0.344 Z6.8957
X9.9427 Y-0.3447 Z6.8954
X9.9497 Y-0.3449 Z6.895
X9.9463 Y-0.4383 Z6.8952
X9.9256 Z6.8963
X9.8297 Z6.9018
Z6.8918 F1.
X9.9256 Z6.8863 F3.
X9.9463 Z6.8852
X9.9497 Y-0.3449 Z6.885
X9.9427 Y-0.3447 Z6.8854
X9.9361 Y-0.344 Z6.8857
X9.9292 Y-0.343 Z6.8861
X9.9224 Y-0.3417 Z6.8865
X9.9161 Y-0.3403 Z6.8868
X9.9099 Y-0.3386 Z6.8871
X9.9036 Y-0.3367 Z6.8875
X9.897 Y-0.3344 Z6.8879
X9.8905 Y-0.3319 Z6.8883
X9.8839 Y-0.329 Z6.8886
X9.8775 Y-0.3257 Z6.889
X9.8711 Y-0.3221 Z6.8894
X9.8661 Y-0.319 Z6.8897
X9.8615 Y-0.3157 Z6.8899
X9.8569 Y-0.3121 Z6.8902
X9.8525 Y-0.3082 Z6.8905
X9.849 Y-0.3048 Z6.8907
X9.846 Y-0.3015 Z6.8908
X9.8431 Y-0.298 Z6.891
X9.8403 Y-0.2941 Z6.8912
X9.8381 Y-0.2906 Z6.8913
X9.8361 Y-0.2871 Z6.8914
X9.8343 Y-0.2836 Z6.8915
X9.8328 Y-0.2802 Z6.8916
X9.8314 Y-0.2767 Z6.8917
X9.8303 Y-0.2729
X9.8294 Y-0.2689 Z6.8918
X9.8288 Y-0.2652
X9.8283 Y-0.2614 Z6.8919
X9.828 Y-0.2554
X9.8281 Y-0.2514
X9.8285 Y-0.2465
X9.8291 Y-0.2423 Z6.8918
X9.8299 Y-0.2383
X9.831 Y-0.2345 Z6.8917
X9.8323 Y-0.2308 Z6.8916
X9.834 Y-0.2266 Z6.8915
X9.8362 Y-0.2223 Z6.8914
X9.8386 Y-0.2182 Z6.8913
X9.8411 Y-0.2145 Z6.8911
X9.8443 Y-0.2103 Z6.8909
X9.8478 Y-0.2062 Z6.8907
X9.8514 Y-0.2025 Z6.8905
X9.8552 Y-0.1989 Z6.8903
X9.8596 Y-0.1953 Z6.8901
X9.8637 Y-0.1922 Z6.8898
X9.868 Y-0.1893 Z6.8896
X9.8724 Y-0.1865 Z6.8893
X9.8779 Y-0.1834 Z6.889
X9.8839 Y-0.1804 Z6.8886
X9.8899 Y-0.1777 Z6.8883
X9.896 Y-0.1753 Z6.8879
X9.9023 Y-0.1731 Z6.8876
X9.9087 Y-0.1711 Z6.8872
X9.9152 Y-0.1694 Z6.8869
X9.9211 Y-0.1681 Z6.8865
X9.927 Y-0.167 Z6.8862
X9.9331 Y-0.1661 Z6.8859
X9.9388 Y-0.1655 Z6.8856
X9.9445 Y-0.1651 Z6.8853
X9.9523 Y-0.165 Z6.8848
X9.9548 Z6.8847
Z6.8747 F1.
X9.9523 Z6.8748 F3.
X9.9445 Y-0.1651 Z6.8753
X9.9388 Y-0.1655 Z6.8756
X9.9331 Y-0.1661 Z6.8759
X9.927 Y-0.167 Z6.8762
X9.9211 Y-0.1681 Z6.8765
X9.9152 Y-0.1694 Z6.8769
X9.9087 Y-0.1711 Z6.8772
X9.9023 Y-0.1731 Z6.8776
X9.896 Y-0.1753 Z6.8779
X9.8899 Y-0.1777 Z6.8783
X9.8839 Y-0.1804 Z6.8786
X9.8779 Y-0.1834 Z6.879
X9.8724 Y-0.1865 Z6.8793
X9.868 Y-0.1893 Z6.8796
X9.8637 Y-0.1922 Z6.8798
X9.8596 Y-0.1953 Z6.8801
X9.8552 Y-0.1989 Z6.8803
X9.8514 Y-0.2025 Z6.8805
X9.8478 Y-0.2062 Z6.8807
X9.8443 Y-0.2103 Z6.8809
X9.8411 Y-0.2145 Z6.8811
X9.8386 Y-0.2182 Z6.8813
X9.8362 Y-0.2223 Z6.8814
X9.834 Y-0.2266 Z6.8815
X9.8323 Y-0.2308 Z6.8816
X9.831 Y-0.2345 Z6.8817
X9.8299 Y-0.2383 Z6.8818
X9.8291 Y-0.2423
X9.8285 Y-0.2465 Z6.8819
X9.8281 Y-0.2514
X9.828 Y-0.2554
X9.8283 Y-0.2614
X9.8288 Y-0.2652 Z6.8818
X9.8294 Y-0.2689
X9.8303 Y-0.2729 Z6.8817
X9.8314 Y-0.2767
X9.8328 Y-0.2802 Z6.8816
X9.8343 Y-0.2836 Z6.8815
X9.8361 Y-0.2871 Z6.8814
X9.8381 Y-0.2906 Z6.8813
X9.8403 Y-0.2941 Z6.8812
X9.8431 Y-0.298 Z6.881
X9.846 Y-0.3015 Z6.8808
X9.849 Y-0.3048 Z6.8807
X9.8525 Y-0.3082 Z6.8805
X9.8569 Y-0.3121 Z6.8802
X9.8615 Y-0.3157 Z6.8799
X9.8661 Y-0.319 Z6.8797
X9.8711 Y-0.3221 Z6.8794
X9.8775 Y-0.3257 Z6.879
X9.8839 Y-0.329 Z6.8786
X9.8905 Y-0.3319 Z6.8783
X9.897 Y-0.3344 Z6.8779
X9.9036 Y-0.3367 Z6.8775
X9.9099 Y-0.3386 Z6.8771
X9.9161 Y-0.3403 Z6.8768
X9.9224 Y-0.3417 Z6.8765
X9.9292 Y-0.343 Z6.8761
X9.9361 Y-0.344 Z6.8757
X9.9427 Y-0.3447 Z6.8754
X9.9497 Y-0.3449 Z6.875
X9.9463 Y-0.4383 Z6.8752
X9.9256 Z6.8763
X9.8297 Z6.8818
G0 Z7.6059

M5
M9
G53 G0 Z0.
G53 G0 X0. Y0.
G49
G69
G0 A0. C0.
M30
