O0056 (EMTSERIALSUB-66666)

(PROGRAM CREATED FOR MAZAK VARIAXIS-I700 5-AXIS MILL ONLY)

(PROVEN BY: )
(PROVEN ON: )

(QC ACCEPTED BY: )
(QC ACCEPTED ON: )

(T50 D=0.125 CR=0. TAPER=30DEG - CHAMFER MILL)

G90 G94 G17 G49
G20
G53 G0 Z0.

(SERIAL ENGRAVE TIT)
T50 M6
S18000 M3
G90 G94 G17
G54.1 P2
G68.2 X0. Y0. Z0. I107.642 J90. K180.
G53.1 P2
M8
G0 X11.2496 Y-0.2677
G43 Z7.6059 H50
G0 Z6.9379
G1 Z6.8625 F1.
X11.248 Y-0.2732 Z6.8626 F3.
X11.2466 Y-0.2775
X11.2448 Y-0.282
X11.2426 Y-0.2864
X11.2402 Y-0.2906
X11.2376 Y-0.2946 Z6.8627
X11.2347 Y-0.2985
X11.2315 Y-0.3022
X11.2282 Y-0.3056 Z6.8628
X11.2255 Y-0.3083
X11.2222 Y-0.3111
X11.2185 Y-0.3139 Z6.8629
X11.2149 Y-0.3165
X11.2111 Y-0.3188
X11.2066 Y-0.3212 Z6.863
X11.2018 Y-0.3234 Z6.8631
X11.197 Y-0.3252
X11.192 Y-0.3267 Z6.8632
X11.1875 Y-0.3277 Z6.8633
X11.1832 Y-0.3284
X11.1798 Y-0.3289 Z6.8634
X11.1752 Y-0.3291
X11.1716 Y-0.3292 Z6.8635
X11.1664 Y-0.3289
X11.1631 Y-0.3286 Z6.8636
X11.159 Y-0.328
X11.1546 Y-0.3271 Z6.8637
X11.1506 Y-0.326 Z6.8638
X11.1466 Y-0.3246
X11.1424 Y-0.3228 Z6.8639
X11.1383 Y-0.3208
X11.1348 Y-0.3189 Z6.864
X11.1308 Y-0.3164
X11.1267 Y-0.3135 Z6.8641
X11.1227 Y-0.3102
X11.1189 Y-0.3067 Z6.8642
X11.1154 Y-0.3029
X11.112 Y-0.2987 Z6.8643
X11.109 Y-0.2946
X11.1062 Y-0.2903 Z6.8644
X11.1036 Y-0.2855
X11.1013 Y-0.2807
X11.0994 Y-0.276 Z6.8645
X11.0977 Y-0.2709
X11.0965 Y-0.2665
X11.0956 Y-0.2624
X11.095 Y-0.2584 Z6.8646
X11.0945 Y-0.2541
X11.0942 Y-0.2475
X11.0943 Y-0.2427
X11.0946 Y-0.2374
X11.0953 Y-0.2325 Z6.8645
X11.0962 Y-0.2278
X11.0973 Y-0.2235
X11.0986 Y-0.2193
X11.1003 Y-0.2148
X11.1022 Y-0.2105 Z6.8644
X11.104 Y-0.2067
X11.1065 Y-0.2024
X11.1094 Y-0.1979 Z6.8643
X11.1124 Y-0.1938
X11.1157 Y-0.1897 Z6.8642
X11.1193 Y-0.1859
X11.1231 Y-0.1823 Z6.8641
X11.1271 Y-0.179
X11.1314 Y-0.176 Z6.864
X11.1358 Y-0.1733
X11.1404 Y-0.1709 Z6.8639
X11.1451 Y-0.1688 Z6.8638
X11.15 Y-0.1669
X11.1543 Y-0.1657 Z6.8637
X11.1583 Y-0.1647
X11.1621 Y-0.164 Z6.8636
X11.1661 Y-0.1636
X11.1718 Y-0.1632 Z6.8635
X11.1747 Z6.8634
X11.1798 Y-0.1635
X11.1828 Y-0.1637 Z6.8633
X11.1869 Y-0.1644
X11.1914 Y-0.1653 Z6.8632
X11.1954 Y-0.1664 Z6.8631
X11.1993 Y-0.1677
X11.2034 Y-0.1693 Z6.863
X11.2074 Y-0.1712
X11.2112 Y-0.1733 Z6.8629
X11.2152 Y-0.1758
X11.2194 Y-0.1787
X11.2234 Y-0.182 Z6.8628
X11.2272 Y-0.1855
X11.2308 Y-0.1892 Z6.8627
X11.2341 Y-0.1932
X11.2372 Y-0.1975
X11.2401 Y-0.2019 Z6.8626
X11.2427 Y-0.2065
X11.2449 Y-0.2112
X11.2469 Y-0.216
X11.2487 Y-0.2212
X11.25 Y-0.2258 Z6.8625
X11.2509 Y-0.2299
X11.2516 Y-0.2337
X11.252 Y-0.2376
X11.2523 Y-0.2432
Y-0.2469
X11.2521 Y-0.2538
X11.2517 Y-0.2582
X11.2511 Y-0.2617
X11.25 Y-0.2662
X11.2497 Y-0.2673
Z6.8525 F1.
X11.25 Y-0.2662 F3.
X11.2511 Y-0.2617
X11.2517 Y-0.2582
X11.2521 Y-0.2538
X11.2523 Y-0.2469
Y-0.2432
X11.252 Y-0.2376
X11.2516 Y-0.2337
X11.2509 Y-0.2299
X11.25 Y-0.2258
X11.2487 Y-0.2212 Z6.8526
X11.2469 Y-0.216
X11.2449 Y-0.2112
X11.2427 Y-0.2065
X11.2401 Y-0.2019
X11.2372 Y-0.1975 Z6.8527
X11.2341 Y-0.1932
X11.2308 Y-0.1892
X11.2272 Y-0.1855 Z6.8528
X11.2234 Y-0.182
X11.2194 Y-0.1787 Z6.8529
X11.2152 Y-0.1758
X11.2112 Y-0.1733
X11.2074 Y-0.1712 Z6.853
X11.2034 Y-0.1693
X11.1993 Y-0.1677 Z6.8531
X11.1954 Y-0.1664
X11.1914 Y-0.1653 Z6.8532
X11.1869 Y-0.1644 Z6.8533
X11.1828 Y-0.1637
X11.1798 Y-0.1635 Z6.8534
X11.1747 Y-0.1632
X11.1718 Z6.8535
X11.1661 Y-0.1636 Z6.8536
X11.1621 Y-0.164
X11.1583 Y-0.1647 Z6.8537
X11.1543 Y-0.1657
X11.15 Y-0.1669 Z6.8538
X11.1451 Y-0.1688
X11.1404 Y-0.1709 Z6.8539
X11.1358 Y-0.1733 Z6.854
X11.1314 Y-0.176
X11.1271 Y-0.179 Z6.8541
X11.1231 Y-0.1823
X11.1193 Y-0.1859 Z6.8542
X11.1157 Y-0.1897
X11.1124 Y-0.1938 Z6.8543
X11.1094 Y-0.1979
X11.1065 Y-0.2024 Z6.8544
X11.104 Y-0.2067
X11.1022 Y-0.2105
X11.1003 Y-0.2148 Z6.8545
X11.0986 Y-0.2193
X11.0973 Y-0.2235
X11.0962 Y-0.2278
X11.0953 Y-0.2325
X11.0946 Y-0.2374 Z6.8546
X11.0943 Y-0.2427
X11.0942 Y-0.2475
X11.0945 Y-0.2541
X11.095 Y-0.2584
X11.0956 Y-0.2624 Z6.8545
X11.0965 Y-0.2665
X11.0977 Y-0.2709
X11.0994 Y-0.276
X11.1013 Y-0.2807 Z6.8544
X11.1036 Y-0.2855
X11.1062 Y-0.2903
X11.109 Y-0.2946 Z6.8543
X11.112 Y-0.2987
X11.1154 Y-0.3029 Z6.8542
X11.1189 Y-0.3067
X11.1227 Y-0.3102 Z6.8541
X11.1267 Y-0.3135
X11.1308 Y-0.3164 Z6.854
X11.1348 Y-0.3189
X11.1383 Y-0.3208 Z6.8539
X11.1424 Y-0.3228
X11.1466 Y-0.3246 Z6.8538
X11.1506 Y-0.326
X11.1546 Y-0.3271 Z6.8537
X11.159 Y-0.328 Z6.8536
X11.1631 Y-0.3286
X11.1664 Y-0.3289 Z6.8535
X11.1716 Y-0.3292
X11.1752 Y-0.3291 Z6.8534
X11.1798 Y-0.3289
X11.1832 Y-0.3284 Z6.8533
X11.1875 Y-0.3277
X11.192 Y-0.3267 Z6.8532
X11.197 Y-0.3252 Z6.8531
X11.2018 Y-0.3234
X11.2066 Y-0.3212 Z6.853
X11.2111 Y-0.3188 Z6.8529
X11.2149 Y-0.3165
X11.2185 Y-0.3139
X11.2222 Y-0.3111 Z6.8528
X11.2255 Y-0.3083
X11.2282 Y-0.3056
X11.2315 Y-0.3022 Z6.8527
X11.2347 Y-0.2985
X11.2376 Y-0.2946
X11.2402 Y-0.2906 Z6.8526
X11.2426 Y-0.2864
X11.2448 Y-0.282
X11.2466 Y-0.2775
X11.248 Y-0.2732
X11.2496 Y-0.2677 Z6.8525
Z6.8425 F1.
X11.248 Y-0.2732 Z6.8426 F3.
X11.2466 Y-0.2775
X11.2448 Y-0.282
X11.2426 Y-0.2864
X11.2402 Y-0.2906
X11.2376 Y-0.2946 Z6.8427
X11.2347 Y-0.2985
X11.2315 Y-0.3022
X11.2282 Y-0.3056 Z6.8428
X11.2255 Y-0.3083
X11.2222 Y-0.3111
X11.2185 Y-0.3139 Z6.8429
X11.2149 Y-0.3165
X11.2111 Y-0.3188
X11.2066 Y-0.3212 Z6.843
X11.2018 Y-0.3234 Z6.8431
X11.197 Y-0.3252
X11.192 Y-0.3267 Z6.8432
X11.1875 Y-0.3277 Z6.8433
X11.1832 Y-0.3284
X11.1798 Y-0.3289 Z6.8434
X11.1752 Y-0.3291
X11.1716 Y-0.3292 Z6.8435
X11.1664 Y-0.3289
X11.1631 Y-0.3286 Z6.8436
X11.159 Y-0.328
X11.1546 Y-0.3271 Z6.8437
X11.1506 Y-0.326 Z6.8438
X11.1466 Y-0.3246
X11.1424 Y-0.3228 Z6.8439
X11.1383 Y-0.3208
X11.1348 Y-0.3189 Z6.844
X11.1308 Y-0.3164
X11.1267 Y-0.3135 Z6.8441
X11.1227 Y-0.3102
X11.1189 Y-0.3067 Z6.8442
X11.1154 Y-0.3029
X11.112 Y-0.2987 Z6.8443
X11.109 Y-0.2946
X11.1062 Y-0.2903 Z6.8444
X11.1036 Y-0.2855
X11.1013 Y-0.2807
X11.0994 Y-0.276 Z6.8445
X11.0977 Y-0.2709
X11.0965 Y-0.2665
X11.0956 Y-0.2624
X11.095 Y-0.2584 Z6.8446
X11.0945 Y-0.2541
X11.0942 Y-0.2475
X11.0943 Y-0.2427
X11.0946 Y-0.2374
X11.0953 Y-0.2325 Z6.8445
X11.0962 Y-0.2278
X11.0973 Y-0.2235
X11.0986 Y-0.2193
X11.1003 Y-0.2148
X11.1022 Y-0.2105 Z6.8444
X11.104 Y-0.2067
X11.1065 Y-0.2024
X11.1094 Y-0.1979 Z6.8443
X11.1124 Y-0.1938
X11.1157 Y-0.1897 Z6.8442
X11.1193 Y-0.1859
X11.1231 Y-0.1823 Z6.8441
X11.1271 Y-0.179
X11.1314 Y-0.176 Z6.844
X11.1358 Y-0.1733
X11.1404 Y-0.1709 Z6.8439
X11.1451 Y-0.1688 Z6.8438
X11.15 Y-0.1669
X11.1543 Y-0.1657 Z6.8437
X11.1583 Y-0.1647
X11.1621 Y-0.164 Z6.8436
X11.1661 Y-0.1636
X11.1718 Y-0.1632 Z6.8435
X11.1747 Z6.8434
X11.1798 Y-0.1635
X11.1828 Y-0.1637 Z6.8433
X11.1869 Y-0.1644
X11.1914 Y-0.1653 Z6.8432
X11.1954 Y-0.1664 Z6.8431
X11.1993 Y-0.1677
X11.2034 Y-0.1693 Z6.843
X11.2074 Y-0.1712
X11.2112 Y-0.1733 Z6.8429
X11.2152 Y-0.1758
X11.2194 Y-0.1787
X11.2234 Y-0.182 Z6.8428
X11.2272 Y-0.1855
X11.2308 Y-0.1892 Z6.8427
X11.2341 Y-0.1932
X11.2372 Y-0.1975
X11.2401 Y-0.2019 Z6.8426
X11.2427 Y-0.2065
X11.2449 Y-0.2112
X11.2469 Y-0.216
X11.2487 Y-0.2212
X11.25 Y-0.2258 Z6.8425
X11.2509 Y-0.2299
X11.2516 Y-0.2337
X11.252 Y-0.2376
X11.2523 Y-0.2432
Y-0.2469
X11.2521 Y-0.2538
X11.2517 Y-0.2582
X11.2511 Y-0.2617
X11.25 Y-0.2662
X11.2497 Y-0.2673
Z6.8325 F1.
X11.25 Y-0.2662 F3.
X11.2511 Y-0.2617
X11.2517 Y-0.2582
X11.2521 Y-0.2538
X11.2523 Y-0.2469
Y-0.2432
X11.252 Y-0.2376
X11.2516 Y-0.2337
X11.2509 Y-0.2299
X11.25 Y-0.2258
X11.2487 Y-0.2212 Z6.8326
X11.2469 Y-0.216
X11.2449 Y-0.2112
X11.2427 Y-0.2065
X11.2401 Y-0.2019
X11.2372 Y-0.1975 Z6.8327
X11.2341 Y-0.1932
X11.2308 Y-0.1892
X11.2272 Y-0.1855 Z6.8328
X11.2234 Y-0.182
X11.2194 Y-0.1787 Z6.8329
X11.2152 Y-0.1758
X11.2112 Y-0.1733
X11.2074 Y-0.1712 Z6.833
X11.2034 Y-0.1693
X11.1993 Y-0.1677 Z6.8331
X11.1954 Y-0.1664
X11.1914 Y-0.1653 Z6.8332
X11.1869 Y-0.1644 Z6.8333
X11.1828 Y-0.1637
X11.1798 Y-0.1635 Z6.8334
X11.1747 Y-0.1632
X11.1718 Z6.8335
X11.1661 Y-0.1636 Z6.8336
X11.1621 Y-0.164
X11.1583 Y-0.1647 Z6.8337
X11.1543 Y-0.1657
X11.15 Y-0.1669 Z6.8338
X11.1451 Y-0.1688
X11.1404 Y-0.1709 Z6.8339
X11.1358 Y-0.1733 Z6.834
X11.1314 Y-0.176
X11.1271 Y-0.179 Z6.8341
X11.1231 Y-0.1823
X11.1193 Y-0.1859 Z6.8342
X11.1157 Y-0.1897
X11.1124 Y-0.1938 Z6.8343
X11.1094 Y-0.1979
X11.1065 Y-0.2024 Z6.8344
X11.104 Y-0.2067
X11.1022 Y-0.2105
X11.1003 Y-0.2148 Z6.8345
X11.0986 Y-0.2193
X11.0973 Y-0.2235
X11.0962 Y-0.2278
X11.0953 Y-0.2325
X11.0946 Y-0.2374 Z6.8346
X11.0943 Y-0.2427
X11.0942 Y-0.2475
X11.0945 Y-0.2541
X11.095 Y-0.2584
X11.0956 Y-0.2624 Z6.8345
X11.0965 Y-0.2665
X11.0977 Y-0.2709
X11.0994 Y-0.276
X11.1013 Y-0.2807 Z6.8344
X11.1036 Y-0.2855
X11.1062 Y-0.2903
X11.109 Y-0.2946 Z6.8343
X11.112 Y-0.2987
X11.1154 Y-0.3029 Z6.8342
X11.1189 Y-0.3067
X11.1227 Y-0.3102 Z6.8341
X11.1267 Y-0.3135
X11.1308 Y-0.3164 Z6.834
X11.1348 Y-0.3189
X11.1383 Y-0.3208 Z6.8339
X11.1424 Y-0.3228
X11.1466 Y-0.3246 Z6.8338
X11.1506 Y-0.326
X11.1546 Y-0.3271 Z6.8337
X11.159 Y-0.328 Z6.8336
X11.1631 Y-0.3286
X11.1664 Y-0.3289 Z6.8335
X11.1716 Y-0.3292
X11.1752 Y-0.3291 Z6.8334
X11.1798 Y-0.3289
X11.1832 Y-0.3284 Z6.8333
X11.1875 Y-0.3277
X11.192 Y-0.3267 Z6.8332
X11.197 Y-0.3252 Z6.8331
X11.2018 Y-0.3234
X11.2066 Y-0.3212 Z6.833
X11.2111 Y-0.3188 Z6.8329
X11.2149 Y-0.3165
X11.2185 Y-0.3139
X11.2222 Y-0.3111 Z6.8328
X11.2255 Y-0.3083
X11.2282 Y-0.3056
X11.2315 Y-0.3022 Z6.8327
X11.2347 Y-0.2985
X11.2376 Y-0.2946
X11.2402 Y-0.2906 Z6.8326
X11.2426 Y-0.2864
X11.2448 Y-0.282
X11.2466 Y-0.2775
X11.248 Y-0.2732
X11.2496 Y-0.2677 Z6.8325
G0 Z7.3559
X11.2497 Y-0.2673
Z6.9379
G1 Z6.8625 F1.
X11.2468 Y-0.2782 Z6.8626 F3.
X11.2443 Y-0.2865
X11.2413 Y-0.2956
X11.2381 Y-0.3046 Z6.8627
X11.2349 Y-0.3128
X11.2315 Y-0.3211
X11.2275 Y-0.3299 Z6.8628
X11.2236 Y-0.3382
X11.2191 Y-0.3469 Z6.8629
X11.2142 Y-0.3558
X11.209 Y-0.3645 Z6.863
X11.2037 Y-0.3729
X11.1982 Y-0.381 Z6.8631
X11.1923 Y-0.3892 Z6.8632
X11.1863 Y-0.397 Z6.8633
X11.1801 Y-0.4045 Z6.8634
X11.1731 Y-0.4124 Z6.8635
X11.1671 Y-0.4186
X11.1617 Y-0.424 Z6.8636
X11.1559 Y-0.4295 Z6.8637
X11.1467 Y-0.4376 Z6.8638
X11.146 Y-0.4383
Z6.8538 F1.
X11.1467 Y-0.4376 F3.
X11.1559 Y-0.4295 Z6.8537
X11.1617 Y-0.424 Z6.8536
X11.1671 Y-0.4186 Z6.8535
X11.1731 Y-0.4124
X11.1801 Y-0.4045 Z6.8534
X11.1863 Y-0.397 Z6.8533
X11.1923 Y-0.3892 Z6.8532
X11.1982 Y-0.381 Z6.8531
X11.2037 Y-0.3729 Z6.853
X11.209 Y-0.3645
X11.2142 Y-0.3558 Z6.8529
X11.2191 Y-0.3469
X11.2236 Y-0.3382 Z6.8528
X11.2275 Y-0.3299
X11.2315 Y-0.3211 Z6.8527
X11.2349 Y-0.3128
X11.2381 Y-0.3046
X11.2413 Y-0.2956 Z6.8526
X11.2443 Y-0.2865
X11.2468 Y-0.2782
X11.2497 Y-0.2673 Z6.8525
Z6.8425 F1.
X11.2468 Y-0.2782 Z6.8426 F3.
X11.2443 Y-0.2865
X11.2413 Y-0.2956
X11.2381 Y-0.3046 Z6.8427
X11.2349 Y-0.3128
X11.2315 Y-0.3211
X11.2275 Y-0.3299 Z6.8428
X11.2236 Y-0.3382
X11.2191 Y-0.3469 Z6.8429
X11.2142 Y-0.3558
X11.209 Y-0.3645 Z6.843
X11.2037 Y-0.3729
X11.1982 Y-0.381 Z6.8431
X11.1923 Y-0.3892 Z6.8432
X11.1863 Y-0.397 Z6.8433
X11.1801 Y-0.4045 Z6.8434
X11.1731 Y-0.4124 Z6.8435
X11.1671 Y-0.4186
X11.1617 Y-0.424 Z6.8436
X11.1559 Y-0.4295 Z6.8437
X11.1467 Y-0.4376 Z6.8438
X11.146 Y-0.4383
Z6.8338 F1.
X11.1467 Y-0.4376 F3.
X11.1559 Y-0.4295 Z6.8337
X11.1617 Y-0.424 Z6.8336
X11.1671 Y-0.4186 Z6.8335
X11.1731 Y-0.4124
X11.1801 Y-0.4045 Z6.8334
X11.1863 Y-0.397 Z6.8333
X11.1923 Y-0.3892 Z6.8332
X11.1982 Y-0.381 Z6.8331
X11.2037 Y-0.3729 Z6.833
X11.209 Y-0.3645
X11.2142 Y-0.3558 Z6.8329
X11.2191 Y-0.3469
X11.2236 Y-0.3382 Z6.8328
X11.2275 Y-0.3299
X11.2315 Y-0.3211 Z6.8327
X11.2349 Y-0.3128
X11.2381 Y-0.3046
X11.2413 Y-0.2956 Z6.8326
X11.2443 Y-0.2865
X11.2468 Y-0.2782
X11.2497 Y-0.2673 Z6.8325
G0 Z7.3559
X10.9297
Z6.9434
G1 Z6.8677 F1.
X10.93 Y-0.2662 F3.
X10.931 Y-0.2617 Z6.8676
X10.9316 Y-0.2582
X10.932 Y-0.2538
X10.9323 Y-0.2469
Y-0.2432
X10.932 Y-0.2376
X10.9315 Y-0.2337
X10.9309 Y-0.2298
X10.9299 Y-0.2258 Z6.8677
X10.9287 Y-0.2212
X10.9269 Y-0.216
X10.9249 Y-0.2112 Z6.8678
X10.9226 Y-0.2065
X10.92 Y-0.2019 Z6.8679
X10.9172 Y-0.1975
X10.9141 Y-0.1932 Z6.868
X10.9107 Y-0.1892 Z6.8681
X10.9072 Y-0.1855
X10.9033 Y-0.1819 Z6.8682
X10.8993 Y-0.1787 Z6.8683
X10.8952 Y-0.1758 Z6.8684
X10.8911 Y-0.1732 Z6.8685
X10.8874 Y-0.1712 Z6.8686
X10.8834 Y-0.1693 Z6.8687
X10.8793 Y-0.1677 Z6.8688
X10.8754 Y-0.1664 Z6.8689
X10.8714 Y-0.1653
X10.8668 Y-0.1643 Z6.8691
X10.8627 Y-0.1637 Z6.8692
X10.8596 Y-0.1635
X10.8546 Y-0.1632 Z6.8694
X10.8517
X10.846 Y-0.1636 Z6.8696
X10.842 Y-0.164 Z6.8697
X10.8382 Y-0.1647 Z6.8698
X10.8342 Y-0.1657 Z6.8699
X10.83 Y-0.1669 Z6.87
X10.8251 Y-0.1688 Z6.8701
X10.8204 Y-0.1709 Z6.8702
X10.8158 Y-0.1733 Z6.8703
X10.8113 Y-0.176 Z6.8704
X10.8071 Y-0.179 Z6.8705
X10.8031 Y-0.1823 Z6.8706
X10.7993 Y-0.1859 Z6.8707
X10.7957 Y-0.1897 Z6.8708
X10.7923 Y-0.1938 Z6.8709
X10.7893 Y-0.1979 Z6.871
X10.7865 Y-0.2024 Z6.8711
X10.784 Y-0.2068
X10.7821 Y-0.2105 Z6.8712
X10.7802 Y-0.2148
X10.7785 Y-0.2193 Z6.8713
X10.7772 Y-0.2235
X10.7762 Y-0.2278
X10.7753 Y-0.2325
X10.7746 Y-0.2375 Z6.8714
X10.7742 Y-0.2431
X10.7741 Y-0.2475
X10.7745 Y-0.2541
X10.7749 Y-0.2584 Z6.8713
X10.7756 Y-0.2624
X10.7765 Y-0.2665
X10.7776 Y-0.2709
X10.7794 Y-0.276 Z6.8712
X10.7813 Y-0.2807
X10.7836 Y-0.2855 Z6.8711
X10.7862 Y-0.2903
X10.789 Y-0.2946 Z6.871
X10.7919 Y-0.2987 Z6.8709
X10.7953 Y-0.3029 Z6.8708
X10.7989 Y-0.3067 Z6.8707
X10.8026 Y-0.3102
X10.8067 Y-0.3135 Z6.8706
X10.8108 Y-0.3165 Z6.8705
X10.8148 Y-0.3189 Z6.8704
X10.8183 Y-0.3208 Z6.8703
X10.8224 Y-0.3228 Z6.8702
X10.8266 Y-0.3246 Z6.8701
X10.8306 Y-0.326 Z6.87
X10.8346 Y-0.3271 Z6.8699
X10.839 Y-0.328 Z6.8698
X10.8432 Y-0.3286 Z6.8696
X10.8465 Y-0.3289
X10.8516 Y-0.3292 Z6.8694
X10.8552 Y-0.3291
X10.8597 Y-0.3289 Z6.8692
X10.8633 Y-0.3284
X10.8675 Y-0.3277 Z6.869
X10.872 Y-0.3267 Z6.8689
X10.877 Y-0.3252 Z6.8688
X10.8818 Y-0.3234 Z6.8687
X10.8866 Y-0.3212 Z6.8686
X10.8911 Y-0.3188 Z6.8685
X10.8949 Y-0.3164 Z6.8684
X10.8985 Y-0.3139 Z6.8683
X10.9022 Y-0.3111
X10.9054 Y-0.3083 Z6.8682
X10.9082 Y-0.3056 Z6.8681
X10.9115 Y-0.3022
X10.9146 Y-0.2985 Z6.868
X10.9176 Y-0.2946 Z6.8679
X10.9202 Y-0.2906
X10.9226 Y-0.2863 Z6.8678
X10.9247 Y-0.282
X10.9266 Y-0.2775 Z6.8677
X10.928 Y-0.2732
X10.9296 Y-0.2677
Z6.8577 F1.
X10.928 Y-0.2732 F3.
X10.9266 Y-0.2775
X10.9247 Y-0.282 Z6.8578
X10.9226 Y-0.2863
X10.9202 Y-0.2906 Z6.8579
X10.9176 Y-0.2946
X10.9146 Y-0.2985 Z6.858
X10.9115 Y-0.3022 Z6.8581
X10.9082 Y-0.3056
X10.9054 Y-0.3083 Z6.8582
X10.9022 Y-0.3111 Z6.8583
X10.8985 Y-0.3139
X10.8949 Y-0.3164 Z6.8584
X10.8911 Y-0.3188 Z6.8585
X10.8866 Y-0.3212 Z6.8586
X10.8818 Y-0.3234 Z6.8587
X10.877 Y-0.3252 Z6.8588
X10.872 Y-0.3267 Z6.8589
X10.8675 Y-0.3277 Z6.859
X10.8633 Y-0.3284 Z6.8592
X10.8597 Y-0.3289
X10.8552 Y-0.3291 Z6.8594
X10.8516 Y-0.3292
X10.8465 Y-0.3289 Z6.8596
X10.8432 Y-0.3286
X10.839 Y-0.328 Z6.8598
X10.8346 Y-0.3271 Z6.8599
X10.8306 Y-0.326 Z6.86
X10.8266 Y-0.3246 Z6.8601
X10.8224 Y-0.3228 Z6.8602
X10.8183 Y-0.3208 Z6.8603
X10.8148 Y-0.3189 Z6.8604
X10.8108 Y-0.3165 Z6.8605
X10.8067 Y-0.3135 Z6.8606
X10.8026 Y-0.3102 Z6.8607
X10.7989 Y-0.3067
X10.7953 Y-0.3029 Z6.8608
X10.7919 Y-0.2987 Z6.8609
X10.789 Y-0.2946 Z6.861
X10.7862 Y-0.2903 Z6.8611
X10.7836 Y-0.2855
X10.7813 Y-0.2807 Z6.8612
X10.7794 Y-0.276
X10.7776 Y-0.2709 Z6.8613
X10.7765 Y-0.2665
X10.7756 Y-0.2624
X10.7749 Y-0.2584
X10.7745 Y-0.2541 Z6.8614
X10.7741 Y-0.2475
X10.7742 Y-0.2431
X10.7746 Y-0.2375
X10.7753 Y-0.2325 Z6.8613
X10.7762 Y-0.2278
X10.7772 Y-0.2235
X10.7785 Y-0.2193
X10.7802 Y-0.2148 Z6.8612
X10.7821 Y-0.2105
X10.784 Y-0.2068 Z6.8611
X10.7865 Y-0.2024
X10.7893 Y-0.1979 Z6.861
X10.7923 Y-0.1938 Z6.8609
X10.7957 Y-0.1897 Z6.8608
X10.7993 Y-0.1859 Z6.8607
X10.8031 Y-0.1823 Z6.8606
X10.8071 Y-0.179 Z6.8605
X10.8113 Y-0.176 Z6.8604
X10.8158 Y-0.1733 Z6.8603
X10.8204 Y-0.1709 Z6.8602
X10.8251 Y-0.1688 Z6.8601
X10.83 Y-0.1669 Z6.86
X10.8342 Y-0.1657 Z6.8599
X10.8382 Y-0.1647 Z6.8598
X10.842 Y-0.164 Z6.8597
X10.846 Y-0.1636 Z6.8596
X10.8517 Y-0.1632 Z6.8594
X10.8546
X10.8596 Y-0.1635 Z6.8592
X10.8627 Y-0.1637
X10.8668 Y-0.1643 Z6.8591
X10.8714 Y-0.1653 Z6.8589
X10.8754 Y-0.1664
X10.8793 Y-0.1677 Z6.8588
X10.8834 Y-0.1693 Z6.8587
X10.8874 Y-0.1712 Z6.8586
X10.8911 Y-0.1732 Z6.8585
X10.8952 Y-0.1758 Z6.8584
X10.8993 Y-0.1787 Z6.8583
X10.9033 Y-0.1819 Z6.8582
X10.9072 Y-0.1855 Z6.8581
X10.9107 Y-0.1892
X10.9141 Y-0.1932 Z6.858
X10.9172 Y-0.1975 Z6.8579
X10.92 Y-0.2019
X10.9226 Y-0.2065 Z6.8578
X10.9249 Y-0.2112
X10.9269 Y-0.216 Z6.8577
X10.9287 Y-0.2212
X10.9299 Y-0.2258
X10.9309 Y-0.2298 Z6.8576
X10.9315 Y-0.2337
X10.932 Y-0.2376
X10.9323 Y-0.2432
Y-0.2469
X10.932 Y-0.2538
X10.9316 Y-0.2582
X10.931 Y-0.2617
X10.93 Y-0.2662 Z6.8577
X10.9297 Y-0.2673
Z6.8477 F1.
X10.93 Y-0.2662 F3.
X10.931 Y-0.2617 Z6.8476
X10.9316 Y-0.2582
X10.932 Y-0.2538
X10.9323 Y-0.2469
Y-0.2432
X10.932 Y-0.2376
X10.9315 Y-0.2337
X10.9309 Y-0.2298
X10.9299 Y-0.2258 Z6.8477
X10.9287 Y-0.2212
X10.9269 Y-0.216
X10.9249 Y-0.2112 Z6.8478
X10.9226 Y-0.2065
X10.92 Y-0.2019 Z6.8479
X10.9172 Y-0.1975
X10.9141 Y-0.1932 Z6.848
X10.9107 Y-0.1892 Z6.8481
X10.9072 Y-0.1855
X10.9033 Y-0.1819 Z6.8482
X10.8993 Y-0.1787 Z6.8483
X10.8952 Y-0.1758 Z6.8484
X10.8911 Y-0.1732 Z6.8485
X10.8874 Y-0.1712 Z6.8486
X10.8834 Y-0.1693 Z6.8487
X10.8793 Y-0.1677 Z6.8488
X10.8754 Y-0.1664 Z6.8489
X10.8714 Y-0.1653
X10.8668 Y-0.1643 Z6.8491
X10.8627 Y-0.1637 Z6.8492
X10.8596 Y-0.1635
X10.8546 Y-0.1632 Z6.8494
X10.8517
X10.846 Y-0.1636 Z6.8496
X10.842 Y-0.164 Z6.8497
X10.8382 Y-0.1647 Z6.8498
X10.8342 Y-0.1657 Z6.8499
X10.83 Y-0.1669 Z6.85
X10.8251 Y-0.1688 Z6.8501
X10.8204 Y-0.1709 Z6.8502
X10.8158 Y-0.1733 Z6.8503
X10.8113 Y-0.176 Z6.8504
X10.8071 Y-0.179 Z6.8505
X10.8031 Y-0.1823 Z6.8506
X10.7993 Y-0.1859 Z6.8507
X10.7957 Y-0.1897 Z6.8508
X10.7923 Y-0.1938 Z6.8509
X10.7893 Y-0.1979 Z6.851
X10.7865 Y-0.2024 Z6.8511
X10.784 Y-0.2068
X10.7821 Y-0.2105 Z6.8512
X10.7802 Y-0.2148
X10.7785 Y-0.2193 Z6.8513
X10.7772 Y-0.2235
X10.7762 Y-0.2278
X10.7753 Y-0.2325
X10.7746 Y-0.2375 Z6.8514
X10.7742 Y-0.2431
X10.7741 Y-0.2475
X10.7745 Y-0.2541
X10.7749 Y-0.2584 Z6.8513
X10.7756 Y-0.2624
X10.7765 Y-0.2665
X10.7776 Y-0.2709
X10.7794 Y-0.276 Z6.8512
X10.7813 Y-0.2807
X10.7836 Y-0.2855 Z6.8511
X10.7862 Y-0.2903
X10.789 Y-0.2946 Z6.851
X10.7919 Y-0.2987 Z6.8509
X10.7953 Y-0.3029 Z6.8508
X10.7989 Y-0.3067 Z6.8507
X10.8026 Y-0.3102
X10.8067 Y-0.3135 Z6.8506
X10.8108 Y-0.3165 Z6.8505
X10.8148 Y-0.3189 Z6.8504
X10.8183 Y-0.3208 Z6.8503
X10.8224 Y-0.3228 Z6.8502
X10.8266 Y-0.3246 Z6.8501
X10.8306 Y-0.326 Z6.85
X10.8346 Y-0.3271 Z6.8499
X10.839 Y-0.328 Z6.8498
X10.8432 Y-0.3286 Z6.8496
X10.8465 Y-0.3289
X10.8516 Y-0.3292 Z6.8494
X10.8552 Y-0.3291
X10.8597 Y-0.3289 Z6.8492
X10.8633 Y-0.3284
X10.8675 Y-0.3277 Z6.849
X10.872 Y-0.3267 Z6.8489
X10.877 Y-0.3252 Z6.8488
X10.8818 Y-0.3234 Z6.8487
X10.8866 Y-0.3212 Z6.8486
X10.8911 Y-0.3188 Z6.8485
X10.8949 Y-0.3164 Z6.8484
X10.8985 Y-0.3139 Z6.8483
X10.9022 Y-0.3111
X10.9054 Y-0.3083 Z6.8482
X10.9082 Y-0.3056 Z6.8481
X10.9115 Y-0.3022
X10.9146 Y-0.2985 Z6.848
X10.9176 Y-0.2946 Z6.8479
X10.9202 Y-0.2906
X10.9226 Y-0.2863 Z6.8478
X10.9247 Y-0.282
X10.9266 Y-0.2775 Z6.8477
X10.928 Y-0.2732
X10.9296 Y-0.2677
Z6.8377 F1.
X10.928 Y-0.2732 F3.
X10.9266 Y-0.2775
X10.9247 Y-0.282 Z6.8378
X10.9226 Y-0.2863
X10.9202 Y-0.2906 Z6.8379
X10.9176 Y-0.2946
X10.9146 Y-0.2985 Z6.838
X10.9115 Y-0.3022 Z6.8381
X10.9082 Y-0.3056
X10.9054 Y-0.3083 Z6.8382
X10.9022 Y-0.3111 Z6.8383
X10.8985 Y-0.3139
X10.8949 Y-0.3164 Z6.8384
X10.8911 Y-0.3188 Z6.8385
X10.8866 Y-0.3212 Z6.8386
X10.8818 Y-0.3234 Z6.8387
X10.877 Y-0.3252 Z6.8388
X10.872 Y-0.3267 Z6.8389
X10.8675 Y-0.3277 Z6.839
X10.8633 Y-0.3284 Z6.8392
X10.8597 Y-0.3289
X10.8552 Y-0.3291 Z6.8394
X10.8516 Y-0.3292
X10.8465 Y-0.3289 Z6.8396
X10.8432 Y-0.3286
X10.839 Y-0.328 Z6.8398
X10.8346 Y-0.3271 Z6.8399
X10.8306 Y-0.326 Z6.84
X10.8266 Y-0.3246 Z6.8401
X10.8224 Y-0.3228 Z6.8402
X10.8183 Y-0.3208 Z6.8403
X10.8148 Y-0.3189 Z6.8404
X10.8108 Y-0.3165 Z6.8405
X10.8067 Y-0.3135 Z6.8406
X10.8026 Y-0.3102 Z6.8407
X10.7989 Y-0.3067
X10.7953 Y-0.3029 Z6.8408
X10.7919 Y-0.2987 Z6.8409
X10.789 Y-0.2946 Z6.841
X10.7862 Y-0.2903 Z6.8411
X10.7836 Y-0.2855
X10.7813 Y-0.2807 Z6.8412
X10.7794 Y-0.276
X10.7776 Y-0.2709 Z6.8413
X10.7765 Y-0.2665
X10.7756 Y-0.2624
X10.7749 Y-0.2584
X10.7745 Y-0.2541 Z6.8414
X10.7741 Y-0.2475
X10.7742 Y-0.2431
X10.7746 Y-0.2375
X10.7753 Y-0.2325 Z6.8413
X10.7762 Y-0.2278
X10.7772 Y-0.2235
X10.7785 Y-0.2193
X10.7802 Y-0.2148 Z6.8412
X10.7821 Y-0.2105
X10.784 Y-0.2068 Z6.8411
X10.7865 Y-0.2024
X10.7893 Y-0.1979 Z6.841
X10.7923 Y-0.1938 Z6.8409
X10.7957 Y-0.1897 Z6.8408
X10.7993 Y-0.1859 Z6.8407
X10.8031 Y-0.1823 Z6.8406
X10.8071 Y-0.179 Z6.8405
X10.8113 Y-0.176 Z6.8404
X10.8158 Y-0.1733 Z6.8403
X10.8204 Y-0.1709 Z6.8402
X10.8251 Y-0.1688 Z6.8401
X10.83 Y-0.1669 Z6.84
X10.8342 Y-0.1657 Z6.8399
X10.8382 Y-0.1647 Z6.8398
X10.842 Y-0.164 Z6.8397
X10.846 Y-0.1636 Z6.8396
X10.8517 Y-0.1632 Z6.8394
X10.8546
X10.8596 Y-0.1635 Z6.8392
X10.8627 Y-0.1637
X10.8668 Y-0.1643 Z6.8391
X10.8714 Y-0.1653 Z6.8389
X10.8754 Y-0.1664
X10.8793 Y-0.1677 Z6.8388
X10.8834 Y-0.1693 Z6.8387
X10.8874 Y-0.1712 Z6.8386
X10.8911 Y-0.1732 Z6.8385
X10.8952 Y-0.1758 Z6.8384
X10.8993 Y-0.1787 Z6.8383
X10.9033 Y-0.1819 Z6.8382
X10.9072 Y-0.1855 Z6.8381
X10.9107 Y-0.1892
X10.9141 Y-0.1932 Z6.838
X10.9172 Y-0.1975 Z6.8379
X10.92 Y-0.2019
X10.9226 Y-0.2065 Z6.8378
X10.9249 Y-0.2112
X10.9269 Y-0.216 Z6.8377
X10.9287 Y-0.2212
X10.9299 Y-0.2258
X10.9309 Y-0.2298 Z6.8376
X10.9315 Y-0.2337
X10.932 Y-0.2376
X10.9323 Y-0.2432
Y-0.2469
X10.932 Y-0.2538
X10.9316 Y-0.2582
X10.931 Y-0.2617
X10.93 Y-0.2662 Z6.8377
X10.9297 Y-0.2673
Z6.8677
X10.9267 Y-0.2782
X10.9243 Y-0.2864 Z6.8678
X10.9213 Y-0.2956
X10.9181 Y-0.3046 Z6.8679
X10.9149 Y-0.3128 Z6.868
X10.9114 Y-0.3211 Z6.8681
X10.9075 Y-0.3299
X10.9035 Y-0.3382 Z6.8682
X10.899 Y-0.3469 Z6.8683
X10.8941 Y-0.3558 Z6.8684
X10.889 Y-0.3645 Z6.8685
X10.8837 Y-0.3728 Z6.8686
X10.8782 Y-0.381 Z6.8688
X10.8723 Y-0.3891 Z6.8689
X10.8662 Y-0.397 Z6.8691
X10.86 Y-0.4045 Z6.8692
X10.8531 Y-0.4123 Z6.8694
X10.8471 Y-0.4186 Z6.8696
X10.8417 Y-0.424 Z6.8697
X10.8359 Y-0.4295 Z6.8698
X10.8269 Y-0.4375 Z6.8701
X10.826 Y-0.4383
Z6.8601 F1.
X10.8269 Y-0.4375 F3.
X10.8359 Y-0.4295 Z6.8598
X10.8417 Y-0.424 Z6.8597
X10.8471 Y-0.4186 Z6.8596
X10.8531 Y-0.4123 Z6.8594
X10.86 Y-0.4045 Z6.8592
X10.8662 Y-0.397 Z6.8591
X10.8723 Y-0.3891 Z6.8589
X10.8782 Y-0.381 Z6.8588
X10.8837 Y-0.3728 Z6.8586
X10.889 Y-0.3645 Z6.8585
X10.8941 Y-0.3558 Z6.8584
X10.899 Y-0.3469 Z6.8583
X10.9035 Y-0.3382 Z6.8582
X10.9075 Y-0.3299 Z6.8581
X10.9114 Y-0.3211
X10.9149 Y-0.3128 Z6.858
X10.9181 Y-0.3046 Z6.8579
X10.9213 Y-0.2956 Z6.8578
X10.9243 Y-0.2864
X10.9267 Y-0.2782 Z6.8577
X10.9297 Y-0.2673
Z6.8477 F1.
X10.9267 Y-0.2782 F3.
X10.9243 Y-0.2864 Z6.8478
X10.9213 Y-0.2956
X10.9181 Y-0.3046 Z6.8479
X10.9149 Y-0.3128 Z6.848
X10.9114 Y-0.3211 Z6.8481
X10.9075 Y-0.3299
X10.9035 Y-0.3382 Z6.8482
X10.899 Y-0.3469 Z6.8483
X10.8941 Y-0.3558 Z6.8484
X10.889 Y-0.3645 Z6.8485
X10.8837 Y-0.3728 Z6.8486
X10.8782 Y-0.381 Z6.8488
X10.8723 Y-0.3891 Z6.8489
X10.8662 Y-0.397 Z6.8491
X10.86 Y-0.4045 Z6.8492
X10.8531 Y-0.4123 Z6.8494
X10.8471 Y-0.4186 Z6.8496
X10.8417 Y-0.424 Z6.8497
X10.8359 Y-0.4295 Z6.8498
X10.8269 Y-0.4375 Z6.8501
X10.826 Y-0.4383
Z6.8401 F1.
X10.8269 Y-0.4375 F3.
X10.8359 Y-0.4295 Z6.8398
X10.8417 Y-0.424 Z6.8397
X10.8471 Y-0.4186 Z6.8396
X10.8531 Y-0.4123 Z6.8394
X10.86 Y-0.4045 Z6.8392
X10.8662 Y-0.397 Z6.8391
X10.8723 Y-0.3891 Z6.8389
X10.8782 Y-0.381 Z6.8388
X10.8837 Y-0.3728 Z6.8386
X10.889 Y-0.3645 Z6.8385
X10.8941 Y-0.3558 Z6.8384
X10.899 Y-0.3469 Z6.8383
X10.9035 Y-0.3382 Z6.8382
X10.9075 Y-0.3299 Z6.8381
X10.9114 Y-0.3211
X10.9149 Y-0.3128 Z6.838
X10.9181 Y-0.3046 Z6.8379
X10.9213 Y-0.2956 Z6.8378
X10.9243 Y-0.2864
X10.9267 Y-0.2782 Z6.8377
X10.9297 Y-0.2673
G0 Z7.3559
X10.6096
Z6.9524
G1 Z6.8763 F1.
X10.6099 Y-0.2661 F3.
X10.611 Y-0.2617 Z6.8762
X10.6116 Y-0.2582
X10.612 Y-0.2538
X10.6122 Y-0.2469
Y-0.2432
X10.6119 Y-0.2376
X10.6115 Y-0.2337
X10.6108 Y-0.2298
X10.6099 Y-0.2258 Z6.8763
X10.6086 Y-0.2212
X10.6068 Y-0.2159 Z6.8764
X10.6049 Y-0.2112
X10.6026 Y-0.2065 Z6.8765
X10.6 Y-0.2019 Z6.8766
X10.5971 Y-0.1974 Z6.8767
X10.594 Y-0.1932 Z6.8768
X10.5907 Y-0.1892 Z6.8769
X10.5871 Y-0.1855 Z6.877
X10.5833 Y-0.1819 Z6.8771
X10.5792 Y-0.1786 Z6.8772
X10.5751 Y-0.1757 Z6.8774
X10.571 Y-0.1732 Z6.8775
X10.5673 Y-0.1712 Z6.8776
X10.5633 Y-0.1693 Z6.8778
X10.5592 Y-0.1677 Z6.8779
X10.5553 Y-0.1664 Z6.878
X10.5513 Y-0.1653 Z6.8782
X10.5468 Y-0.1643 Z6.8783
X10.5426 Y-0.1637 Z6.8785
X10.5394 Y-0.1634 Z6.8786
X10.5344 Y-0.1632 Z6.8788
X10.5315 Y-0.1633 Z6.8789
X10.5259 Y-0.1636 Z6.8791
X10.5219 Y-0.1641 Z6.8792
X10.5181 Y-0.1647 Z6.8794
X10.5142 Y-0.1657 Z6.8795
X10.5099 Y-0.167 Z6.8797
X10.505 Y-0.1688 Z6.8798
X10.5003 Y-0.1709 Z6.88
X10.4957 Y-0.1733 Z6.8802
X10.4913 Y-0.176 Z6.8803
X10.487 Y-0.179 Z6.8805
X10.4831 Y-0.1823 Z6.8806
X10.4793 Y-0.1859 Z6.8808
X10.4756 Y-0.1897 Z6.8809
X10.4723 Y-0.1938 Z6.881
X10.4693 Y-0.1979 Z6.8811
X10.4664 Y-0.2024 Z6.8812
X10.4639 Y-0.2068 Z6.8813
X10.462 Y-0.2106 Z6.8814
X10.4602 Y-0.2149
X10.4585 Y-0.2193 Z6.8815
X10.4572 Y-0.2235
X10.4561 Y-0.2278 Z6.8816
X10.4552 Y-0.2326
X10.4545 Y-0.2378
X10.4542 Y-0.2439 Z6.8817
X10.4541 Y-0.2477
X10.4544 Y-0.2542 Z6.8816
X10.4549 Y-0.2584
X10.4555 Y-0.2625
X10.4564 Y-0.2665
X10.4576 Y-0.2709 Z6.8815
X10.4593 Y-0.276
X10.4613 Y-0.2807 Z6.8814
X10.4635 Y-0.2855 Z6.8813
X10.4662 Y-0.2903 Z6.8812
X10.4689 Y-0.2946 Z6.8811
X10.4719 Y-0.2987 Z6.881
X10.4753 Y-0.3029 Z6.8809
X10.4789 Y-0.3067 Z6.8808
X10.4826 Y-0.3102 Z6.8806
X10.4866 Y-0.3135 Z6.8805
X10.4908 Y-0.3165 Z6.8803
X10.4948 Y-0.319 Z6.8802
X10.4983 Y-0.3209 Z6.8801
X10.5023 Y-0.3228 Z6.8799
X10.5066 Y-0.3246 Z6.8798
X10.5106 Y-0.326 Z6.8796
X10.5146 Y-0.3271 Z6.8795
X10.519 Y-0.328 Z6.8793
X10.5231 Y-0.3286 Z6.8792
X10.5265 Y-0.3289 Z6.8791
X10.5316 Y-0.3292 Z6.8789
X10.5352 Y-0.3291 Z6.8788
X10.5398 Y-0.3289 Z6.8786
X10.5433 Y-0.3284 Z6.8785
X10.5474 Y-0.3277 Z6.8783
X10.552 Y-0.3267 Z6.8782
X10.557 Y-0.3252 Z6.878
X10.5618 Y-0.3234 Z6.8778
X10.5665 Y-0.3212 Z6.8777
X10.571 Y-0.3188 Z6.8775
X10.5748 Y-0.3164 Z6.8774
X10.5785 Y-0.3139 Z6.8773
X10.5822 Y-0.3111 Z6.8772
X10.5854 Y-0.3083 Z6.877
X10.5882 Y-0.3056
X10.5915 Y-0.3022 Z6.8769
X10.5946 Y-0.2985 Z6.8768
X10.5975 Y-0.2946 Z6.8767
X10.6002 Y-0.2905 Z6.8766
X10.6026 Y-0.2863 Z6.8765
X10.6047 Y-0.282 Z6.8764
X10.6065 Y-0.2775
X10.608 Y-0.2732 Z6.8763
X10.6095 Y-0.2677
Z6.8663 F1.
X10.608 Y-0.2732 F3.
X10.6065 Y-0.2775 Z6.8664
X10.6047 Y-0.282
X10.6026 Y-0.2863 Z6.8665
X10.6002 Y-0.2905 Z6.8666
X10.5975 Y-0.2946 Z6.8667
X10.5946 Y-0.2985 Z6.8668
X10.5915 Y-0.3022 Z6.8669
X10.5882 Y-0.3056 Z6.867
X10.5854 Y-0.3083
X10.5822 Y-0.3111 Z6.8672
X10.5785 Y-0.3139 Z6.8673
X10.5748 Y-0.3164 Z6.8674
X10.571 Y-0.3188 Z6.8675
X10.5665 Y-0.3212 Z6.8677
X10.5618 Y-0.3234 Z6.8678
X10.557 Y-0.3252 Z6.868
X10.552 Y-0.3267 Z6.8682
X10.5474 Y-0.3277 Z6.8683
X10.5433 Y-0.3284 Z6.8685
X10.5398 Y-0.3289 Z6.8686
X10.5352 Y-0.3291 Z6.8688
X10.5316 Y-0.3292 Z6.8689
X10.5265 Y-0.3289 Z6.8691
X10.5231 Y-0.3286 Z6.8692
X10.519 Y-0.328 Z6.8693
X10.5146 Y-0.3271 Z6.8695
X10.5106 Y-0.326 Z6.8696
X10.5066 Y-0.3246 Z6.8698
X10.5023 Y-0.3228 Z6.8699
X10.4983 Y-0.3209 Z6.8701
X10.4948 Y-0.319 Z6.8702
X10.4908 Y-0.3165 Z6.8703
X10.4866 Y-0.3135 Z6.8705
X10.4826 Y-0.3102 Z6.8706
X10.4789 Y-0.3067 Z6.8708
X10.4753 Y-0.3029 Z6.8709
X10.4719 Y-0.2987 Z6.871
X10.4689 Y-0.2946 Z6.8711
X10.4662 Y-0.2903 Z6.8712
X10.4635 Y-0.2855 Z6.8713
X10.4613 Y-0.2807 Z6.8714
X10.4593 Y-0.276 Z6.8715
X10.4576 Y-0.2709
X10.4564 Y-0.2665 Z6.8716
X10.4555 Y-0.2625
X10.4549 Y-0.2584
X10.4544 Y-0.2542
X10.4541 Y-0.2477 Z6.8717
X10.4542 Y-0.2439
X10.4545 Y-0.2378 Z6.8716
X10.4552 Y-0.2326
X10.4561 Y-0.2278
X10.4572 Y-0.2235 Z6.8715
X10.4585 Y-0.2193
X10.4602 Y-0.2149 Z6.8714
X10.462 Y-0.2106
X10.4639 Y-0.2068 Z6.8713
X10.4664 Y-0.2024 Z6.8712
X10.4693 Y-0.1979 Z6.8711
X10.4723 Y-0.1938 Z6.871
X10.4756 Y-0.1897 Z6.8709
X10.4793 Y-0.1859 Z6.8708
X10.4831 Y-0.1823 Z6.8706
X10.487 Y-0.179 Z6.8705
X10.4913 Y-0.176 Z6.8703
X10.4957 Y-0.1733 Z6.8702
X10.5003 Y-0.1709 Z6.87
X10.505 Y-0.1688 Z6.8698
X10.5099 Y-0.167 Z6.8697
X10.5142 Y-0.1657 Z6.8695
X10.5181 Y-0.1647 Z6.8694
X10.5219 Y-0.1641 Z6.8692
X10.5259 Y-0.1636 Z6.8691
X10.5315 Y-0.1633 Z6.8689
X10.5344 Y-0.1632 Z6.8688
X10.5394 Y-0.1634 Z6.8686
X10.5426 Y-0.1637 Z6.8685
X10.5468 Y-0.1643 Z6.8683
X10.5513 Y-0.1653 Z6.8682
X10.5553 Y-0.1664 Z6.868
X10.5592 Y-0.1677 Z6.8679
X10.5633 Y-0.1693 Z6.8678
X10.5673 Y-0.1712 Z6.8676
X10.571 Y-0.1732 Z6.8675
X10.5751 Y-0.1757 Z6.8674
X10.5792 Y-0.1786 Z6.8672
X10.5833 Y-0.1819 Z6.8671
X10.5871 Y-0.1855 Z6.867
X10.5907 Y-0.1892 Z6.8669
X10.594 Y-0.1932 Z6.8668
X10.5971 Y-0.1974 Z6.8667
X10.6 Y-0.2019 Z6.8666
X10.6026 Y-0.2065 Z6.8665
X10.6049 Y-0.2112 Z6.8664
X10.6068 Y-0.2159
X10.6086 Y-0.2212 Z6.8663
X10.6099 Y-0.2258
X10.6108 Y-0.2298 Z6.8662
X10.6115 Y-0.2337
X10.6119 Y-0.2376
X10.6122 Y-0.2432
Y-0.2469
X10.612 Y-0.2538
X10.6116 Y-0.2582
X10.611 Y-0.2617
X10.6099 Y-0.2661 Z6.8663
X10.6096 Y-0.2673
Z6.8563 F1.
X10.6099 Y-0.2661 F3.
X10.611 Y-0.2617 Z6.8562
X10.6116 Y-0.2582
X10.612 Y-0.2538
X10.6122 Y-0.2469
Y-0.2432
X10.6119 Y-0.2376
X10.6115 Y-0.2337
X10.6108 Y-0.2298
X10.6099 Y-0.2258 Z6.8563
X10.6086 Y-0.2212
X10.6068 Y-0.2159 Z6.8564
X10.6049 Y-0.2112
X10.6026 Y-0.2065 Z6.8565
X10.6 Y-0.2019 Z6.8566
X10.5971 Y-0.1974 Z6.8567
X10.594 Y-0.1932 Z6.8568
X10.5907 Y-0.1892 Z6.8569
X10.5871 Y-0.1855 Z6.857
X10.5833 Y-0.1819 Z6.8571
X10.5792 Y-0.1786 Z6.8572
X10.5751 Y-0.1757 Z6.8574
X10.571 Y-0.1732 Z6.8575
X10.5673 Y-0.1712 Z6.8576
X10.5633 Y-0.1693 Z6.8578
X10.5592 Y-0.1677 Z6.8579
X10.5553 Y-0.1664 Z6.858
X10.5513 Y-0.1653 Z6.8582
X10.5468 Y-0.1643 Z6.8583
X10.5426 Y-0.1637 Z6.8585
X10.5394 Y-0.1634 Z6.8586
X10.5344 Y-0.1632 Z6.8588
X10.5315 Y-0.1633 Z6.8589
X10.5259 Y-0.1636 Z6.8591
X10.5219 Y-0.1641 Z6.8592
X10.5181 Y-0.1647 Z6.8594
X10.5142 Y-0.1657 Z6.8595
X10.5099 Y-0.167 Z6.8597
X10.505 Y-0.1688 Z6.8598
X10.5003 Y-0.1709 Z6.86
X10.4957 Y-0.1733 Z6.8602
X10.4913 Y-0.176 Z6.8603
X10.487 Y-0.179 Z6.8605
X10.4831 Y-0.1823 Z6.8606
X10.4793 Y-0.1859 Z6.8608
X10.4756 Y-0.1897 Z6.8609
X10.4723 Y-0.1938 Z6.861
X10.4693 Y-0.1979 Z6.8611
X10.4664 Y-0.2024 Z6.8612
X10.4639 Y-0.2068 Z6.8613
X10.462 Y-0.2106 Z6.8614
X10.4602 Y-0.2149
X10.4585 Y-0.2193 Z6.8615
X10.4572 Y-0.2235
X10.4561 Y-0.2278 Z6.8616
X10.4552 Y-0.2326
X10.4545 Y-0.2378
X10.4542 Y-0.2439 Z6.8617
X10.4541 Y-0.2477
X10.4544 Y-0.2542 Z6.8616
X10.4549 Y-0.2584
X10.4555 Y-0.2625
X10.4564 Y-0.2665
X10.4576 Y-0.2709 Z6.8615
X10.4593 Y-0.276
X10.4613 Y-0.2807 Z6.8614
X10.4635 Y-0.2855 Z6.8613
X10.4662 Y-0.2903 Z6.8612
X10.4689 Y-0.2946 Z6.8611
X10.4719 Y-0.2987 Z6.861
X10.4753 Y-0.3029 Z6.8609
X10.4789 Y-0.3067 Z6.8608
X10.4826 Y-0.3102 Z6.8606
X10.4866 Y-0.3135 Z6.8605
X10.4908 Y-0.3165 Z6.8603
X10.4948 Y-0.319 Z6.8602
X10.4983 Y-0.3209 Z6.8601
X10.5023 Y-0.3228 Z6.8599
X10.5066 Y-0.3246 Z6.8598
X10.5106 Y-0.326 Z6.8596
X10.5146 Y-0.3271 Z6.8595
X10.519 Y-0.328 Z6.8593
X10.5231 Y-0.3286 Z6.8592
X10.5265 Y-0.3289 Z6.8591
X10.5316 Y-0.3292 Z6.8589
X10.5352 Y-0.3291 Z6.8588
X10.5398 Y-0.3289 Z6.8586
X10.5433 Y-0.3284 Z6.8585
X10.5474 Y-0.3277 Z6.8583
X10.552 Y-0.3267 Z6.8582
X10.557 Y-0.3252 Z6.858
X10.5618 Y-0.3234 Z6.8578
X10.5665 Y-0.3212 Z6.8577
X10.571 Y-0.3188 Z6.8575
X10.5748 Y-0.3164 Z6.8574
X10.5785 Y-0.3139 Z6.8573
X10.5822 Y-0.3111 Z6.8572
X10.5854 Y-0.3083 Z6.857
X10.5882 Y-0.3056
X10.5915 Y-0.3022 Z6.8569
X10.5946 Y-0.2985 Z6.8568
X10.5975 Y-0.2946 Z6.8567
X10.6002 Y-0.2905 Z6.8566
X10.6026 Y-0.2863 Z6.8565
X10.6047 Y-0.282 Z6.8564
X10.6065 Y-0.2775
X10.608 Y-0.2732 Z6.8563
X10.6095 Y-0.2677
Z6.8463 F1.
X10.608 Y-0.2732 F3.
X10.6065 Y-0.2775 Z6.8464
X10.6047 Y-0.282
X10.6026 Y-0.2863 Z6.8465
X10.6002 Y-0.2905 Z6.8466
X10.5975 Y-0.2946 Z6.8467
X10.5946 Y-0.2985 Z6.8468
X10.5915 Y-0.3022 Z6.8469
X10.5882 Y-0.3056 Z6.847
X10.5854 Y-0.3083
X10.5822 Y-0.3111 Z6.8472
X10.5785 Y-0.3139 Z6.8473
X10.5748 Y-0.3164 Z6.8474
X10.571 Y-0.3188 Z6.8475
X10.5665 Y-0.3212 Z6.8477
X10.5618 Y-0.3234 Z6.8478
X10.557 Y-0.3252 Z6.848
X10.552 Y-0.3267 Z6.8482
X10.5474 Y-0.3277 Z6.8483
X10.5433 Y-0.3284 Z6.8485
X10.5398 Y-0.3289 Z6.8486
X10.5352 Y-0.3291 Z6.8488
X10.5316 Y-0.3292 Z6.8489
X10.5265 Y-0.3289 Z6.8491
X10.5231 Y-0.3286 Z6.8492
X10.519 Y-0.328 Z6.8493
X10.5146 Y-0.3271 Z6.8495
X10.5106 Y-0.326 Z6.8496
X10.5066 Y-0.3246 Z6.8498
X10.5023 Y-0.3228 Z6.8499
X10.4983 Y-0.3209 Z6.8501
X10.4948 Y-0.319 Z6.8502
X10.4908 Y-0.3165 Z6.8503
X10.4866 Y-0.3135 Z6.8505
X10.4826 Y-0.3102 Z6.8506
X10.4789 Y-0.3067 Z6.8508
X10.4753 Y-0.3029 Z6.8509
X10.4719 Y-0.2987 Z6.851
X10.4689 Y-0.2946 Z6.8511
X10.4662 Y-0.2903 Z6.8512
X10.4635 Y-0.2855 Z6.8513
X10.4613 Y-0.2807 Z6.8514
X10.4593 Y-0.276 Z6.8515
X10.4576 Y-0.2709
X10.4564 Y-0.2665 Z6.8516
X10.4555 Y-0.2625
X10.4549 Y-0.2584
X10.4544 Y-0.2542
X10.4541 Y-0.2477 Z6.8517
X10.4542 Y-0.2439
X10.4545 Y-0.2378 Z6.8516
X10.4552 Y-0.2326
X10.4561 Y-0.2278
X10.4572 Y-0.2235 Z6.8515
X10.4585 Y-0.2193
X10.4602 Y-0.2149 Z6.8514
X10.462 Y-0.2106
X10.4639 Y-0.2068 Z6.8513
X10.4664 Y-0.2024 Z6.8512
X10.4693 Y-0.1979 Z6.8511
X10.4723 Y-0.1938 Z6.851
X10.4756 Y-0.1897 Z6.8509
X10.4793 Y-0.1859 Z6.8508
X10.4831 Y-0.1823 Z6.8506
X10.487 Y-0.179 Z6.8505
X10.4913 Y-0.176 Z6.8503
X10.4957 Y-0.1733 Z6.8502
X10.5003 Y-0.1709 Z6.85
X10.505 Y-0.1688 Z6.8498
X10.5099 Y-0.167 Z6.8497
X10.5142 Y-0.1657 Z6.8495
X10.5181 Y-0.1647 Z6.8494
X10.5219 Y-0.1641 Z6.8492
X10.5259 Y-0.1636 Z6.8491
X10.5315 Y-0.1633 Z6.8489
X10.5344 Y-0.1632 Z6.8488
X10.5394 Y-0.1634 Z6.8486
X10.5426 Y-0.1637 Z6.8485
X10.5468 Y-0.1643 Z6.8483
X10.5513 Y-0.1653 Z6.8482
X10.5553 Y-0.1664 Z6.848
X10.5592 Y-0.1677 Z6.8479
X10.5633 Y-0.1693 Z6.8478
X10.5673 Y-0.1712 Z6.8476
X10.571 Y-0.1732 Z6.8475
X10.5751 Y-0.1757 Z6.8474
X10.5792 Y-0.1786 Z6.8472
X10.5833 Y-0.1819 Z6.8471
X10.5871 Y-0.1855 Z6.847
X10.5907 Y-0.1892 Z6.8469
X10.594 Y-0.1932 Z6.8468
X10.5971 Y-0.1974 Z6.8467
X10.6 Y-0.2019 Z6.8466
X10.6026 Y-0.2065 Z6.8465
X10.6049 Y-0.2112 Z6.8464
X10.6068 Y-0.2159
X10.6086 Y-0.2212 Z6.8463
X10.6099 Y-0.2258
X10.6108 Y-0.2298 Z6.8462
X10.6115 Y-0.2337
X10.6119 Y-0.2376
X10.6122 Y-0.2432
Y-0.2469
X10.612 Y-0.2538
X10.6116 Y-0.2582
X10.611 Y-0.2617
X10.6099 Y-0.2661 Z6.8463
X10.6096 Y-0.2673
Z6.8763
X10.6067 Y-0.2781 Z6.8764
X10.6042 Y-0.2864
X10.6012 Y-0.2956 Z6.8765
X10.598 Y-0.3046 Z6.8766
X10.5949 Y-0.3128 Z6.8767
X10.5914 Y-0.3211 Z6.8769
X10.5875 Y-0.3299 Z6.877
X10.5835 Y-0.3382 Z6.8771
X10.579 Y-0.3469 Z6.8773
X10.5741 Y-0.3558 Z6.8774
X10.569 Y-0.3645 Z6.8776
X10.5637 Y-0.3728 Z6.8777
X10.5582 Y-0.381 Z6.8779
X10.5523 Y-0.3891 Z6.8781
X10.5462 Y-0.3969 Z6.8784
X10.54 Y-0.4045 Z6.8786
X10.533 Y-0.4123 Z6.8788
X10.5271 Y-0.4185 Z6.879
X10.5217 Y-0.4239 Z6.8792
X10.5159 Y-0.4295 Z6.8794
X10.5069 Y-0.4374 Z6.8798
X10.5059 Y-0.4383
Z6.8698 F1.
X10.5069 Y-0.4374 F3.
X10.5159 Y-0.4295 Z6.8694
X10.5217 Y-0.4239 Z6.8692
X10.5271 Y-0.4185 Z6.869
X10.533 Y-0.4123 Z6.8688
X10.54 Y-0.4045 Z6.8686
X10.5462 Y-0.3969 Z6.8684
X10.5523 Y-0.3891 Z6.8681
X10.5582 Y-0.381 Z6.8679
X10.5637 Y-0.3728 Z6.8677
X10.569 Y-0.3645 Z6.8676
X10.5741 Y-0.3558 Z6.8674
X10.579 Y-0.3469 Z6.8673
X10.5835 Y-0.3382 Z6.8671
X10.5875 Y-0.3299 Z6.867
X10.5914 Y-0.3211 Z6.8669
X10.5949 Y-0.3128 Z6.8667
X10.598 Y-0.3046 Z6.8666
X10.6012 Y-0.2956 Z6.8665
X10.6042 Y-0.2864 Z6.8664
X10.6067 Y-0.2781
X10.6096 Y-0.2673 Z6.8663
Z6.8563 F1.
X10.6067 Y-0.2781 Z6.8564 F3.
X10.6042 Y-0.2864
X10.6012 Y-0.2956 Z6.8565
X10.598 Y-0.3046 Z6.8566
X10.5949 Y-0.3128 Z6.8567
X10.5914 Y-0.3211 Z6.8569
X10.5875 Y-0.3299 Z6.857
X10.5835 Y-0.3382 Z6.8571
X10.579 Y-0.3469 Z6.8573
X10.5741 Y-0.3558 Z6.8574
X10.569 Y-0.3645 Z6.8576
X10.5637 Y-0.3728 Z6.8577
X10.5582 Y-0.381 Z6.8579
X10.5523 Y-0.3891 Z6.8581
X10.5462 Y-0.3969 Z6.8584
X10.54 Y-0.4045 Z6.8586
X10.533 Y-0.4123 Z6.8588
X10.5271 Y-0.4185 Z6.859
X10.5217 Y-0.4239 Z6.8592
X10.5159 Y-0.4295 Z6.8594
X10.5069 Y-0.4374 Z6.8598
X10.5059 Y-0.4383
Z6.8498 F1.
X10.5069 Y-0.4374 F3.
X10.5159 Y-0.4295 Z6.8494
X10.5217 Y-0.4239 Z6.8492
X10.5271 Y-0.4185 Z6.849
X10.533 Y-0.4123 Z6.8488
X10.54 Y-0.4045 Z6.8486
X10.5462 Y-0.3969 Z6.8484
X10.5523 Y-0.3891 Z6.8481
X10.5582 Y-0.381 Z6.8479
X10.5637 Y-0.3728 Z6.8477
X10.569 Y-0.3645 Z6.8476
X10.5741 Y-0.3558 Z6.8474
X10.579 Y-0.3469 Z6.8473
X10.5835 Y-0.3382 Z6.8471
X10.5875 Y-0.3299 Z6.847
X10.5914 Y-0.3211 Z6.8469
X10.5949 Y-0.3128 Z6.8467
X10.598 Y-0.3046 Z6.8466
X10.6012 Y-0.2956 Z6.8465
X10.6042 Y-0.2864 Z6.8464
X10.6067 Y-0.2781
X10.6096 Y-0.2673 Z6.8463
G0 Z7.3559
X10.2896
Z6.9649
G1 Z6.8883 F1.
X10.2899 Y-0.2661 F3.
X10.291 Y-0.2617
X10.2916 Y-0.2582
X10.292 Y-0.2538 Z6.8882
X10.2922 Y-0.2468
Y-0.2431
X10.2919 Y-0.2376
X10.2914 Y-0.2336 Z6.8883
X10.2908 Y-0.2298
X10.2899 Y-0.2258
X10.2886 Y-0.2212 Z6.8884
X10.2868 Y-0.2159 Z6.8885
X10.2848 Y-0.2112
X10.2825 Y-0.2065 Z6.8886
X10.2799 Y-0.2019 Z6.8888
X10.2771 Y-0.1974 Z6.8889
X10.274 Y-0.1932 Z6.889
X10.2706 Y-0.1892 Z6.8892
X10.267 Y-0.1854 Z6.8893
X10.2632 Y-0.1819 Z6.8895
X10.2592 Y-0.1786 Z6.8897
X10.2551 Y-0.1757 Z6.8898
X10.251 Y-0.1732 Z6.89
X10.2472 Y-0.1712 Z6.8902
X10.2432 Y-0.1693 Z6.8903
X10.2392 Y-0.1677 Z6.8905
X10.2353 Y-0.1664 Z6.8907
X10.2313 Y-0.1653 Z6.8909
X10.2267 Y-0.1643 Z6.8911
X10.2225 Y-0.1637 Z6.8913
X10.2193 Y-0.1634 Z6.8914
X10.2143 Y-0.1632 Z6.8917
X10.2115 Y-0.1633 Z6.8918
X10.2059 Y-0.1636 Z6.8921
X10.2019 Y-0.1641 Z6.8923
X10.198 Y-0.1648 Z6.8924
X10.1941 Y-0.1657 Z6.8926
X10.1899 Y-0.167 Z6.8928
X10.1849 Y-0.1688 Z6.893
X10.1803 Y-0.1709 Z6.8933
X10.1757 Y-0.1733 Z6.8935
X10.1712 Y-0.176 Z6.8937
X10.167 Y-0.1791 Z6.8939
X10.163 Y-0.1824 Z6.8941
X10.1592 Y-0.1859 Z6.8943
X10.1556 Y-0.1897 Z6.8944
X10.1522 Y-0.1938 Z6.8946
X10.1492 Y-0.198 Z6.8947
X10.1464 Y-0.2024 Z6.8949
X10.1439 Y-0.2069 Z6.895
X10.142 Y-0.2106 Z6.8951
X10.1401 Y-0.2149
X10.1384 Y-0.2193 Z6.8952
X10.1371 Y-0.2235 Z6.8953
X10.1361 Y-0.2277
X10.1353 Y-0.2321 Z6.8954
X10.1347 Y-0.2356
X10.1344 Y-0.2389
X10.1341 Y-0.2444
Y-0.2478
X10.1344 Y-0.2542
X10.1349 Y-0.2585
X10.1355 Y-0.2625
X10.1364 Y-0.2666 Z6.8953
X10.1376 Y-0.2709
X10.1393 Y-0.276 Z6.8952
X10.1413 Y-0.2808 Z6.8951
X10.1435 Y-0.2855 Z6.895
X10.1461 Y-0.2903 Z6.8949
X10.1489 Y-0.2947 Z6.8947
X10.1519 Y-0.2988 Z6.8946
X10.1553 Y-0.3029 Z6.8944
X10.1588 Y-0.3067 Z6.8943
X10.1626 Y-0.3102 Z6.8941
X10.1666 Y-0.3135 Z6.8939
X10.1707 Y-0.3165 Z6.8937
X10.1748 Y-0.319 Z6.8935
X10.1783 Y-0.3209 Z6.8934
X10.1824 Y-0.3228 Z6.8932
X10.1866 Y-0.3246 Z6.893
X10.1905 Y-0.326 Z6.8928
X10.1946 Y-0.3271 Z6.8926
X10.1989 Y-0.328 Z6.8924
X10.2031 Y-0.3286 Z6.8922
X10.2065 Y-0.3289 Z6.892
X10.2116 Y-0.3292 Z6.8918
X10.2152 Y-0.3291 Z6.8916
X10.2198 Y-0.3288 Z6.8914
X10.2233 Y-0.3284 Z6.8912
X10.2274 Y-0.3277 Z6.8911
X10.2319 Y-0.3267 Z6.8908
X10.2369 Y-0.3252 Z6.8906
X10.2417 Y-0.3234 Z6.8904
X10.2465 Y-0.3212 Z6.8902
X10.251 Y-0.3188 Z6.89
X10.2548 Y-0.3164 Z6.8898
X10.2585 Y-0.3139 Z6.8897
X10.2622 Y-0.3111 Z6.8895
X10.2654 Y-0.3083 Z6.8894
X10.2682 Y-0.3056 Z6.8893
X10.2714 Y-0.3022 Z6.8891
X10.2746 Y-0.2985 Z6.889
X10.2775 Y-0.2946 Z6.8889
X10.2802 Y-0.2905 Z6.8888
X10.2825 Y-0.2863 Z6.8886
X10.2846 Y-0.282
X10.2865 Y-0.2775 Z6.8885
X10.2879 Y-0.2732 Z6.8884
X10.2895 Y-0.2677 Z6.8883
Z6.8783 F1.
X10.2879 Y-0.2732 Z6.8784 F3.
X10.2865 Y-0.2775 Z6.8785
X10.2846 Y-0.282 Z6.8786
X10.2825 Y-0.2863
X10.2802 Y-0.2905 Z6.8788
X10.2775 Y-0.2946 Z6.8789
X10.2746 Y-0.2985 Z6.879
X10.2714 Y-0.3022 Z6.8791
X10.2682 Y-0.3056 Z6.8793
X10.2654 Y-0.3083 Z6.8794
X10.2622 Y-0.3111 Z6.8795
X10.2585 Y-0.3139 Z6.8797
X10.2548 Y-0.3164 Z6.8798
X10.251 Y-0.3188 Z6.88
X10.2465 Y-0.3212 Z6.8802
X10.2417 Y-0.3234 Z6.8804
X10.2369 Y-0.3252 Z6.8806
X10.2319 Y-0.3267 Z6.8808
X10.2274 Y-0.3277 Z6.8811
X10.2233 Y-0.3284 Z6.8812
X10.2198 Y-0.3288 Z6.8814
X10.2152 Y-0.3291 Z6.8816
X10.2116 Y-0.3292 Z6.8818
X10.2065 Y-0.3289 Z6.882
X10.2031 Y-0.3286 Z6.8822
X10.1989 Y-0.328 Z6.8824
X10.1946 Y-0.3271 Z6.8826
X10.1905 Y-0.326 Z6.8828
X10.1866 Y-0.3246 Z6.883
X10.1824 Y-0.3228 Z6.8832
X10.1783 Y-0.3209 Z6.8834
X10.1748 Y-0.319 Z6.8835
X10.1707 Y-0.3165 Z6.8837
X10.1666 Y-0.3135 Z6.8839
X10.1626 Y-0.3102 Z6.8841
X10.1588 Y-0.3067 Z6.8843
X10.1553 Y-0.3029 Z6.8844
X10.1519 Y-0.2988 Z6.8846
X10.1489 Y-0.2947 Z6.8847
X10.1461 Y-0.2903 Z6.8849
X10.1435 Y-0.2855 Z6.885
X10.1413 Y-0.2808 Z6.8851
X10.1393 Y-0.276 Z6.8852
X10.1376 Y-0.2709 Z6.8853
X10.1364 Y-0.2666
X10.1355 Y-0.2625 Z6.8854
X10.1349 Y-0.2585
X10.1344 Y-0.2542
X10.1341 Y-0.2478
Y-0.2444
X10.1344 Y-0.2389
X10.1347 Y-0.2356
X10.1353 Y-0.2321
X10.1361 Y-0.2277 Z6.8853
X10.1371 Y-0.2235
X10.1384 Y-0.2193 Z6.8852
X10.1401 Y-0.2149 Z6.8851
X10.142 Y-0.2106
X10.1439 Y-0.2069 Z6.885
X10.1464 Y-0.2024 Z6.8849
X10.1492 Y-0.198 Z6.8847
X10.1522 Y-0.1938 Z6.8846
X10.1556 Y-0.1897 Z6.8844
X10.1592 Y-0.1859 Z6.8843
X10.163 Y-0.1824 Z6.8841
X10.167 Y-0.1791 Z6.8839
X10.1712 Y-0.176 Z6.8837
X10.1757 Y-0.1733 Z6.8835
X10.1803 Y-0.1709 Z6.8833
X10.1849 Y-0.1688 Z6.883
X10.1899 Y-0.167 Z6.8828
X10.1941 Y-0.1657 Z6.8826
X10.198 Y-0.1648 Z6.8824
X10.2019 Y-0.1641 Z6.8823
X10.2059 Y-0.1636 Z6.8821
X10.2115 Y-0.1633 Z6.8818
X10.2143 Y-0.1632 Z6.8817
X10.2193 Y-0.1634 Z6.8814
X10.2225 Y-0.1637 Z6.8813
X10.2267 Y-0.1643 Z6.8811
X10.2313 Y-0.1653 Z6.8809
X10.2353 Y-0.1664 Z6.8807
X10.2392 Y-0.1677 Z6.8805
X10.2432 Y-0.1693 Z6.8803
X10.2472 Y-0.1712 Z6.8802
X10.251 Y-0.1732 Z6.88
X10.2551 Y-0.1757 Z6.8798
X10.2592 Y-0.1786 Z6.8797
X10.2632 Y-0.1819 Z6.8795
X10.267 Y-0.1854 Z6.8793
X10.2706 Y-0.1892 Z6.8792
X10.274 Y-0.1932 Z6.879
X10.2771 Y-0.1974 Z6.8789
X10.2799 Y-0.2019 Z6.8788
X10.2825 Y-0.2065 Z6.8786
X10.2848 Y-0.2112 Z6.8785
X10.2868 Y-0.2159
X10.2886 Y-0.2212 Z6.8784
X10.2899 Y-0.2258 Z6.8783
X10.2908 Y-0.2298
X10.2914 Y-0.2336
X10.2919 Y-0.2376 Z6.8782
X10.2922 Y-0.2431
Y-0.2468
X10.292 Y-0.2538
X10.2916 Y-0.2582 Z6.8783
X10.291 Y-0.2617
X10.2899 Y-0.2661
X10.2896 Y-0.2673
Z6.8683 F1.
X10.2899 Y-0.2661 F3.
X10.291 Y-0.2617
X10.2916 Y-0.2582
X10.292 Y-0.2538 Z6.8682
X10.2922 Y-0.2468
Y-0.2431
X10.2919 Y-0.2376
X10.2914 Y-0.2336 Z6.8683
X10.2908 Y-0.2298
X10.2899 Y-0.2258
X10.2886 Y-0.2212 Z6.8684
X10.2868 Y-0.2159 Z6.8685
X10.2848 Y-0.2112
X10.2825 Y-0.2065 Z6.8686
X10.2799 Y-0.2019 Z6.8688
X10.2771 Y-0.1974 Z6.8689
X10.274 Y-0.1932 Z6.869
X10.2706 Y-0.1892 Z6.8692
X10.267 Y-0.1854 Z6.8693
X10.2632 Y-0.1819 Z6.8695
X10.2592 Y-0.1786 Z6.8697
X10.2551 Y-0.1757 Z6.8698
X10.251 Y-0.1732 Z6.87
X10.2472 Y-0.1712 Z6.8702
X10.2432 Y-0.1693 Z6.8703
X10.2392 Y-0.1677 Z6.8705
X10.2353 Y-0.1664 Z6.8707
X10.2313 Y-0.1653 Z6.8709
X10.2267 Y-0.1643 Z6.8711
X10.2225 Y-0.1637 Z6.8713
X10.2193 Y-0.1634 Z6.8714
X10.2143 Y-0.1632 Z6.8717
X10.2115 Y-0.1633 Z6.8718
X10.2059 Y-0.1636 Z6.8721
X10.2019 Y-0.1641 Z6.8723
X10.198 Y-0.1648 Z6.8724
X10.1941 Y-0.1657 Z6.8726
X10.1899 Y-0.167 Z6.8728
X10.1849 Y-0.1688 Z6.873
X10.1803 Y-0.1709 Z6.8733
X10.1757 Y-0.1733 Z6.8735
X10.1712 Y-0.176 Z6.8737
X10.167 Y-0.1791 Z6.8739
X10.163 Y-0.1824 Z6.8741
X10.1592 Y-0.1859 Z6.8743
X10.1556 Y-0.1897 Z6.8744
X10.1522 Y-0.1938 Z6.8746
X10.1492 Y-0.198 Z6.8747
X10.1464 Y-0.2024 Z6.8749
X10.1439 Y-0.2069 Z6.875
X10.142 Y-0.2106 Z6.8751
X10.1401 Y-0.2149
X10.1384 Y-0.2193 Z6.8752
X10.1371 Y-0.2235 Z6.8753
X10.1361 Y-0.2277
X10.1353 Y-0.2321 Z6.8754
X10.1347 Y-0.2356
X10.1344 Y-0.2389
X10.1341 Y-0.2444
Y-0.2478
X10.1344 Y-0.2542
X10.1349 Y-0.2585
X10.1355 Y-0.2625
X10.1364 Y-0.2666 Z6.8753
X10.1376 Y-0.2709
X10.1393 Y-0.276 Z6.8752
X10.1413 Y-0.2808 Z6.8751
X10.1435 Y-0.2855 Z6.875
X10.1461 Y-0.2903 Z6.8749
X10.1489 Y-0.2947 Z6.8747
X10.1519 Y-0.2988 Z6.8746
X10.1553 Y-0.3029 Z6.8744
X10.1588 Y-0.3067 Z6.8743
X10.1626 Y-0.3102 Z6.8741
X10.1666 Y-0.3135 Z6.8739
X10.1707 Y-0.3165 Z6.8737
X10.1748 Y-0.319 Z6.8735
X10.1783 Y-0.3209 Z6.8734
X10.1824 Y-0.3228 Z6.8732
X10.1866 Y-0.3246 Z6.873
X10.1905 Y-0.326 Z6.8728
X10.1946 Y-0.3271 Z6.8726
X10.1989 Y-0.328 Z6.8724
X10.2031 Y-0.3286 Z6.8722
X10.2065 Y-0.3289 Z6.872
X10.2116 Y-0.3292 Z6.8718
X10.2152 Y-0.3291 Z6.8716
X10.2198 Y-0.3288 Z6.8714
X10.2233 Y-0.3284 Z6.8712
X10.2274 Y-0.3277 Z6.8711
X10.2319 Y-0.3267 Z6.8708
X10.2369 Y-0.3252 Z6.8706
X10.2417 Y-0.3234 Z6.8704
X10.2465 Y-0.3212 Z6.8702
X10.251 Y-0.3188 Z6.87
X10.2548 Y-0.3164 Z6.8698
X10.2585 Y-0.3139 Z6.8697
X10.2622 Y-0.3111 Z6.8695
X10.2654 Y-0.3083 Z6.8694
X10.2682 Y-0.3056 Z6.8693
X10.2714 Y-0.3022 Z6.8691
X10.2746 Y-0.2985 Z6.869
X10.2775 Y-0.2946 Z6.8689
X10.2802 Y-0.2905 Z6.8688
X10.2825 Y-0.2863 Z6.8686
X10.2846 Y-0.282
X10.2865 Y-0.2775 Z6.8685
X10.2879 Y-0.2732 Z6.8684
X10.2895 Y-0.2677 Z6.8683
Z6.8583 F1.
X10.2879 Y-0.2732 Z6.8584 F3.
X10.2865 Y-0.2775 Z6.8585
X10.2846 Y-0.282 Z6.8586
X10.2825 Y-0.2863
X10.2802 Y-0.2905 Z6.8588
X10.2775 Y-0.2946 Z6.8589
X10.2746 Y-0.2985 Z6.859
X10.2714 Y-0.3022 Z6.8591
X10.2682 Y-0.3056 Z6.8593
X10.2654 Y-0.3083 Z6.8594
X10.2622 Y-0.3111 Z6.8595
X10.2585 Y-0.3139 Z6.8597
X10.2548 Y-0.3164 Z6.8598
X10.251 Y-0.3188 Z6.86
X10.2465 Y-0.3212 Z6.8602
X10.2417 Y-0.3234 Z6.8604
X10.2369 Y-0.3252 Z6.8606
X10.2319 Y-0.3267 Z6.8608
X10.2274 Y-0.3277 Z6.8611
X10.2233 Y-0.3284 Z6.8612
X10.2198 Y-0.3288 Z6.8614
X10.2152 Y-0.3291 Z6.8616
X10.2116 Y-0.3292 Z6.8618
X10.2065 Y-0.3289 Z6.862
X10.2031 Y-0.3286 Z6.8622
X10.1989 Y-0.328 Z6.8624
X10.1946 Y-0.3271 Z6.8626
X10.1905 Y-0.326 Z6.8628
X10.1866 Y-0.3246 Z6.863
X10.1824 Y-0.3228 Z6.8632
X10.1783 Y-0.3209 Z6.8634
X10.1748 Y-0.319 Z6.8635
X10.1707 Y-0.3165 Z6.8637
X10.1666 Y-0.3135 Z6.8639
X10.1626 Y-0.3102 Z6.8641
X10.1588 Y-0.3067 Z6.8643
X10.1553 Y-0.3029 Z6.8644
X10.1519 Y-0.2988 Z6.8646
X10.1489 Y-0.2947 Z6.8647
X10.1461 Y-0.2903 Z6.8649
X10.1435 Y-0.2855 Z6.865
X10.1413 Y-0.2808 Z6.8651
X10.1393 Y-0.276 Z6.8652
X10.1376 Y-0.2709 Z6.8653
X10.1364 Y-0.2666
X10.1355 Y-0.2625 Z6.8654
X10.1349 Y-0.2585
X10.1344 Y-0.2542
X10.1341 Y-0.2478
Y-0.2444
X10.1344 Y-0.2389
X10.1347 Y-0.2356
X10.1353 Y-0.2321
X10.1361 Y-0.2277 Z6.8653
X10.1371 Y-0.2235
X10.1384 Y-0.2193 Z6.8652
X10.1401 Y-0.2149 Z6.8651
X10.142 Y-0.2106
X10.1439 Y-0.2069 Z6.865
X10.1464 Y-0.2024 Z6.8649
X10.1492 Y-0.198 Z6.8647
X10.1522 Y-0.1938 Z6.8646
X10.1556 Y-0.1897 Z6.8644
X10.1592 Y-0.1859 Z6.8643
X10.163 Y-0.1824 Z6.8641
X10.167 Y-0.1791 Z6.8639
X10.1712 Y-0.176 Z6.8637
X10.1757 Y-0.1733 Z6.8635
X10.1803 Y-0.1709 Z6.8633
X10.1849 Y-0.1688 Z6.863
X10.1899 Y-0.167 Z6.8628
X10.1941 Y-0.1657 Z6.8626
X10.198 Y-0.1648 Z6.8624
X10.2019 Y-0.1641 Z6.8623
X10.2059 Y-0.1636 Z6.8621
X10.2115 Y-0.1633 Z6.8618
X10.2143 Y-0.1632 Z6.8617
X10.2193 Y-0.1634 Z6.8614
X10.2225 Y-0.1637 Z6.8613
X10.2267 Y-0.1643 Z6.8611
X10.2313 Y-0.1653 Z6.8609
X10.2353 Y-0.1664 Z6.8607
X10.2392 Y-0.1677 Z6.8605
X10.2432 Y-0.1693 Z6.8603
X10.2472 Y-0.1712 Z6.8602
X10.251 Y-0.1732 Z6.86
X10.2551 Y-0.1757 Z6.8598
X10.2592 Y-0.1786 Z6.8597
X10.2632 Y-0.1819 Z6.8595
X10.267 Y-0.1854 Z6.8593
X10.2706 Y-0.1892 Z6.8592
X10.274 Y-0.1932 Z6.859
X10.2771 Y-0.1974 Z6.8589
X10.2799 Y-0.2019 Z6.8588
X10.2825 Y-0.2065 Z6.8586
X10.2848 Y-0.2112 Z6.8585
X10.2868 Y-0.2159
X10.2886 Y-0.2212 Z6.8584
X10.2899 Y-0.2258 Z6.8583
X10.2908 Y-0.2298
X10.2914 Y-0.2336
X10.2919 Y-0.2376 Z6.8582
X10.2922 Y-0.2431
Y-0.2468
X10.292 Y-0.2538
X10.2916 Y-0.2582 Z6.8583
X10.291 Y-0.2617
X10.2899 Y-0.2661
X10.2896 Y-0.2673
Z6.8883
X10.2867 Y-0.2781 Z6.8885
X10.2842 Y-0.2864 Z6.8886
X10.2812 Y-0.2956 Z6.8887
X10.278 Y-0.3045 Z6.8888
X10.2749 Y-0.3127 Z6.889
X10.2714 Y-0.3211 Z6.8891
X10.2675 Y-0.3298 Z6.8893
X10.2635 Y-0.3382 Z6.8895
X10.259 Y-0.3469 Z6.8897
X10.2541 Y-0.3558 Z6.8899
X10.2489 Y-0.3644 Z6.8901
X10.2436 Y-0.3728 Z6.8903
X10.2381 Y-0.381 Z6.8906
X10.2322 Y-0.3891 Z6.8908
X10.2262 Y-0.3969 Z6.8911
X10.22 Y-0.4045 Z6.8914
X10.213 Y-0.4123 Z6.8917
X10.2071 Y-0.4185 Z6.892
X10.2017 Y-0.4239 Z6.8923
X10.1959 Y-0.4294 Z6.8925
X10.1871 Y-0.4372 Z6.8929
X10.1859 Y-0.4383 Z6.893
Z6.883 F1.
X10.1871 Y-0.4372 Z6.8829 F3.
X10.1959 Y-0.4294 Z6.8825
X10.2017 Y-0.4239 Z6.8823
X10.2071 Y-0.4185 Z6.882
X10.213 Y-0.4123 Z6.8817
X10.22 Y-0.4045 Z6.8814
X10.2262 Y-0.3969 Z6.8811
X10.2322 Y-0.3891 Z6.8808
X10.2381 Y-0.381 Z6.8806
X10.2436 Y-0.3728 Z6.8803
X10.2489 Y-0.3644 Z6.8801
X10.2541 Y-0.3558 Z6.8799
X10.259 Y-0.3469 Z6.8797
X10.2635 Y-0.3382 Z6.8795
X10.2675 Y-0.3298 Z6.8793
X10.2714 Y-0.3211 Z6.8791
X10.2749 Y-0.3127 Z6.879
X10.278 Y-0.3045 Z6.8788
X10.2812 Y-0.2956 Z6.8787
X10.2842 Y-0.2864 Z6.8786
X10.2867 Y-0.2781 Z6.8785
X10.2896 Y-0.2673 Z6.8783
Z6.8683 F1.
X10.2867 Y-0.2781 Z6.8685 F3.
X10.2842 Y-0.2864 Z6.8686
X10.2812 Y-0.2956 Z6.8687
X10.278 Y-0.3045 Z6.8688
X10.2749 Y-0.3127 Z6.869
X10.2714 Y-0.3211 Z6.8691
X10.2675 Y-0.3298 Z6.8693
X10.2635 Y-0.3382 Z6.8695
X10.259 Y-0.3469 Z6.8697
X10.2541 Y-0.3558 Z6.8699
X10.2489 Y-0.3644 Z6.8701
X10.2436 Y-0.3728 Z6.8703
X10.2381 Y-0.381 Z6.8706
X10.2322 Y-0.3891 Z6.8708
X10.2262 Y-0.3969 Z6.8711
X10.22 Y-0.4045 Z6.8714
X10.213 Y-0.4123 Z6.8717
X10.2071 Y-0.4185 Z6.872
X10.2017 Y-0.4239 Z6.8723
X10.1959 Y-0.4294 Z6.8725
X10.1871 Y-0.4372 Z6.8729
X10.1859 Y-0.4383 Z6.873
Z6.863 F1.
X10.1871 Y-0.4372 Z6.8629 F3.
X10.1959 Y-0.4294 Z6.8625
X10.2017 Y-0.4239 Z6.8623
X10.2071 Y-0.4185 Z6.862
X10.213 Y-0.4123 Z6.8617
X10.22 Y-0.4045 Z6.8614
X10.2262 Y-0.3969 Z6.8611
X10.2322 Y-0.3891 Z6.8608
X10.2381 Y-0.381 Z6.8606
X10.2436 Y-0.3728 Z6.8603
X10.2489 Y-0.3644 Z6.8601
X10.2541 Y-0.3558 Z6.8599
X10.259 Y-0.3469 Z6.8597
X10.2635 Y-0.3382 Z6.8595
X10.2675 Y-0.3298 Z6.8593
X10.2714 Y-0.3211 Z6.8591
X10.2749 Y-0.3127 Z6.859
X10.278 Y-0.3045 Z6.8588
X10.2812 Y-0.2956 Z6.8587
X10.2842 Y-0.2864 Z6.8586
X10.2867 Y-0.2781 Z6.8585
X10.2896 Y-0.2673 Z6.8583
G0 Z7.3559
X9.9696
Z6.9809
G1 Z6.9039 F1.
X9.9699 Y-0.2661 F3.
X9.9709 Y-0.2617 Z6.9038
X9.9715 Y-0.2582
X9.9719 Y-0.2538
X9.9722 Y-0.2468
Y-0.2431
X9.9719 Y-0.2376
X9.9714 Y-0.2336
X9.9707 Y-0.2298
X9.9698 Y-0.2258 Z6.9039
X9.9686 Y-0.2212 Z6.904
X9.9668 Y-0.2159 Z6.9041
X9.9648 Y-0.2112 Z6.9042
X9.9625 Y-0.2065 Z6.9043
X9.9599 Y-0.2019 Z6.9044
X9.957 Y-0.1974 Z6.9046
X9.9539 Y-0.1932 Z6.9047
X9.9506 Y-0.1892 Z6.9049
X9.947 Y-0.1854 Z6.9051
X9.9432 Y-0.1819 Z6.9053
X9.9392 Y-0.1786 Z6.9055
X9.935 Y-0.1757 Z6.9058
X9.9309 Y-0.1732 Z6.906
X9.9272 Y-0.1712 Z6.9062
X9.9232 Y-0.1693 Z6.9064
X9.9191 Y-0.1677 Z6.9066
X9.9152 Y-0.1664 Z6.9069
X9.9112 Y-0.1653 Z6.9071
X9.9067 Y-0.1643 Z6.9073
X9.9024 Y-0.1637 Z6.9076
X9.8992 Y-0.1634 Z6.9078
X9.8942 Y-0.1632 Z6.908
X9.8913 Y-0.1633 Z6.9082
X9.8858 Y-0.1636 Z6.9085
X9.8818 Y-0.1641 Z6.9088
X9.878 Y-0.1648 Z6.909
X9.874 Y-0.1657 Z6.9092
X9.8698 Y-0.167 Z6.9095
X9.8649 Y-0.1688 Z6.9097
X9.8602 Y-0.1709 Z6.91
X9.8556 Y-0.1733 Z6.9103
X9.8512 Y-0.176 Z6.9105
X9.8469 Y-0.1791 Z6.9108
X9.8429 Y-0.1824 Z6.911
X9.8392 Y-0.1859 Z6.9112
X9.8355 Y-0.1898 Z6.9114
X9.8322 Y-0.1938 Z6.9116
X9.8292 Y-0.198 Z6.9118
X9.8263 Y-0.2024 Z6.912
X9.8238 Y-0.2069 Z6.9121
X9.8219 Y-0.2106 Z6.9122
X9.8201 Y-0.2149 Z6.9123
X9.8184 Y-0.2193 Z6.9124
X9.8171 Y-0.2236 Z6.9125
X9.816 Y-0.2278 Z6.9126
X9.8152 Y-0.2323
X9.8146 Y-0.2364 Z6.9127
X9.8143 Y-0.2394
X9.8141 Y-0.2447
X9.814 Y-0.2479
X9.8144 Y-0.2542
X9.8148 Y-0.2585 Z6.9126
X9.8155 Y-0.2625
X9.8164 Y-0.2666
X9.8175 Y-0.2709 Z6.9125
X9.8193 Y-0.276 Z6.9124
X9.8212 Y-0.2808 Z6.9123
X9.8235 Y-0.2855 Z6.9121
X9.8261 Y-0.2904 Z6.912
X9.8289 Y-0.2947 Z6.9118
X9.8319 Y-0.2988 Z6.9117
X9.8353 Y-0.3029 Z6.9115
X9.8388 Y-0.3067 Z6.9113
X9.8426 Y-0.3102 Z6.911
X9.8466 Y-0.3135 Z6.9108
X9.8507 Y-0.3165 Z6.9106
X9.8548 Y-0.319 Z6.9103
X9.8583 Y-0.3209 Z6.9101
X9.8624 Y-0.3229 Z6.9099
X9.8665 Y-0.3246 Z6.9096
X9.8706 Y-0.326 Z6.9094
X9.8746 Y-0.3271 Z6.9092
X9.8789 Y-0.328 Z6.9089
X9.8831 Y-0.3286 Z6.9087
X9.8865 Y-0.3289 Z6.9085
X9.8916 Y-0.3292 Z6.9082
X9.8952 Y-0.3291 Z6.908
X9.8997 Y-0.3288 Z6.9077
X9.9033 Y-0.3284 Z6.9075
X9.9074 Y-0.3277 Z6.9073
X9.9119 Y-0.3267 Z6.907
X9.9169 Y-0.3252 Z6.9068
X9.9217 Y-0.3234 Z6.9065
X9.9265 Y-0.3212 Z6.9062
X9.931 Y-0.3188 Z6.906
X9.9348 Y-0.3164 Z6.9058
X9.9385 Y-0.3139 Z6.9056
X9.9422 Y-0.3111 Z6.9054
X9.9454 Y-0.3083 Z6.9052
X9.9482 Y-0.3056 Z6.9051
X9.9514 Y-0.3022 Z6.9049
X9.9545 Y-0.2985 Z6.9047
X9.9574 Y-0.2946 Z6.9046
X9.9601 Y-0.2905 Z6.9044
X9.9625 Y-0.2863 Z6.9043
X9.9646 Y-0.282 Z6.9042
X9.9665 Y-0.2775 Z6.9041
X9.9679 Y-0.2732 Z6.904
X9.9694 Y-0.2677 Z6.9039
Z6.8939 F1.
X9.9679 Y-0.2732 Z6.894 F3.
X9.9665 Y-0.2775 Z6.8941
X9.9646 Y-0.282 Z6.8942
X9.9625 Y-0.2863 Z6.8943
X9.9601 Y-0.2905 Z6.8944
X9.9574 Y-0.2946 Z6.8946
X9.9545 Y-0.2985 Z6.8947
X9.9514 Y-0.3022 Z6.8949
X9.9482 Y-0.3056 Z6.8951
X9.9454 Y-0.3083 Z6.8952
X9.9422 Y-0.3111 Z6.8954
X9.9385 Y-0.3139 Z6.8956
X9.9348 Y-0.3164 Z6.8958
X9.931 Y-0.3188 Z6.896
X9.9265 Y-0.3212 Z6.8962
X9.9217 Y-0.3234 Z6.8965
X9.9169 Y-0.3252 Z6.8968
X9.9119 Y-0.3267 Z6.897
X9.9074 Y-0.3277 Z6.8973
X9.9033 Y-0.3284 Z6.8975
X9.8997 Y-0.3288 Z6.8977
X9.8952 Y-0.3291 Z6.898
X9.8916 Y-0.3292 Z6.8982
X9.8865 Y-0.3289 Z6.8985
X9.8831 Y-0.3286 Z6.8987
X9.8789 Y-0.328 Z6.8989
X9.8746 Y-0.3271 Z6.8992
X9.8706 Y-0.326 Z6.8994
X9.8665 Y-0.3246 Z6.8996
X9.8624 Y-0.3229 Z6.8999
X9.8583 Y-0.3209 Z6.9001
X9.8548 Y-0.319 Z6.9003
X9.8507 Y-0.3165 Z6.9006
X9.8466 Y-0.3135 Z6.9008
X9.8426 Y-0.3102 Z6.901
X9.8388 Y-0.3067 Z6.9013
X9.8353 Y-0.3029 Z6.9015
X9.8319 Y-0.2988 Z6.9017
X9.8289 Y-0.2947 Z6.9018
X9.8261 Y-0.2904 Z6.902
X9.8235 Y-0.2855 Z6.9021
X9.8212 Y-0.2808 Z6.9023
X9.8193 Y-0.276 Z6.9024
X9.8175 Y-0.2709 Z6.9025
X9.8164 Y-0.2666 Z6.9026
X9.8155 Y-0.2625
X9.8148 Y-0.2585
X9.8144 Y-0.2542 Z6.9027
X9.814 Y-0.2479
X9.8141 Y-0.2447
X9.8143 Y-0.2394
X9.8146 Y-0.2364
X9.8152 Y-0.2323 Z6.9026
X9.816 Y-0.2278
X9.8171 Y-0.2236 Z6.9025
X9.8184 Y-0.2193 Z6.9024
X9.8201 Y-0.2149 Z6.9023
X9.8219 Y-0.2106 Z6.9022
X9.8238 Y-0.2069 Z6.9021
X9.8263 Y-0.2024 Z6.902
X9.8292 Y-0.198 Z6.9018
X9.8322 Y-0.1938 Z6.9016
X9.8355 Y-0.1898 Z6.9014
X9.8392 Y-0.1859 Z6.9012
X9.8429 Y-0.1824 Z6.901
X9.8469 Y-0.1791 Z6.9008
X9.8512 Y-0.176 Z6.9005
X9.8556 Y-0.1733 Z6.9003
X9.8602 Y-0.1709 Z6.9
X9.8649 Y-0.1688 Z6.8997
X9.8698 Y-0.167 Z6.8995
X9.874 Y-0.1657 Z6.8992
X9.878 Y-0.1648 Z6.899
X9.8818 Y-0.1641 Z6.8988
X9.8858 Y-0.1636 Z6.8985
X9.8913 Y-0.1633 Z6.8982
X9.8942 Y-0.1632 Z6.898
X9.8992 Y-0.1634 Z6.8978
X9.9024 Y-0.1637 Z6.8976
X9.9067 Y-0.1643 Z6.8973
X9.9112 Y-0.1653 Z6.8971
X9.9152 Y-0.1664 Z6.8969
X9.9191 Y-0.1677 Z6.8966
X9.9232 Y-0.1693 Z6.8964
X9.9272 Y-0.1712 Z6.8962
X9.9309 Y-0.1732 Z6.896
X9.935 Y-0.1757 Z6.8958
X9.9392 Y-0.1786 Z6.8955
X9.9432 Y-0.1819 Z6.8953
X9.947 Y-0.1854 Z6.8951
X9.9506 Y-0.1892 Z6.8949
X9.9539 Y-0.1932 Z6.8947
X9.957 Y-0.1974 Z6.8946
X9.9599 Y-0.2019 Z6.8944
X9.9625 Y-0.2065 Z6.8943
X9.9648 Y-0.2112 Z6.8942
X9.9668 Y-0.2159 Z6.8941
X9.9686 Y-0.2212 Z6.894
X9.9698 Y-0.2258 Z6.8939
X9.9707 Y-0.2298 Z6.8938
X9.9714 Y-0.2336
X9.9719 Y-0.2376
X9.9722 Y-0.2431
Y-0.2468
X9.9719 Y-0.2538
X9.9715 Y-0.2582
X9.9709 Y-0.2617
X9.9699 Y-0.2661 Z6.8939
X9.9696 Y-0.2673
Z6.8839 F1.
X9.9699 Y-0.2661 F3.
X9.9709 Y-0.2617 Z6.8838
X9.9715 Y-0.2582
X9.9719 Y-0.2538
X9.9722 Y-0.2468
Y-0.2431
X9.9719 Y-0.2376
X9.9714 Y-0.2336
X9.9707 Y-0.2298
X9.9698 Y-0.2258 Z6.8839
X9.9686 Y-0.2212 Z6.884
X9.9668 Y-0.2159 Z6.8841
X9.9648 Y-0.2112 Z6.8842
X9.9625 Y-0.2065 Z6.8843
X9.9599 Y-0.2019 Z6.8844
X9.957 Y-0.1974 Z6.8846
X9.9539 Y-0.1932 Z6.8847
X9.9506 Y-0.1892 Z6.8849
X9.947 Y-0.1854 Z6.8851
X9.9432 Y-0.1819 Z6.8853
X9.9392 Y-0.1786 Z6.8855
X9.935 Y-0.1757 Z6.8858
X9.9309 Y-0.1732 Z6.886
X9.9272 Y-0.1712 Z6.8862
X9.9232 Y-0.1693 Z6.8864
X9.9191 Y-0.1677 Z6.8866
X9.9152 Y-0.1664 Z6.8869
X9.9112 Y-0.1653 Z6.8871
X9.9067 Y-0.1643 Z6.8873
X9.9024 Y-0.1637 Z6.8876
X9.8992 Y-0.1634 Z6.8878
X9.8942 Y-0.1632 Z6.888
X9.8913 Y-0.1633 Z6.8882
X9.8858 Y-0.1636 Z6.8885
X9.8818 Y-0.1641 Z6.8888
X9.878 Y-0.1648 Z6.889
X9.874 Y-0.1657 Z6.8892
X9.8698 Y-0.167 Z6.8895
X9.8649 Y-0.1688 Z6.8897
X9.8602 Y-0.1709 Z6.89
X9.8556 Y-0.1733 Z6.8903
X9.8512 Y-0.176 Z6.8905
X9.8469 Y-0.1791 Z6.8908
X9.8429 Y-0.1824 Z6.891
X9.8392 Y-0.1859 Z6.8912
X9.8355 Y-0.1898 Z6.8914
X9.8322 Y-0.1938 Z6.8916
X9.8292 Y-0.198 Z6.8918
X9.8263 Y-0.2024 Z6.892
X9.8238 Y-0.2069 Z6.8921
X9.8219 Y-0.2106 Z6.8922
X9.8201 Y-0.2149 Z6.8923
X9.8184 Y-0.2193 Z6.8924
X9.8171 Y-0.2236 Z6.8925
X9.816 Y-0.2278 Z6.8926
X9.8152 Y-0.2323
X9.8146 Y-0.2364 Z6.8927
X9.8143 Y-0.2394
X9.8141 Y-0.2447
X9.814 Y-0.2479
X9.8144 Y-0.2542
X9.8148 Y-0.2585 Z6.8926
X9.8155 Y-0.2625
X9.8164 Y-0.2666
X9.8175 Y-0.2709 Z6.8925
X9.8193 Y-0.276 Z6.8924
X9.8212 Y-0.2808 Z6.8923
X9.8235 Y-0.2855 Z6.8921
X9.8261 Y-0.2904 Z6.892
X9.8289 Y-0.2947 Z6.8918
X9.8319 Y-0.2988 Z6.8917
X9.8353 Y-0.3029 Z6.8915
X9.8388 Y-0.3067 Z6.8913
X9.8426 Y-0.3102 Z6.891
X9.8466 Y-0.3135 Z6.8908
X9.8507 Y-0.3165 Z6.8906
X9.8548 Y-0.319 Z6.8903
X9.8583 Y-0.3209 Z6.8901
X9.8624 Y-0.3229 Z6.8899
X9.8665 Y-0.3246 Z6.8896
X9.8706 Y-0.326 Z6.8894
X9.8746 Y-0.3271 Z6.8892
X9.8789 Y-0.328 Z6.8889
X9.8831 Y-0.3286 Z6.8887
X9.8865 Y-0.3289 Z6.8885
X9.8916 Y-0.3292 Z6.8882
X9.8952 Y-0.3291 Z6.888
X9.8997 Y-0.3288 Z6.8877
X9.9033 Y-0.3284 Z6.8875
X9.9074 Y-0.3277 Z6.8873
X9.9119 Y-0.3267 Z6.887
X9.9169 Y-0.3252 Z6.8868
X9.9217 Y-0.3234 Z6.8865
X9.9265 Y-0.3212 Z6.8862
X9.931 Y-0.3188 Z6.886
X9.9348 Y-0.3164 Z6.8858
X9.9385 Y-0.3139 Z6.8856
X9.9422 Y-0.3111 Z6.8854
X9.9454 Y-0.3083 Z6.8852
X9.9482 Y-0.3056 Z6.8851
X9.9514 Y-0.3022 Z6.8849
X9.9545 Y-0.2985 Z6.8847
X9.9574 Y-0.2946 Z6.8846
X9.9601 Y-0.2905 Z6.8844
X9.9625 Y-0.2863 Z6.8843
X9.9646 Y-0.282 Z6.8842
X9.9665 Y-0.2775 Z6.8841
X9.9679 Y-0.2732 Z6.884
X9.9694 Y-0.2677 Z6.8839
Z6.8739 F1.
X9.9679 Y-0.2732 Z6.874 F3.
X9.9665 Y-0.2775 Z6.8741
X9.9646 Y-0.282 Z6.8742
X9.9625 Y-0.2863 Z6.8743
X9.9601 Y-0.2905 Z6.8744
X9.9574 Y-0.2946 Z6.8746
X9.9545 Y-0.2985 Z6.8747
X9.9514 Y-0.3022 Z6.8749
X9.9482 Y-0.3056 Z6.8751
X9.9454 Y-0.3083 Z6.8752
X9.9422 Y-0.3111 Z6.8754
X9.9385 Y-0.3139 Z6.8756
X9.9348 Y-0.3164 Z6.8758
X9.931 Y-0.3188 Z6.876
X9.9265 Y-0.3212 Z6.8762
X9.9217 Y-0.3234 Z6.8765
X9.9169 Y-0.3252 Z6.8768
X9.9119 Y-0.3267 Z6.877
X9.9074 Y-0.3277 Z6.8773
X9.9033 Y-0.3284 Z6.8775
X9.8997 Y-0.3288 Z6.8777
X9.8952 Y-0.3291 Z6.878
X9.8916 Y-0.3292 Z6.8782
X9.8865 Y-0.3289 Z6.8785
X9.8831 Y-0.3286 Z6.8787
X9.8789 Y-0.328 Z6.8789
X9.8746 Y-0.3271 Z6.8792
X9.8706 Y-0.326 Z6.8794
X9.8665 Y-0.3246 Z6.8796
X9.8624 Y-0.3229 Z6.8799
X9.8583 Y-0.3209 Z6.8801
X9.8548 Y-0.319 Z6.8803
X9.8507 Y-0.3165 Z6.8806
X9.8466 Y-0.3135 Z6.8808
X9.8426 Y-0.3102 Z6.881
X9.8388 Y-0.3067 Z6.8813
X9.8353 Y-0.3029 Z6.8815
X9.8319 Y-0.2988 Z6.8817
X9.8289 Y-0.2947 Z6.8818
X9.8261 Y-0.2904 Z6.882
X9.8235 Y-0.2855 Z6.8821
X9.8212 Y-0.2808 Z6.8823
X9.8193 Y-0.276 Z6.8824
X9.8175 Y-0.2709 Z6.8825
X9.8164 Y-0.2666 Z6.8826
X9.8155 Y-0.2625
X9.8148 Y-0.2585
X9.8144 Y-0.2542 Z6.8827
X9.814 Y-0.2479
X9.8141 Y-0.2447
X9.8143 Y-0.2394
X9.8146 Y-0.2364
X9.8152 Y-0.2323 Z6.8826
X9.816 Y-0.2278
X9.8171 Y-0.2236 Z6.8825
X9.8184 Y-0.2193 Z6.8824
X9.8201 Y-0.2149 Z6.8823
X9.8219 Y-0.2106 Z6.8822
X9.8238 Y-0.2069 Z6.8821
X9.8263 Y-0.2024 Z6.882
X9.8292 Y-0.198 Z6.8818
X9.8322 Y-0.1938 Z6.8816
X9.8355 Y-0.1898 Z6.8814
X9.8392 Y-0.1859 Z6.8812
X9.8429 Y-0.1824 Z6.881
X9.8469 Y-0.1791 Z6.8808
X9.8512 Y-0.176 Z6.8805
X9.8556 Y-0.1733 Z6.8803
X9.8602 Y-0.1709 Z6.88
X9.8649 Y-0.1688 Z6.8797
X9.8698 Y-0.167 Z6.8795
X9.874 Y-0.1657 Z6.8792
X9.878 Y-0.1648 Z6.879
X9.8818 Y-0.1641 Z6.8788
X9.8858 Y-0.1636 Z6.8785
X9.8913 Y-0.1633 Z6.8782
X9.8942 Y-0.1632 Z6.878
X9.8992 Y-0.1634 Z6.8778
X9.9024 Y-0.1637 Z6.8776
X9.9067 Y-0.1643 Z6.8773
X9.9112 Y-0.1653 Z6.8771
X9.9152 Y-0.1664 Z6.8769
X9.9191 Y-0.1677 Z6.8766
X9.9232 Y-0.1693 Z6.8764
X9.9272 Y-0.1712 Z6.8762
X9.9309 Y-0.1732 Z6.876
X9.935 Y-0.1757 Z6.8758
X9.9392 Y-0.1786 Z6.8755
X9.9432 Y-0.1819 Z6.8753
X9.947 Y-0.1854 Z6.8751
X9.9506 Y-0.1892 Z6.8749
X9.9539 Y-0.1932 Z6.8747
X9.957 Y-0.1974 Z6.8746
X9.9599 Y-0.2019 Z6.8744
X9.9625 Y-0.2065 Z6.8743
X9.9648 Y-0.2112 Z6.8742
X9.9668 Y-0.2159 Z6.8741
X9.9686 Y-0.2212 Z6.874
X9.9698 Y-0.2258 Z6.8739
X9.9707 Y-0.2298 Z6.8738
X9.9714 Y-0.2336
X9.9719 Y-0.2376
X9.9722 Y-0.2431
Y-0.2468
X9.9719 Y-0.2538
X9.9715 Y-0.2582
X9.9709 Y-0.2617
X9.9699 Y-0.2661 Z6.8739
X9.9696 Y-0.2673
Z6.9039
X9.9666 Y-0.2781 Z6.9041
X9.9642 Y-0.2864 Z6.9042
X9.9612 Y-0.2956 Z6.9044
X9.958 Y-0.3045 Z6.9045
X9.9548 Y-0.3127 Z6.9047
X9.9513 Y-0.3211 Z6.9049
X9.9474 Y-0.3298 Z6.9051
X9.9434 Y-0.3382 Z6.9053
X9.939 Y-0.3469 Z6.9056
X9.934 Y-0.3558 Z6.9058
X9.9289 Y-0.3644 Z6.9061
X9.9236 Y-0.3728 Z6.9064
X9.9181 Y-0.381 Z6.9067
X9.9122 Y-0.3891 Z6.907
X9.9062 Y-0.3969 Z6.9074
X9.8999 Y-0.4045 Z6.9077
X9.893 Y-0.4123 Z6.9081
X9.8871 Y-0.4185 Z6.9085
X9.8817 Y-0.4238 Z6.9088
X9.8759 Y-0.4294 Z6.9091
X9.8672 Y-0.4371 Z6.9096
X9.8658 Y-0.4383 Z6.9097
Z6.8997 F1.
X9.8672 Y-0.4371 Z6.8996 F3.
X9.8759 Y-0.4294 Z6.8991
X9.8817 Y-0.4238 Z6.8988
X9.8871 Y-0.4185 Z6.8985
X9.893 Y-0.4123 Z6.8981
X9.8999 Y-0.4045 Z6.8977
X9.9062 Y-0.3969 Z6.8974
X9.9122 Y-0.3891 Z6.897
X9.9181 Y-0.381 Z6.8967
X9.9236 Y-0.3728 Z6.8964
X9.9289 Y-0.3644 Z6.8961
X9.934 Y-0.3558 Z6.8958
X9.939 Y-0.3469 Z6.8956
X9.9434 Y-0.3382 Z6.8953
X9.9474 Y-0.3298 Z6.8951
X9.9513 Y-0.3211 Z6.8949
X9.9548 Y-0.3127 Z6.8947
X9.958 Y-0.3045 Z6.8945
X9.9612 Y-0.2956 Z6.8944
X9.9642 Y-0.2864 Z6.8942
X9.9666 Y-0.2781 Z6.8941
X9.9696 Y-0.2673 Z6.8939
Z6.8839 F1.
X9.9666 Y-0.2781 Z6.8841 F3.
X9.9642 Y-0.2864 Z6.8842
X9.9612 Y-0.2956 Z6.8844
X9.958 Y-0.3045 Z6.8845
X9.9548 Y-0.3127 Z6.8847
X9.9513 Y-0.3211 Z6.8849
X9.9474 Y-0.3298 Z6.8851
X9.9434 Y-0.3382 Z6.8853
X9.939 Y-0.3469 Z6.8856
X9.934 Y-0.3558 Z6.8858
X9.9289 Y-0.3644 Z6.8861
X9.9236 Y-0.3728 Z6.8864
X9.9181 Y-0.381 Z6.8867
X9.9122 Y-0.3891 Z6.887
X9.9062 Y-0.3969 Z6.8874
X9.8999 Y-0.4045 Z6.8877
X9.893 Y-0.4123 Z6.8881
X9.8871 Y-0.4185 Z6.8885
X9.8817 Y-0.4238 Z6.8888
X9.8759 Y-0.4294 Z6.8891
X9.8672 Y-0.4371 Z6.8896
X9.8658 Y-0.4383 Z6.8897
Z6.8797 F1.
X9.8672 Y-0.4371 Z6.8796 F3.
X9.8759 Y-0.4294 Z6.8791
X9.8817 Y-0.4238 Z6.8788
X9.8871 Y-0.4185 Z6.8785
X9.893 Y-0.4123 Z6.8781
X9.8999 Y-0.4045 Z6.8777
X9.9062 Y-0.3969 Z6.8774
X9.9122 Y-0.3891 Z6.877
X9.9181 Y-0.381 Z6.8767
X9.9236 Y-0.3728 Z6.8764
X9.9289 Y-0.3644 Z6.8761
X9.934 Y-0.3558 Z6.8758
X9.939 Y-0.3469 Z6.8756
X9.9434 Y-0.3382 Z6.8753
X9.9474 Y-0.3298 Z6.8751
X9.9513 Y-0.3211 Z6.8749
X9.9548 Y-0.3127 Z6.8747
X9.958 Y-0.3045 Z6.8745
X9.9612 Y-0.2956 Z6.8744
X9.9642 Y-0.2864 Z6.8742
X9.9666 Y-0.2781 Z6.8741
X9.9696 Y-0.2673 Z6.8739
G0 Z7.6059

M5
M9
G53 G0 Z0.
G53 G0 X0. Y0.
G49
G69
G0 A0. C0.
M30
