O0057 (EMTSERIALSUB-77777)

(PROGRAM CREATED FOR MAZAK VARIAXIS-I700 5-AXIS MILL ONLY)

(PROVEN BY: )
(PROVEN ON: )

(QC ACCEPTED BY: )
(QC ACCEPTED ON: )

(T50 D=0.125 CR=0. TAPER=30DEG - CHAMFER MILL)

G90 G94 G17 G49
G20
G53 G0 Z0.

(SERIAL ENGRAVE TIT)
T50 M6
S18000 M3
G90 G94 G17
G54.1 P2
G68.2 X0. Y0. Z0. I107.642 J90. K180.
G53.1 P2
M8
G0 X11.2019 Y-0.165
G43 Z7.6059 H50
G0 Z6.9385
G1 Z6.8631 F1.
Y-0.1687 F3.
X11.2016 Y-0.1791
X11.2012 Y-0.1863
X11.2005 Y-0.1953
X11.1995 Y-0.2043
X11.1984 Y-0.2125
X11.1969 Y-0.2209
X11.1951 Y-0.23 Z6.8632
X11.1932 Y-0.2382
X11.191 Y-0.2463
X11.1885 Y-0.2548
X11.1857 Y-0.2629 Z6.8633
X11.1827 Y-0.2709
X11.1795 Y-0.2787 Z6.8634
X11.1762 Y-0.2862
X11.1723 Y-0.2942 Z6.8635
X11.1681 Y-0.3024
X11.1637 Y-0.3102 Z6.8636
X11.1589 Y-0.3181
X11.1536 Y-0.3262 Z6.8637
X11.1485 Y-0.3334 Z6.8638
X11.1427 Y-0.3412 Z6.8639
X11.1368 Y-0.3485 Z6.864
X11.1295 Y-0.357 Z6.8641
X11.1239 Y-0.3638
X11.1204 Y-0.3683 Z6.8642
X11.1173 Y-0.3729
X11.1142 Y-0.3778 Z6.8643
X11.1112 Y-0.3828
X11.1086 Y-0.3879
X11.1062 Y-0.3929 Z6.8644
X11.104 Y-0.3981
X11.102 Y-0.4033
X11.1002 Y-0.4088 Z6.8645
X11.0986 Y-0.4144
X11.0972 Y-0.4201
X11.0962 Y-0.4255
X11.0955 Y-0.4301
X11.0945 Y-0.4383 Z6.8646
X11.1889 Z6.8632
X11.2486 Z6.8626
Z6.8526 F1.
X11.1889 Z6.8532 F3.
X11.0945 Z6.8546
X11.0955 Y-0.4301 Z6.8545
X11.0962 Y-0.4255
X11.0972 Y-0.4201
X11.0986 Y-0.4144
X11.1002 Y-0.4088
X11.102 Y-0.4033 Z6.8544
X11.104 Y-0.3981
X11.1062 Y-0.3929
X11.1086 Y-0.3879 Z6.8543
X11.1112 Y-0.3828
X11.1142 Y-0.3778
X11.1173 Y-0.3729 Z6.8542
X11.1204 Y-0.3683
X11.1239 Y-0.3638 Z6.8541
X11.1295 Y-0.357
X11.1368 Y-0.3485 Z6.854
X11.1427 Y-0.3412 Z6.8539
X11.1485 Y-0.3334 Z6.8538
X11.1536 Y-0.3262 Z6.8537
X11.1589 Y-0.3181 Z6.8536
X11.1637 Y-0.3102
X11.1681 Y-0.3024 Z6.8535
X11.1723 Y-0.2942
X11.1762 Y-0.2862 Z6.8534
X11.1795 Y-0.2787
X11.1827 Y-0.2709 Z6.8533
X11.1857 Y-0.2629
X11.1885 Y-0.2548 Z6.8532
X11.191 Y-0.2463
X11.1932 Y-0.2382
X11.1951 Y-0.23
X11.1969 Y-0.2209 Z6.8531
X11.1984 Y-0.2125
X11.1995 Y-0.2043
X11.2005 Y-0.1953
X11.2012 Y-0.1863
X11.2016 Y-0.1791
X11.2019 Y-0.1687
Y-0.165
Z6.8431 F1.
Y-0.1687 F3.
X11.2016 Y-0.1791
X11.2012 Y-0.1863
X11.2005 Y-0.1953
X11.1995 Y-0.2043
X11.1984 Y-0.2125
X11.1969 Y-0.2209
X11.1951 Y-0.23 Z6.8432
X11.1932 Y-0.2382
X11.191 Y-0.2463
X11.1885 Y-0.2548
X11.1857 Y-0.2629 Z6.8433
X11.1827 Y-0.2709
X11.1795 Y-0.2787 Z6.8434
X11.1762 Y-0.2862
X11.1723 Y-0.2942 Z6.8435
X11.1681 Y-0.3024
X11.1637 Y-0.3102 Z6.8436
X11.1589 Y-0.3181
X11.1536 Y-0.3262 Z6.8437
X11.1485 Y-0.3334 Z6.8438
X11.1427 Y-0.3412 Z6.8439
X11.1368 Y-0.3485 Z6.844
X11.1295 Y-0.357 Z6.8441
X11.1239 Y-0.3638
X11.1204 Y-0.3683 Z6.8442
X11.1173 Y-0.3729
X11.1142 Y-0.3778 Z6.8443
X11.1112 Y-0.3828
X11.1086 Y-0.3879
X11.1062 Y-0.3929 Z6.8444
X11.104 Y-0.3981
X11.102 Y-0.4033
X11.1002 Y-0.4088 Z6.8445
X11.0986 Y-0.4144
X11.0972 Y-0.4201
X11.0962 Y-0.4255
X11.0955 Y-0.4301
X11.0945 Y-0.4383 Z6.8446
X11.1889 Z6.8432
X11.2486 Z6.8426
Z6.8326 F1.
X11.1889 Z6.8332 F3.
X11.0945 Z6.8346
X11.0955 Y-0.4301 Z6.8345
X11.0962 Y-0.4255
X11.0972 Y-0.4201
X11.0986 Y-0.4144
X11.1002 Y-0.4088
X11.102 Y-0.4033 Z6.8344
X11.104 Y-0.3981
X11.1062 Y-0.3929
X11.1086 Y-0.3879 Z6.8343
X11.1112 Y-0.3828
X11.1142 Y-0.3778
X11.1173 Y-0.3729 Z6.8342
X11.1204 Y-0.3683
X11.1239 Y-0.3638 Z6.8341
X11.1295 Y-0.357
X11.1368 Y-0.3485 Z6.834
X11.1427 Y-0.3412 Z6.8339
X11.1485 Y-0.3334 Z6.8338
X11.1536 Y-0.3262 Z6.8337
X11.1589 Y-0.3181 Z6.8336
X11.1637 Y-0.3102
X11.1681 Y-0.3024 Z6.8335
X11.1723 Y-0.2942
X11.1762 Y-0.2862 Z6.8334
X11.1795 Y-0.2787
X11.1827 Y-0.2709 Z6.8333
X11.1857 Y-0.2629
X11.1885 Y-0.2548 Z6.8332
X11.191 Y-0.2463
X11.1932 Y-0.2382
X11.1951 Y-0.23
X11.1969 Y-0.2209 Z6.8331
X11.1984 Y-0.2125
X11.1995 Y-0.2043
X11.2005 Y-0.1953
X11.2012 Y-0.1863
X11.2016 Y-0.1791
X11.2019 Y-0.1687
Y-0.165
G0 Z7.3559
X10.8819
Z6.9446
G1 Z6.8687 F1.
X10.8818 Y-0.1687 F3.
X10.8816 Y-0.1791
X10.8812 Y-0.1863
X10.8805 Y-0.1953
X10.8795 Y-0.2043
X10.8783 Y-0.2125 Z6.8688
X10.8769 Y-0.2209
X10.8751 Y-0.23 Z6.8689
X10.8732 Y-0.2382
X10.871 Y-0.2463 Z6.869
X10.8684 Y-0.2548
X10.8657 Y-0.2629 Z6.8691
X10.8627 Y-0.2709 Z6.8692
X10.8595 Y-0.2787
X10.8561 Y-0.2862 Z6.8693
X10.8523 Y-0.2942 Z6.8694
X10.848 Y-0.3025 Z6.8695
X10.8437 Y-0.3102 Z6.8696
X10.8389 Y-0.3181 Z6.8698
X10.8336 Y-0.3263 Z6.8699
X10.8285 Y-0.3335 Z6.87
X10.8227 Y-0.3412 Z6.8702
X10.8167 Y-0.3485 Z6.8703
X10.8093 Y-0.3571 Z6.8705
X10.8038 Y-0.3638 Z6.8706
X10.8004 Y-0.3684 Z6.8707
X10.7972 Y-0.3729 Z6.8708
X10.7941 Y-0.3779 Z6.8709
X10.7912 Y-0.3829
X10.7885 Y-0.3879 Z6.871
X10.7861 Y-0.393 Z6.8711
X10.7839 Y-0.3982
X10.782 Y-0.4034 Z6.8712
X10.7802 Y-0.4088
X10.7786 Y-0.4144 Z6.8713
X10.7772 Y-0.4202
X10.7761 Y-0.4256
X10.7754 Y-0.4301
X10.7745 Y-0.4383 Z6.8714
X10.8649 Z6.8691
X10.9285 Z6.8677
Z6.8577 F1.
X10.8649 Z6.8591 F3.
X10.7745 Z6.8614
X10.7754 Y-0.4301 Z6.8613
X10.7761 Y-0.4256
X10.7772 Y-0.4202
X10.7786 Y-0.4144
X10.7802 Y-0.4088 Z6.8612
X10.782 Y-0.4034
X10.7839 Y-0.3982 Z6.8611
X10.7861 Y-0.393
X10.7885 Y-0.3879 Z6.861
X10.7912 Y-0.3829 Z6.8609
X10.7941 Y-0.3779
X10.7972 Y-0.3729 Z6.8608
X10.8004 Y-0.3684 Z6.8607
X10.8038 Y-0.3638 Z6.8606
X10.8093 Y-0.3571 Z6.8605
X10.8167 Y-0.3485 Z6.8603
X10.8227 Y-0.3412 Z6.8602
X10.8285 Y-0.3335 Z6.86
X10.8336 Y-0.3263 Z6.8599
X10.8389 Y-0.3181 Z6.8598
X10.8437 Y-0.3102 Z6.8596
X10.848 Y-0.3025 Z6.8595
X10.8523 Y-0.2942 Z6.8594
X10.8561 Y-0.2862 Z6.8593
X10.8595 Y-0.2787 Z6.8592
X10.8627 Y-0.2709
X10.8657 Y-0.2629 Z6.8591
X10.8684 Y-0.2548 Z6.859
X10.871 Y-0.2463
X10.8732 Y-0.2382 Z6.8589
X10.8751 Y-0.23
X10.8769 Y-0.2209 Z6.8588
X10.8783 Y-0.2125
X10.8795 Y-0.2043 Z6.8587
X10.8805 Y-0.1953
X10.8812 Y-0.1863
X10.8816 Y-0.1791
X10.8818 Y-0.1687
X10.8819 Y-0.165
Z6.8487 F1.
X10.8818 Y-0.1687 F3.
X10.8816 Y-0.1791
X10.8812 Y-0.1863
X10.8805 Y-0.1953
X10.8795 Y-0.2043
X10.8783 Y-0.2125 Z6.8488
X10.8769 Y-0.2209
X10.8751 Y-0.23 Z6.8489
X10.8732 Y-0.2382
X10.871 Y-0.2463 Z6.849
X10.8684 Y-0.2548
X10.8657 Y-0.2629 Z6.8491
X10.8627 Y-0.2709 Z6.8492
X10.8595 Y-0.2787
X10.8561 Y-0.2862 Z6.8493
X10.8523 Y-0.2942 Z6.8494
X10.848 Y-0.3025 Z6.8495
X10.8437 Y-0.3102 Z6.8496
X10.8389 Y-0.3181 Z6.8498
X10.8336 Y-0.3263 Z6.8499
X10.8285 Y-0.3335 Z6.85
X10.8227 Y-0.3412 Z6.8502
X10.8167 Y-0.3485 Z6.8503
X10.8093 Y-0.3571 Z6.8505
X10.8038 Y-0.3638 Z6.8506
X10.8004 Y-0.3684 Z6.8507
X10.7972 Y-0.3729 Z6.8508
X10.7941 Y-0.3779 Z6.8509
X10.7912 Y-0.3829
X10.7885 Y-0.3879 Z6.851
X10.7861 Y-0.393 Z6.8511
X10.7839 Y-0.3982
X10.782 Y-0.4034 Z6.8512
X10.7802 Y-0.4088
X10.7786 Y-0.4144 Z6.8513
X10.7772 Y-0.4202
X10.7761 Y-0.4256
X10.7754 Y-0.4301
X10.7745 Y-0.4383 Z6.8514
X10.8649 Z6.8491
X10.9285 Z6.8477
Z6.8377 F1.
X10.8649 Z6.8391 F3.
X10.7745 Z6.8414
X10.7754 Y-0.4301 Z6.8413
X10.7761 Y-0.4256
X10.7772 Y-0.4202
X10.7786 Y-0.4144
X10.7802 Y-0.4088 Z6.8412
X10.782 Y-0.4034
X10.7839 Y-0.3982 Z6.8411
X10.7861 Y-0.393
X10.7885 Y-0.3879 Z6.841
X10.7912 Y-0.3829 Z6.8409
X10.7941 Y-0.3779
X10.7972 Y-0.3729 Z6.8408
X10.8004 Y-0.3684 Z6.8407
X10.8038 Y-0.3638 Z6.8406
X10.8093 Y-0.3571 Z6.8405
X10.8167 Y-0.3485 Z6.8403
X10.8227 Y-0.3412 Z6.8402
X10.8285 Y-0.3335 Z6.84
X10.8336 Y-0.3263 Z6.8399
X10.8389 Y-0.3181 Z6.8398
X10.8437 Y-0.3102 Z6.8396
X10.848 Y-0.3025 Z6.8395
X10.8523 Y-0.2942 Z6.8394
X10.8561 Y-0.2862 Z6.8393
X10.8595 Y-0.2787 Z6.8392
X10.8627 Y-0.2709
X10.8657 Y-0.2629 Z6.8391
X10.8684 Y-0.2548 Z6.839
X10.871 Y-0.2463
X10.8732 Y-0.2382 Z6.8389
X10.8751 Y-0.23
X10.8769 Y-0.2209 Z6.8388
X10.8783 Y-0.2125
X10.8795 Y-0.2043 Z6.8387
X10.8805 Y-0.1953
X10.8812 Y-0.1863
X10.8816 Y-0.1791
X10.8818 Y-0.1687
X10.8819 Y-0.165
G0 Z7.3559
X10.5618
Z6.9541
G1 Z6.8778 F1.
Y-0.1687 F3.
X10.5615 Y-0.1791
X10.5611 Y-0.1863
X10.5604 Y-0.1953 Z6.8779
X10.5594 Y-0.2043
X10.5583 Y-0.2125
X10.5569 Y-0.2209 Z6.878
X10.5551 Y-0.23
X10.5531 Y-0.2382 Z6.8781
X10.5509 Y-0.2463 Z6.8782
X10.5484 Y-0.2548 Z6.8783
X10.5456 Y-0.2629 Z6.8784
X10.5426 Y-0.2709 Z6.8785
X10.5394 Y-0.2787 Z6.8786
X10.5361 Y-0.2863 Z6.8787
X10.5323 Y-0.2942 Z6.8789
X10.528 Y-0.3025 Z6.879
X10.5236 Y-0.3102 Z6.8792
X10.5188 Y-0.3181 Z6.8793
X10.5135 Y-0.3263 Z6.8795
X10.5084 Y-0.3335 Z6.8797
X10.5026 Y-0.3412 Z6.8799
X10.4967 Y-0.3486 Z6.8801
X10.4892 Y-0.3573 Z6.8804
X10.4838 Y-0.3638 Z6.8806
X10.4803 Y-0.3684 Z6.8807
X10.4772 Y-0.373 Z6.8808
X10.4741 Y-0.3779 Z6.8809
X10.4711 Y-0.3829 Z6.881
X10.4685 Y-0.3879 Z6.8811
X10.4661 Y-0.393 Z6.8812
X10.4639 Y-0.3982 Z6.8813
X10.4619 Y-0.4035 Z6.8814
X10.4601 Y-0.4088
X10.4585 Y-0.4144 Z6.8815
X10.4571 Y-0.4202
X10.4561 Y-0.4256 Z6.8816
X10.4554 Y-0.4302
X10.4544 Y-0.4383
X10.5405 Z6.8786
X10.6085 Z6.8763
Z6.8663 F1.
X10.5405 Z6.8686 F3.
X10.4544 Z6.8716
X10.4554 Y-0.4302
X10.4561 Y-0.4256
X10.4571 Y-0.4202 Z6.8715
X10.4585 Y-0.4144
X10.4601 Y-0.4088 Z6.8714
X10.4619 Y-0.4035
X10.4639 Y-0.3982 Z6.8713
X10.4661 Y-0.393 Z6.8712
X10.4685 Y-0.3879 Z6.8711
X10.4711 Y-0.3829 Z6.871
X10.4741 Y-0.3779 Z6.8709
X10.4772 Y-0.373 Z6.8708
X10.4803 Y-0.3684 Z6.8707
X10.4838 Y-0.3638 Z6.8706
X10.4892 Y-0.3573 Z6.8704
X10.4967 Y-0.3486 Z6.8701
X10.5026 Y-0.3412 Z6.8699
X10.5084 Y-0.3335 Z6.8697
X10.5135 Y-0.3263 Z6.8695
X10.5188 Y-0.3181 Z6.8693
X10.5236 Y-0.3102 Z6.8692
X10.528 Y-0.3025 Z6.869
X10.5323 Y-0.2942 Z6.8689
X10.5361 Y-0.2863 Z6.8687
X10.5394 Y-0.2787 Z6.8686
X10.5426 Y-0.2709 Z6.8685
X10.5456 Y-0.2629 Z6.8684
X10.5484 Y-0.2548 Z6.8683
X10.5509 Y-0.2463 Z6.8682
X10.5531 Y-0.2382 Z6.8681
X10.5551 Y-0.23 Z6.868
X10.5569 Y-0.2209
X10.5583 Y-0.2125 Z6.8679
X10.5594 Y-0.2043
X10.5604 Y-0.1953
X10.5611 Y-0.1863 Z6.8678
X10.5615 Y-0.1791
X10.5618 Y-0.1687
Y-0.165
Z6.8578 F1.
Y-0.1687 F3.
X10.5615 Y-0.1791
X10.5611 Y-0.1863
X10.5604 Y-0.1953 Z6.8579
X10.5594 Y-0.2043
X10.5583 Y-0.2125
X10.5569 Y-0.2209 Z6.858
X10.5551 Y-0.23
X10.5531 Y-0.2382 Z6.8581
X10.5509 Y-0.2463 Z6.8582
X10.5484 Y-0.2548 Z6.8583
X10.5456 Y-0.2629 Z6.8584
X10.5426 Y-0.2709 Z6.8585
X10.5394 Y-0.2787 Z6.8586
X10.5361 Y-0.2863 Z6.8587
X10.5323 Y-0.2942 Z6.8589
X10.528 Y-0.3025 Z6.859
X10.5236 Y-0.3102 Z6.8592
X10.5188 Y-0.3181 Z6.8593
X10.5135 Y-0.3263 Z6.8595
X10.5084 Y-0.3335 Z6.8597
X10.5026 Y-0.3412 Z6.8599
X10.4967 Y-0.3486 Z6.8601
X10.4892 Y-0.3573 Z6.8604
X10.4838 Y-0.3638 Z6.8606
X10.4803 Y-0.3684 Z6.8607
X10.4772 Y-0.373 Z6.8608
X10.4741 Y-0.3779 Z6.8609
X10.4711 Y-0.3829 Z6.861
X10.4685 Y-0.3879 Z6.8611
X10.4661 Y-0.393 Z6.8612
X10.4639 Y-0.3982 Z6.8613
X10.4619 Y-0.4035 Z6.8614
X10.4601 Y-0.4088
X10.4585 Y-0.4144 Z6.8615
X10.4571 Y-0.4202
X10.4561 Y-0.4256 Z6.8616
X10.4554 Y-0.4302
X10.4544 Y-0.4383
X10.5405 Z6.8586
X10.6085 Z6.8563
Z6.8463 F1.
X10.5405 Z6.8486 F3.
X10.4544 Z6.8516
X10.4554 Y-0.4302
X10.4561 Y-0.4256
X10.4571 Y-0.4202 Z6.8515
X10.4585 Y-0.4144
X10.4601 Y-0.4088 Z6.8514
X10.4619 Y-0.4035
X10.4639 Y-0.3982 Z6.8513
X10.4661 Y-0.393 Z6.8512
X10.4685 Y-0.3879 Z6.8511
X10.4711 Y-0.3829 Z6.851
X10.4741 Y-0.3779 Z6.8509
X10.4772 Y-0.373 Z6.8508
X10.4803 Y-0.3684 Z6.8507
X10.4838 Y-0.3638 Z6.8506
X10.4892 Y-0.3573 Z6.8504
X10.4967 Y-0.3486 Z6.8501
X10.5026 Y-0.3412 Z6.8499
X10.5084 Y-0.3335 Z6.8497
X10.5135 Y-0.3263 Z6.8495
X10.5188 Y-0.3181 Z6.8493
X10.5236 Y-0.3102 Z6.8492
X10.528 Y-0.3025 Z6.849
X10.5323 Y-0.2942 Z6.8489
X10.5361 Y-0.2863 Z6.8487
X10.5394 Y-0.2787 Z6.8486
X10.5426 Y-0.2709 Z6.8485
X10.5456 Y-0.2629 Z6.8484
X10.5484 Y-0.2548 Z6.8483
X10.5509 Y-0.2463 Z6.8482
X10.5531 Y-0.2382 Z6.8481
X10.5551 Y-0.23 Z6.848
X10.5569 Y-0.2209
X10.5583 Y-0.2125 Z6.8479
X10.5594 Y-0.2043
X10.5604 Y-0.1953
X10.5611 Y-0.1863 Z6.8478
X10.5615 Y-0.1791
X10.5618 Y-0.1687
Y-0.165
G0 Z7.3559
X10.2418
Z6.9671
G1 Z6.8904 F1.
X10.2417 Y-0.1687 F3.
X10.2415 Y-0.1791
X10.2411 Y-0.1864
X10.2404 Y-0.1953 Z6.8905
X10.2394 Y-0.2043
X10.2383 Y-0.2125 Z6.8906
X10.2368 Y-0.2209
X10.235 Y-0.23 Z6.8907
X10.2331 Y-0.2382 Z6.8908
X10.2309 Y-0.2463 Z6.8909
X10.2283 Y-0.2548 Z6.891
X10.2256 Y-0.263 Z6.8911
X10.2226 Y-0.2709 Z6.8913
X10.2194 Y-0.2787 Z6.8914
X10.216 Y-0.2863 Z6.8916
X10.2122 Y-0.2942 Z6.8918
X10.208 Y-0.3025 Z6.892
X10.2036 Y-0.3102 Z6.8922
X10.1988 Y-0.3181 Z6.8924
X10.1935 Y-0.3263 Z6.8926
X10.1884 Y-0.3335 Z6.8929
X10.1826 Y-0.3412 Z6.8932
X10.1766 Y-0.3486 Z6.8934
X10.169 Y-0.3574 Z6.8938
X10.1637 Y-0.3639 Z6.894
X10.1602 Y-0.3685 Z6.8942
X10.1571 Y-0.373 Z6.8944
X10.154 Y-0.3779 Z6.8945
X10.151 Y-0.383 Z6.8946
X10.1484 Y-0.388 Z6.8948
X10.146 Y-0.393 Z6.8949
X10.1438 Y-0.3982 Z6.895
X10.1419 Y-0.4035 Z6.8951
X10.1401 Y-0.4089 Z6.8952
X10.1385 Y-0.4145
X10.1371 Y-0.4202 Z6.8953
X10.136 Y-0.4257
X10.1354 Y-0.4302 Z6.8954
X10.1344 Y-0.4383
X10.2161 Z6.8916
X10.2885 Z6.8884
Z6.8784 F1.
X10.2161 Z6.8816 F3.
X10.1344 Z6.8854
X10.1354 Y-0.4302
X10.136 Y-0.4257 Z6.8853
X10.1371 Y-0.4202
X10.1385 Y-0.4145 Z6.8852
X10.1401 Y-0.4089
X10.1419 Y-0.4035 Z6.8851
X10.1438 Y-0.3982 Z6.885
X10.146 Y-0.393 Z6.8849
X10.1484 Y-0.388 Z6.8848
X10.151 Y-0.383 Z6.8846
X10.154 Y-0.3779 Z6.8845
X10.1571 Y-0.373 Z6.8844
X10.1602 Y-0.3685 Z6.8842
X10.1637 Y-0.3639 Z6.884
X10.169 Y-0.3574 Z6.8838
X10.1766 Y-0.3486 Z6.8834
X10.1826 Y-0.3412 Z6.8832
X10.1884 Y-0.3335 Z6.8829
X10.1935 Y-0.3263 Z6.8826
X10.1988 Y-0.3181 Z6.8824
X10.2036 Y-0.3102 Z6.8822
X10.208 Y-0.3025 Z6.882
X10.2122 Y-0.2942 Z6.8818
X10.216 Y-0.2863 Z6.8816
X10.2194 Y-0.2787 Z6.8814
X10.2226 Y-0.2709 Z6.8813
X10.2256 Y-0.263 Z6.8811
X10.2283 Y-0.2548 Z6.881
X10.2309 Y-0.2463 Z6.8809
X10.2331 Y-0.2382 Z6.8808
X10.235 Y-0.23 Z6.8807
X10.2368 Y-0.2209 Z6.8806
X10.2383 Y-0.2125
X10.2394 Y-0.2043 Z6.8805
X10.2404 Y-0.1953
X10.2411 Y-0.1864 Z6.8804
X10.2415 Y-0.1791
X10.2417 Y-0.1687
X10.2418 Y-0.165
Z6.8704 F1.
X10.2417 Y-0.1687 F3.
X10.2415 Y-0.1791
X10.2411 Y-0.1864
X10.2404 Y-0.1953 Z6.8705
X10.2394 Y-0.2043
X10.2383 Y-0.2125 Z6.8706
X10.2368 Y-0.2209
X10.235 Y-0.23 Z6.8707
X10.2331 Y-0.2382 Z6.8708
X10.2309 Y-0.2463 Z6.8709
X10.2283 Y-0.2548 Z6.871
X10.2256 Y-0.263 Z6.8711
X10.2226 Y-0.2709 Z6.8713
X10.2194 Y-0.2787 Z6.8714
X10.216 Y-0.2863 Z6.8716
X10.2122 Y-0.2942 Z6.8718
X10.208 Y-0.3025 Z6.872
X10.2036 Y-0.3102 Z6.8722
X10.1988 Y-0.3181 Z6.8724
X10.1935 Y-0.3263 Z6.8726
X10.1884 Y-0.3335 Z6.8729
X10.1826 Y-0.3412 Z6.8732
X10.1766 Y-0.3486 Z6.8734
X10.169 Y-0.3574 Z6.8738
X10.1637 Y-0.3639 Z6.874
X10.1602 Y-0.3685 Z6.8742
X10.1571 Y-0.373 Z6.8744
X10.154 Y-0.3779 Z6.8745
X10.151 Y-0.383 Z6.8746
X10.1484 Y-0.388 Z6.8748
X10.146 Y-0.393 Z6.8749
X10.1438 Y-0.3982 Z6.875
X10.1419 Y-0.4035 Z6.8751
X10.1401 Y-0.4089 Z6.8752
X10.1385 Y-0.4145
X10.1371 Y-0.4202 Z6.8753
X10.136 Y-0.4257
X10.1354 Y-0.4302 Z6.8754
X10.1344 Y-0.4383
X10.2161 Z6.8716
X10.2885 Z6.8684
Z6.8584 F1.
X10.2161 Z6.8616 F3.
X10.1344 Z6.8654
X10.1354 Y-0.4302
X10.136 Y-0.4257 Z6.8653
X10.1371 Y-0.4202
X10.1385 Y-0.4145 Z6.8652
X10.1401 Y-0.4089
X10.1419 Y-0.4035 Z6.8651
X10.1438 Y-0.3982 Z6.865
X10.146 Y-0.393 Z6.8649
X10.1484 Y-0.388 Z6.8648
X10.151 Y-0.383 Z6.8646
X10.154 Y-0.3779 Z6.8645
X10.1571 Y-0.373 Z6.8644
X10.1602 Y-0.3685 Z6.8642
X10.1637 Y-0.3639 Z6.864
X10.169 Y-0.3574 Z6.8638
X10.1766 Y-0.3486 Z6.8634
X10.1826 Y-0.3412 Z6.8632
X10.1884 Y-0.3335 Z6.8629
X10.1935 Y-0.3263 Z6.8626
X10.1988 Y-0.3181 Z6.8624
X10.2036 Y-0.3102 Z6.8622
X10.208 Y-0.3025 Z6.862
X10.2122 Y-0.2942 Z6.8618
X10.216 Y-0.2863 Z6.8616
X10.2194 Y-0.2787 Z6.8614
X10.2226 Y-0.2709 Z6.8613
X10.2256 Y-0.263 Z6.8611
X10.2283 Y-0.2548 Z6.861
X10.2309 Y-0.2463 Z6.8609
X10.2331 Y-0.2382 Z6.8608
X10.235 Y-0.23 Z6.8607
X10.2368 Y-0.2209 Z6.8606
X10.2383 Y-0.2125
X10.2394 Y-0.2043 Z6.8605
X10.2404 Y-0.1953
X10.2411 Y-0.1864 Z6.8604
X10.2415 Y-0.1791
X10.2417 Y-0.1687
X10.2418 Y-0.165
G0 Z7.3559
X9.9218
Z6.9835
G1 Z6.9065 F1.
X9.9217 Y-0.1687 F3.
X9.9214 Y-0.1791
X9.921 Y-0.1864
X9.9203 Y-0.1953 Z6.9066
X9.9194 Y-0.2043
X9.9182 Y-0.2125 Z6.9067
X9.9168 Y-0.221 Z6.9068
X9.915 Y-0.2301 Z6.9069
X9.913 Y-0.2383 Z6.907
X9.9109 Y-0.2463 Z6.9071
X9.9083 Y-0.2548 Z6.9072
X9.9055 Y-0.263 Z6.9074
X9.9026 Y-0.2709 Z6.9076
X9.8994 Y-0.2788 Z6.9077
X9.896 Y-0.2863 Z6.9079
X9.8922 Y-0.2942 Z6.9082
X9.8879 Y-0.3025 Z6.9084
X9.8835 Y-0.3102 Z6.9087
X9.8787 Y-0.3181 Z6.9089
X9.8734 Y-0.3263 Z6.9092
X9.8683 Y-0.3335 Z6.9095
X9.8625 Y-0.3412 Z6.9099
X9.8565 Y-0.3487 Z6.9102
X9.8489 Y-0.3575 Z6.9107
X9.8436 Y-0.3639 Z6.911
X9.8402 Y-0.3685 Z6.9112
X9.837 Y-0.373 Z6.9114
X9.8339 Y-0.3779 Z6.9115
X9.831 Y-0.383 Z6.9117
X9.8284 Y-0.388 Z6.9119
X9.826 Y-0.3931 Z6.912
X9.8238 Y-0.3982 Z6.9121
X9.8218 Y-0.4035 Z6.9122
X9.82 Y-0.4089 Z6.9123
X9.8184 Y-0.4145 Z6.9124
X9.8171 Y-0.4202 Z6.9125
X9.816 Y-0.4257 Z6.9126
X9.8153 Y-0.4303
X9.8144 Y-0.4383 Z6.9127
X9.8916 Z6.9082
X9.9684 Z6.904
Z6.894 F1.
X9.8916 Z6.8982 F3.
X9.8144 Z6.9027
X9.8153 Y-0.4303 Z6.9026
X9.816 Y-0.4257
X9.8171 Y-0.4202 Z6.9025
X9.8184 Y-0.4145 Z6.9024
X9.82 Y-0.4089 Z6.9023
X9.8218 Y-0.4035 Z6.9022
X9.8238 Y-0.3982 Z6.9021
X9.826 Y-0.3931 Z6.902
X9.8284 Y-0.388 Z6.9019
X9.831 Y-0.383 Z6.9017
X9.8339 Y-0.3779 Z6.9015
X9.837 Y-0.373 Z6.9014
X9.8402 Y-0.3685 Z6.9012
X9.8436 Y-0.3639 Z6.901
X9.8489 Y-0.3575 Z6.9007
X9.8565 Y-0.3487 Z6.9002
X9.8625 Y-0.3412 Z6.8999
X9.8683 Y-0.3335 Z6.8995
X9.8734 Y-0.3263 Z6.8992
X9.8787 Y-0.3181 Z6.8989
X9.8835 Y-0.3102 Z6.8987
X9.8879 Y-0.3025 Z6.8984
X9.8922 Y-0.2942 Z6.8982
X9.896 Y-0.2863 Z6.8979
X9.8994 Y-0.2788 Z6.8977
X9.9026 Y-0.2709 Z6.8976
X9.9055 Y-0.263 Z6.8974
X9.9083 Y-0.2548 Z6.8972
X9.9109 Y-0.2463 Z6.8971
X9.913 Y-0.2383 Z6.897
X9.915 Y-0.2301 Z6.8969
X9.9168 Y-0.221 Z6.8968
X9.9182 Y-0.2125 Z6.8967
X9.9194 Y-0.2043 Z6.8966
X9.9203 Y-0.1953
X9.921 Y-0.1864 Z6.8965
X9.9214 Y-0.1791
X9.9217 Y-0.1687
X9.9218 Y-0.165
Z6.8865 F1.
X9.9217 Y-0.1687 F3.
X9.9214 Y-0.1791
X9.921 Y-0.1864
X9.9203 Y-0.1953 Z6.8866
X9.9194 Y-0.2043
X9.9182 Y-0.2125 Z6.8867
X9.9168 Y-0.221 Z6.8868
X9.915 Y-0.2301 Z6.8869
X9.913 Y-0.2383 Z6.887
X9.9109 Y-0.2463 Z6.8871
X9.9083 Y-0.2548 Z6.8872
X9.9055 Y-0.263 Z6.8874
X9.9026 Y-0.2709 Z6.8876
X9.8994 Y-0.2788 Z6.8877
X9.896 Y-0.2863 Z6.8879
X9.8922 Y-0.2942 Z6.8882
X9.8879 Y-0.3025 Z6.8884
X9.8835 Y-0.3102 Z6.8887
X9.8787 Y-0.3181 Z6.8889
X9.8734 Y-0.3263 Z6.8892
X9.8683 Y-0.3335 Z6.8895
X9.8625 Y-0.3412 Z6.8899
X9.8565 Y-0.3487 Z6.8902
X9.8489 Y-0.3575 Z6.8907
X9.8436 Y-0.3639 Z6.891
X9.8402 Y-0.3685 Z6.8912
X9.837 Y-0.373 Z6.8914
X9.8339 Y-0.3779 Z6.8915
X9.831 Y-0.383 Z6.8917
X9.8284 Y-0.388 Z6.8919
X9.826 Y-0.3931 Z6.892
X9.8238 Y-0.3982 Z6.8921
X9.8218 Y-0.4035 Z6.8922
X9.82 Y-0.4089 Z6.8923
X9.8184 Y-0.4145 Z6.8924
X9.8171 Y-0.4202 Z6.8925
X9.816 Y-0.4257 Z6.8926
X9.8153 Y-0.4303
X9.8144 Y-0.4383 Z6.8927
X9.8916 Z6.8882
X9.9684 Z6.884
Z6.874 F1.
X9.8916 Z6.8782 F3.
X9.8144 Z6.8827
X9.8153 Y-0.4303 Z6.8826
X9.816 Y-0.4257
X9.8171 Y-0.4202 Z6.8825
X9.8184 Y-0.4145 Z6.8824
X9.82 Y-0.4089 Z6.8823
X9.8218 Y-0.4035 Z6.8822
X9.8238 Y-0.3982 Z6.8821
X9.826 Y-0.3931 Z6.882
X9.8284 Y-0.388 Z6.8819
X9.831 Y-0.383 Z6.8817
X9.8339 Y-0.3779 Z6.8815
X9.837 Y-0.373 Z6.8814
X9.8402 Y-0.3685 Z6.8812
X9.8436 Y-0.3639 Z6.881
X9.8489 Y-0.3575 Z6.8807
X9.8565 Y-0.3487 Z6.8802
X9.8625 Y-0.3412 Z6.8799
X9.8683 Y-0.3335 Z6.8795
X9.8734 Y-0.3263 Z6.8792
X9.8787 Y-0.3181 Z6.8789
X9.8835 Y-0.3102 Z6.8787
X9.8879 Y-0.3025 Z6.8784
X9.8922 Y-0.2942 Z6.8782
X9.896 Y-0.2863 Z6.8779
X9.8994 Y-0.2788 Z6.8777
X9.9026 Y-0.2709 Z6.8776
X9.9055 Y-0.263 Z6.8774
X9.9083 Y-0.2548 Z6.8772
X9.9109 Y-0.2463 Z6.8771
X9.913 Y-0.2383 Z6.877
X9.915 Y-0.2301 Z6.8769
X9.9168 Y-0.221 Z6.8768
X9.9182 Y-0.2125 Z6.8767
X9.9194 Y-0.2043 Z6.8766
X9.9203 Y-0.1953
X9.921 Y-0.1864 Z6.8765
X9.9214 Y-0.1791
X9.9217 Y-0.1687
X9.9218 Y-0.165
G0 Z7.6059

M5
M9
G53 G0 Z0.
G53 G0 X0. Y0.
G49
G69
G0 A0. C0.
M30
