O0058 (EMTSERIALSUB-88888)

(PROGRAM CREATED FOR MAZAK VARIAXIS-I700 5-AXIS MILL ONLY)

(PROVEN BY: )
(PROVEN ON: )

(QC ACCEPTED BY: )
(QC ACCEPTED ON: )

(T50 D=0.125 CR=0. TAPER=30DEG - CHAMFER MILL)

G90 G94 G17 G49
G20
G53 G0 Z0.

(SERIAL ENGRAVE TIT)
T50 M6
S18000 M3
G90 G94 G17
G54.1 P2
G68.2 X0. Y0. Z0. I107.642 J90. K180.
G53.1 P2
M8
G0 X11.2094 Y-0.3406
G43 Z7.6059 H50
G0 Z6.9384
G1 Z6.863 F1.
X11.1309 Y-0.293 Z6.864 F3.
X11.1257 Y-0.2899 Z6.8641
X11.123 Y-0.2881
X11.1206 Y-0.2863 Z6.8642
X11.1178 Y-0.2839
X11.1149 Y-0.2812 Z6.8643
X11.1123 Y-0.2785
X11.1097 Y-0.2755
X11.1071 Y-0.2722 Z6.8644
X11.1047 Y-0.2686
X11.1024 Y-0.2648
X11.1006 Y-0.2611 Z6.8645
X11.099 Y-0.2574
X11.0976 Y-0.2534
X11.0965 Y-0.2495
X11.0956 Y-0.2456
X11.0949 Y-0.2413 Z6.8646
X11.0942 Y-0.2344
X11.0946 Y-0.229
X11.0952 Y-0.2253 Z6.8645
X11.096 Y-0.2211
X11.0971 Y-0.217
X11.0983 Y-0.2133
X11.0999 Y-0.2094
X11.1019 Y-0.2053 Z6.8644
X11.1038 Y-0.2019
X11.1058 Y-0.1986
X11.1085 Y-0.1949 Z6.8643
X11.1115 Y-0.1912
X11.1148 Y-0.1876
X11.1183 Y-0.1843 Z6.8642
X11.122 Y-0.1813
X11.126 Y-0.1786 Z6.8641
X11.13 Y-0.1761 Z6.864
X11.1343 Y-0.1738
X11.1386 Y-0.1717 Z6.8639
X11.1429 Y-0.17
X11.1474 Y-0.1686 Z6.8638
X11.1521 Y-0.1673 Z6.8637
X11.1569 Y-0.1664
X11.1612 Y-0.1657 Z6.8636
X11.1653 Y-0.1653
X11.1712 Y-0.165 Z6.8635
X11.1747 Z6.8634
X11.1797 Y-0.1653
X11.1841 Y-0.1657 Z6.8633
X11.1891 Y-0.1664 Z6.8632
X11.1941 Y-0.1674
X11.1991 Y-0.1688 Z6.8631
X11.204 Y-0.1704 Z6.863
X11.2086 Y-0.1723
X11.2131 Y-0.1745 Z6.8629
X11.2174 Y-0.1769
X11.2212 Y-0.1792 Z6.8628
X11.225 Y-0.1819
X11.2287 Y-0.1849
X11.2322 Y-0.1882 Z6.8627
X11.2352 Y-0.1914
X11.2379 Y-0.1947
X11.2404 Y-0.1981 Z6.8626
X11.2426 Y-0.2015
X11.2447 Y-0.2051
X11.2465 Y-0.2087
X11.248 Y-0.2123
X11.2494 Y-0.2164 Z6.8625
X11.2507 Y-0.2211
X11.2515 Y-0.2246
X11.252 Y-0.2278
X11.2526 Y-0.2333
Y-0.2346
X11.2519 Y-0.242
X11.2511 Y-0.2465
X11.2501 Y-0.2505
X11.2489 Y-0.2544 Z6.8626
X11.2477 Y-0.2577
X11.246 Y-0.2615
X11.244 Y-0.2655
X11.2416 Y-0.2693
X11.2391 Y-0.273 Z6.8627
X11.2363 Y-0.2765
X11.2332 Y-0.2799
X11.23 Y-0.283
X11.2266 Y-0.2859 Z6.8628
X11.2229 Y-0.2886
X11.2177 Y-0.2919 Z6.8629
X11.1375 Y-0.3406 Z6.8639
X11.1331 Y-0.3428 Z6.864
X11.131 Y-0.3442
X11.129 Y-0.3455 Z6.8641
X11.1267 Y-0.3473
X11.1245 Y-0.3495
X11.1223 Y-0.3518 Z6.8642
X11.1202 Y-0.3544
X11.1181 Y-0.3572
X11.1162 Y-0.3602
X11.1145 Y-0.3633 Z6.8643
X11.113 Y-0.3666
X11.1116 Y-0.37
X11.1105 Y-0.3734
X11.1096 Y-0.3769
X11.1089 Y-0.3806
X11.1082 Y-0.3864
Y-0.3874
X11.1089 Y-0.3925
X11.1094 Y-0.3957
X11.1103 Y-0.3991
X11.1114 Y-0.4027
X11.1127 Y-0.4062
X11.1143 Y-0.4097
X11.116 Y-0.4129 Z6.8642
X11.1179 Y-0.4159
X11.1202 Y-0.419
X11.1229 Y-0.4221 Z6.8641
X11.1256 Y-0.4249
X11.1284 Y-0.4274
X11.1316 Y-0.4298 Z6.864
X11.1347 Y-0.4319
X11.1386 Y-0.4341 Z6.8639
X11.1428 Y-0.436
X11.1473 Y-0.4377 Z6.8638
X11.1516 Y-0.4391 Z6.8637
X11.156 Y-0.4402
X11.1606 Y-0.441 Z6.8636
X11.165 Y-0.4415
X11.1703 Y-0.4418 Z6.8635
X11.1743 Z6.8634
X11.1792 Y-0.4416
X11.1835 Y-0.4413 Z6.8633
X11.1883 Y-0.4405 Z6.8632
X11.193 Y-0.4395
X11.1978 Y-0.4382 Z6.8631
X11.2024 Y-0.4365
X11.2061 Y-0.435 Z6.863
X11.2096 Y-0.4332
X11.213 Y-0.4312 Z6.8629
X11.2161 Y-0.4291
X11.219 Y-0.4269
X11.222 Y-0.4243 Z6.8628
X11.2248 Y-0.4215
X11.2272 Y-0.4187
X11.2295 Y-0.4156 Z6.8627
X11.2317 Y-0.4121
X11.2335 Y-0.4087
X11.2351 Y-0.4051
X11.2362 Y-0.4019
X11.2371 Y-0.3985
X11.2377 Y-0.3954
X11.2381 Y-0.3925
X11.2383 Y-0.388
Y-0.3855
X11.2379 Y-0.3808
X11.2374 Y-0.3774
X11.2367 Y-0.3742
X11.2357 Y-0.371
X11.2345 Y-0.368
X11.2331 Y-0.3648
X11.2315 Y-0.3618
X11.2298 Y-0.359
X11.2278 Y-0.3562 Z6.8628
X11.2255 Y-0.3533
X11.223 Y-0.3505
X11.2205 Y-0.3481
X11.2179 Y-0.346 Z6.8629
X11.2152 Y-0.344
X11.2116 Y-0.3419
X11.2094 Y-0.3406 Z6.863
G0 Z7.3559
X11.2093
Z6.9384
G1 Z6.853 F1.
X11.1309 Y-0.293 Z6.854 F3.
X11.1257 Y-0.2899 Z6.8541
X11.123 Y-0.2881
X11.1206 Y-0.2863 Z6.8542
X11.1178 Y-0.2839
X11.1149 Y-0.2812 Z6.8543
X11.1123 Y-0.2785
X11.1097 Y-0.2755
X11.1071 Y-0.2722 Z6.8544
X11.1047 Y-0.2686
X11.1024 Y-0.2648
X11.1006 Y-0.2611 Z6.8545
X11.099 Y-0.2574
X11.0976 Y-0.2534
X11.0965 Y-0.2495
X11.0956 Y-0.2456
X11.0949 Y-0.2413 Z6.8546
X11.0942 Y-0.2344
X11.0946 Y-0.229
X11.0952 Y-0.2253 Z6.8545
X11.096 Y-0.2211
X11.0971 Y-0.217
X11.0983 Y-0.2133
X11.0999 Y-0.2094
X11.1019 Y-0.2053 Z6.8544
X11.1038 Y-0.2019
X11.1058 Y-0.1986
X11.1085 Y-0.1949 Z6.8543
X11.1115 Y-0.1912
X11.1148 Y-0.1876
X11.1183 Y-0.1843 Z6.8542
X11.122 Y-0.1813
X11.126 Y-0.1786 Z6.8541
X11.13 Y-0.1761 Z6.854
X11.1343 Y-0.1738
X11.1386 Y-0.1717 Z6.8539
X11.1429 Y-0.17
X11.1474 Y-0.1686 Z6.8538
X11.1521 Y-0.1673 Z6.8537
X11.1569 Y-0.1664
X11.1612 Y-0.1657 Z6.8536
X11.1653 Y-0.1653
X11.1712 Y-0.165 Z6.8535
X11.1747 Z6.8534
X11.1797 Y-0.1653
X11.1841 Y-0.1657 Z6.8533
X11.1891 Y-0.1664 Z6.8532
X11.1941 Y-0.1674
X11.1991 Y-0.1688 Z6.8531
X11.204 Y-0.1704 Z6.853
X11.2086 Y-0.1723
X11.2131 Y-0.1745 Z6.8529
X11.2174 Y-0.1769
X11.2212 Y-0.1792 Z6.8528
X11.225 Y-0.1819
X11.2287 Y-0.1849
X11.2322 Y-0.1882 Z6.8527
X11.2352 Y-0.1914
X11.2379 Y-0.1947
X11.2404 Y-0.1981 Z6.8526
X11.2426 Y-0.2015
X11.2447 Y-0.2051
X11.2465 Y-0.2087
X11.248 Y-0.2123
X11.2494 Y-0.2164 Z6.8525
X11.2507 Y-0.2211
X11.2515 Y-0.2246
X11.252 Y-0.2278
X11.2526 Y-0.2333
Y-0.2346
X11.2519 Y-0.242
X11.2511 Y-0.2465
X11.2501 Y-0.2505
X11.2489 Y-0.2544 Z6.8526
X11.2477 Y-0.2577
X11.246 Y-0.2615
X11.244 Y-0.2655
X11.2416 Y-0.2693
X11.2391 Y-0.273 Z6.8527
X11.2363 Y-0.2765
X11.2332 Y-0.2799
X11.23 Y-0.283
X11.2266 Y-0.2859 Z6.8528
X11.2229 Y-0.2886
X11.2177 Y-0.2919 Z6.8529
X11.1375 Y-0.3406 Z6.8539
X11.1331 Y-0.3428 Z6.854
X11.131 Y-0.3442
X11.129 Y-0.3455 Z6.8541
X11.1267 Y-0.3473
X11.1245 Y-0.3495
X11.1223 Y-0.3518 Z6.8542
X11.1202 Y-0.3544
X11.1181 Y-0.3572
X11.1162 Y-0.3602
X11.1145 Y-0.3633 Z6.8543
X11.113 Y-0.3666
X11.1116 Y-0.37
X11.1105 Y-0.3734
X11.1096 Y-0.3769
X11.1089 Y-0.3806
X11.1082 Y-0.3864
Y-0.3874
X11.1089 Y-0.3925
X11.1094 Y-0.3957
X11.1103 Y-0.3991
X11.1114 Y-0.4027
X11.1127 Y-0.4062
X11.1143 Y-0.4097
X11.116 Y-0.4129 Z6.8542
X11.1179 Y-0.4159
X11.1202 Y-0.419
X11.1229 Y-0.4221 Z6.8541
X11.1256 Y-0.4249
X11.1284 Y-0.4274
X11.1316 Y-0.4298 Z6.854
X11.1347 Y-0.4319
X11.1386 Y-0.4341 Z6.8539
X11.1428 Y-0.436
X11.1473 Y-0.4377 Z6.8538
X11.1516 Y-0.4391 Z6.8537
X11.156 Y-0.4402
X11.1606 Y-0.441 Z6.8536
X11.165 Y-0.4415
X11.1703 Y-0.4418 Z6.8535
X11.1743 Z6.8534
X11.1792 Y-0.4416
X11.1835 Y-0.4413 Z6.8533
X11.1883 Y-0.4405 Z6.8532
X11.193 Y-0.4395
X11.1978 Y-0.4382 Z6.8531
X11.2024 Y-0.4365
X11.2061 Y-0.435 Z6.853
X11.2096 Y-0.4332
X11.213 Y-0.4312 Z6.8529
X11.2161 Y-0.4291
X11.219 Y-0.4269
X11.222 Y-0.4243 Z6.8528
X11.2248 Y-0.4215
X11.2272 Y-0.4187
X11.2295 Y-0.4156 Z6.8527
X11.2317 Y-0.4121
X11.2335 Y-0.4087
X11.2351 Y-0.4051
X11.2362 Y-0.4019
X11.2371 Y-0.3985
X11.2377 Y-0.3954
X11.2381 Y-0.3925
X11.2383 Y-0.388
Y-0.3855
X11.2379 Y-0.3808
X11.2374 Y-0.3774
X11.2367 Y-0.3742
X11.2357 Y-0.371
X11.2345 Y-0.368
X11.2331 Y-0.3648
X11.2315 Y-0.3618
X11.2298 Y-0.359
X11.2278 Y-0.3562 Z6.8528
X11.2255 Y-0.3533
X11.223 Y-0.3505
X11.2205 Y-0.3481
X11.2179 Y-0.346 Z6.8529
X11.2152 Y-0.344
X11.2116 Y-0.3419
X11.2094 Y-0.3406 Z6.853
X11.2093
G0 Z7.3559
X11.2092 Y-0.3405
Z6.9384
G1 Z6.843 F1.
X11.1309 Y-0.293 Z6.844 F3.
X11.1257 Y-0.2899 Z6.8441
X11.123 Y-0.2881
X11.1206 Y-0.2863 Z6.8442
X11.1178 Y-0.2839
X11.1149 Y-0.2812 Z6.8443
X11.1123 Y-0.2785
X11.1097 Y-0.2755
X11.1071 Y-0.2722 Z6.8444
X11.1047 Y-0.2686
X11.1024 Y-0.2648
X11.1006 Y-0.2611 Z6.8445
X11.099 Y-0.2574
X11.0976 Y-0.2534
X11.0965 Y-0.2495
X11.0956 Y-0.2456
X11.0949 Y-0.2413 Z6.8446
X11.0942 Y-0.2344
X11.0946 Y-0.229
X11.0952 Y-0.2253 Z6.8445
X11.096 Y-0.2211
X11.0971 Y-0.217
X11.0983 Y-0.2133
X11.0999 Y-0.2094
X11.1019 Y-0.2053 Z6.8444
X11.1038 Y-0.2019
X11.1058 Y-0.1986
X11.1085 Y-0.1949 Z6.8443
X11.1115 Y-0.1912
X11.1148 Y-0.1876
X11.1183 Y-0.1843 Z6.8442
X11.122 Y-0.1813
X11.126 Y-0.1786 Z6.8441
X11.13 Y-0.1761 Z6.844
X11.1343 Y-0.1738
X11.1386 Y-0.1717 Z6.8439
X11.1429 Y-0.17
X11.1474 Y-0.1686 Z6.8438
X11.1521 Y-0.1673 Z6.8437
X11.1569 Y-0.1664
X11.1612 Y-0.1657 Z6.8436
X11.1653 Y-0.1653
X11.1712 Y-0.165 Z6.8435
X11.1747 Z6.8434
X11.1797 Y-0.1653
X11.1841 Y-0.1657 Z6.8433
X11.1891 Y-0.1664 Z6.8432
X11.1941 Y-0.1674
X11.1991 Y-0.1688 Z6.8431
X11.204 Y-0.1704 Z6.843
X11.2086 Y-0.1723
X11.2131 Y-0.1745 Z6.8429
X11.2174 Y-0.1769
X11.2212 Y-0.1792 Z6.8428
X11.225 Y-0.1819
X11.2287 Y-0.1849
X11.2322 Y-0.1882 Z6.8427
X11.2352 Y-0.1914
X11.2379 Y-0.1947
X11.2404 Y-0.1981 Z6.8426
X11.2426 Y-0.2015
X11.2447 Y-0.2051
X11.2465 Y-0.2087
X11.248 Y-0.2123
X11.2494 Y-0.2164 Z6.8425
X11.2507 Y-0.2211
X11.2515 Y-0.2246
X11.252 Y-0.2278
X11.2526 Y-0.2333
Y-0.2346
X11.2519 Y-0.242
X11.2511 Y-0.2465
X11.2501 Y-0.2505
X11.2489 Y-0.2544 Z6.8426
X11.2477 Y-0.2577
X11.246 Y-0.2615
X11.244 Y-0.2655
X11.2416 Y-0.2693
X11.2391 Y-0.273 Z6.8427
X11.2363 Y-0.2765
X11.2332 Y-0.2799
X11.23 Y-0.283
X11.2266 Y-0.2859 Z6.8428
X11.2229 Y-0.2886
X11.2177 Y-0.2919 Z6.8429
X11.1375 Y-0.3406 Z6.8439
X11.1331 Y-0.3428 Z6.844
X11.131 Y-0.3442
X11.129 Y-0.3455 Z6.8441
X11.1267 Y-0.3473
X11.1245 Y-0.3495
X11.1223 Y-0.3518 Z6.8442
X11.1202 Y-0.3544
X11.1181 Y-0.3572
X11.1162 Y-0.3602
X11.1145 Y-0.3633 Z6.8443
X11.113 Y-0.3666
X11.1116 Y-0.37
X11.1105 Y-0.3734
X11.1096 Y-0.3769
X11.1089 Y-0.3806
X11.1082 Y-0.3864
Y-0.3874
X11.1089 Y-0.3925
X11.1094 Y-0.3957
X11.1103 Y-0.3991
X11.1114 Y-0.4027
X11.1127 Y-0.4062
X11.1143 Y-0.4097
X11.116 Y-0.4129 Z6.8442
X11.1179 Y-0.4159
X11.1202 Y-0.419
X11.1229 Y-0.4221 Z6.8441
X11.1256 Y-0.4249
X11.1284 Y-0.4274
X11.1316 Y-0.4298 Z6.844
X11.1347 Y-0.4319
X11.1386 Y-0.4341 Z6.8439
X11.1428 Y-0.436
X11.1473 Y-0.4377 Z6.8438
X11.1516 Y-0.4391 Z6.8437
X11.156 Y-0.4402
X11.1606 Y-0.441 Z6.8436
X11.165 Y-0.4415
X11.1703 Y-0.4418 Z6.8435
X11.1743 Z6.8434
X11.1792 Y-0.4416
X11.1835 Y-0.4413 Z6.8433
X11.1883 Y-0.4405 Z6.8432
X11.193 Y-0.4395
X11.1978 Y-0.4382 Z6.8431
X11.2024 Y-0.4365
X11.2061 Y-0.435 Z6.843
X11.2096 Y-0.4332
X11.213 Y-0.4312 Z6.8429
X11.2161 Y-0.4291
X11.219 Y-0.4269
X11.222 Y-0.4243 Z6.8428
X11.2248 Y-0.4215
X11.2272 Y-0.4187
X11.2295 Y-0.4156 Z6.8427
X11.2317 Y-0.4121
X11.2335 Y-0.4087
X11.2351 Y-0.4051
X11.2362 Y-0.4019
X11.2371 Y-0.3985
X11.2377 Y-0.3954
X11.2381 Y-0.3925
X11.2383 Y-0.388
Y-0.3855
X11.2379 Y-0.3808
X11.2374 Y-0.3774
X11.2367 Y-0.3742
X11.2357 Y-0.371
X11.2345 Y-0.368
X11.2331 Y-0.3648
X11.2315 Y-0.3618
X11.2298 Y-0.359
X11.2278 Y-0.3562 Z6.8428
X11.2255 Y-0.3533
X11.223 Y-0.3505
X11.2205 Y-0.3481
X11.2179 Y-0.346 Z6.8429
X11.2152 Y-0.344
X11.2116 Y-0.3419
X11.2094 Y-0.3406 Z6.843
X11.2092 Y-0.3405
G0 Z7.3559
X11.2091
Z6.9384
G1 Z6.833 F1.
X11.1309 Y-0.293 Z6.834 F3.
X11.1257 Y-0.2899 Z6.8341
X11.123 Y-0.2881
X11.1206 Y-0.2863 Z6.8342
X11.1178 Y-0.2839
X11.1149 Y-0.2812 Z6.8343
X11.1123 Y-0.2785
X11.1097 Y-0.2755
X11.1071 Y-0.2722 Z6.8344
X11.1047 Y-0.2686
X11.1024 Y-0.2648
X11.1006 Y-0.2611 Z6.8345
X11.099 Y-0.2574
X11.0976 Y-0.2534
X11.0965 Y-0.2495
X11.0956 Y-0.2456
X11.0949 Y-0.2413 Z6.8346
X11.0942 Y-0.2344
X11.0946 Y-0.229
X11.0952 Y-0.2253 Z6.8345
X11.096 Y-0.2211
X11.0971 Y-0.217
X11.0983 Y-0.2133
X11.0999 Y-0.2094
X11.1019 Y-0.2053 Z6.8344
X11.1038 Y-0.2019
X11.1058 Y-0.1986
X11.1085 Y-0.1949 Z6.8343
X11.1115 Y-0.1912
X11.1148 Y-0.1876
X11.1183 Y-0.1843 Z6.8342
X11.122 Y-0.1813
X11.126 Y-0.1786 Z6.8341
X11.13 Y-0.1761 Z6.834
X11.1343 Y-0.1738
X11.1386 Y-0.1717 Z6.8339
X11.1429 Y-0.17
X11.1474 Y-0.1686 Z6.8338
X11.1521 Y-0.1673 Z6.8337
X11.1569 Y-0.1664
X11.1612 Y-0.1657 Z6.8336
X11.1653 Y-0.1653
X11.1712 Y-0.165 Z6.8335
X11.1747 Z6.8334
X11.1797 Y-0.1653
X11.1841 Y-0.1657 Z6.8333
X11.1891 Y-0.1664 Z6.8332
X11.1941 Y-0.1674
X11.1991 Y-0.1688 Z6.8331
X11.204 Y-0.1704 Z6.833
X11.2086 Y-0.1723
X11.2131 Y-0.1745 Z6.8329
X11.2174 Y-0.1769
X11.2212 Y-0.1792 Z6.8328
X11.225 Y-0.1819
X11.2287 Y-0.1849
X11.2322 Y-0.1882 Z6.8327
X11.2352 Y-0.1914
X11.2379 Y-0.1947
X11.2404 Y-0.1981 Z6.8326
X11.2426 Y-0.2015
X11.2447 Y-0.2051
X11.2465 Y-0.2087
X11.248 Y-0.2123
X11.2494 Y-0.2164 Z6.8325
X11.2507 Y-0.2211
X11.2515 Y-0.2246
X11.252 Y-0.2278
X11.2526 Y-0.2333
Y-0.2346
X11.2519 Y-0.242
X11.2511 Y-0.2465
X11.2501 Y-0.2505
X11.2489 Y-0.2544 Z6.8326
X11.2477 Y-0.2577
X11.246 Y-0.2615
X11.244 Y-0.2655
X11.2416 Y-0.2693
X11.2391 Y-0.273 Z6.8327
X11.2363 Y-0.2765
X11.2332 Y-0.2799
X11.23 Y-0.283
X11.2266 Y-0.2859 Z6.8328
X11.2229 Y-0.2886
X11.2177 Y-0.2919 Z6.8329
X11.1375 Y-0.3406 Z6.8339
X11.1331 Y-0.3428 Z6.834
X11.131 Y-0.3442
X11.129 Y-0.3455 Z6.8341
X11.1267 Y-0.3473
X11.1245 Y-0.3495
X11.1223 Y-0.3518 Z6.8342
X11.1202 Y-0.3544
X11.1181 Y-0.3572
X11.1162 Y-0.3602
X11.1145 Y-0.3633 Z6.8343
X11.113 Y-0.3666
X11.1116 Y-0.37
X11.1105 Y-0.3734
X11.1096 Y-0.3769
X11.1089 Y-0.3806
X11.1082 Y-0.3864
Y-0.3874
X11.1089 Y-0.3925
X11.1094 Y-0.3957
X11.1103 Y-0.3991
X11.1114 Y-0.4027
X11.1127 Y-0.4062
X11.1143 Y-0.4097
X11.116 Y-0.4129 Z6.8342
X11.1179 Y-0.4159
X11.1202 Y-0.419
X11.1229 Y-0.4221 Z6.8341
X11.1256 Y-0.4249
X11.1284 Y-0.4274
X11.1316 Y-0.4298 Z6.834
X11.1347 Y-0.4319
X11.1386 Y-0.4341 Z6.8339
X11.1428 Y-0.436
X11.1473 Y-0.4377 Z6.8338
X11.1516 Y-0.4391 Z6.8337
X11.156 Y-0.4402
X11.1606 Y-0.441 Z6.8336
X11.165 Y-0.4415
X11.1703 Y-0.4418 Z6.8335
X11.1743 Z6.8334
X11.1792 Y-0.4416
X11.1835 Y-0.4413 Z6.8333
X11.1883 Y-0.4405 Z6.8332
X11.193 Y-0.4395
X11.1978 Y-0.4382 Z6.8331
X11.2024 Y-0.4365
X11.2061 Y-0.435 Z6.833
X11.2096 Y-0.4332
X11.213 Y-0.4312 Z6.8329
X11.2161 Y-0.4291
X11.219 Y-0.4269
X11.222 Y-0.4243 Z6.8328
X11.2248 Y-0.4215
X11.2272 Y-0.4187
X11.2295 Y-0.4156 Z6.8327
X11.2317 Y-0.4121
X11.2335 Y-0.4087
X11.2351 Y-0.4051
X11.2362 Y-0.4019
X11.2371 Y-0.3985
X11.2377 Y-0.3954
X11.2381 Y-0.3925
X11.2383 Y-0.388
Y-0.3855
X11.2379 Y-0.3808
X11.2374 Y-0.3774
X11.2367 Y-0.3742
X11.2357 Y-0.371
X11.2345 Y-0.368
X11.2331 Y-0.3648
X11.2315 Y-0.3618
X11.2298 Y-0.359
X11.2278 Y-0.3562 Z6.8328
X11.2255 Y-0.3533
X11.223 Y-0.3505
X11.2205 Y-0.3481
X11.2179 Y-0.346 Z6.8329
X11.2152 Y-0.344
X11.2116 Y-0.3419
X11.2094 Y-0.3406 Z6.833
X11.2091 Y-0.3405
G0 Z7.3559
X10.929 Y-0.2538
Z6.9434
G1 Z6.8677 F1.
X10.9289 Y-0.2544 F3.
X10.9276 Y-0.2577
X10.926 Y-0.2615
X10.9239 Y-0.2655 Z6.8678
X10.9216 Y-0.2693
X10.9191 Y-0.273 Z6.8679
X10.9163 Y-0.2765 Z6.868
X10.9132 Y-0.2799
X10.9099 Y-0.283 Z6.8681
X10.9065 Y-0.2859 Z6.8682
X10.9029 Y-0.2886
X10.8977 Y-0.2919 Z6.8683
X10.8174 Y-0.3406 Z6.8703
X10.8132 Y-0.3428 Z6.8704
X10.811 Y-0.3441
X10.809 Y-0.3455 Z6.8705
X10.8067 Y-0.3473 Z6.8706
X10.8045 Y-0.3494
X10.8023 Y-0.3517 Z6.8707
X10.8002 Y-0.3543
X10.7981 Y-0.3571 Z6.8708
X10.7962 Y-0.3601
X10.7945 Y-0.3633 Z6.8709
X10.7929 Y-0.3665
X10.7916 Y-0.3699
X10.7905 Y-0.3734 Z6.871
X10.7896 Y-0.3768
X10.7889 Y-0.3805
X10.7882 Y-0.3863
Y-0.3874
X10.7888 Y-0.3924
X10.7894 Y-0.3956
X10.7902 Y-0.3991
X10.7913 Y-0.4026 Z6.8709
X10.7927 Y-0.4062
X10.7943 Y-0.4097
X10.796 Y-0.4129 Z6.8708
X10.7979 Y-0.4159
X10.8001 Y-0.419 Z6.8707
X10.8028 Y-0.4221
X10.8056 Y-0.4249 Z6.8706
X10.8084 Y-0.4274 Z6.8705
X10.8115 Y-0.4298 Z6.8704
X10.8147 Y-0.4319
X10.8185 Y-0.434 Z6.8703
X10.8227 Y-0.436 Z6.8702
X10.8273 Y-0.4377 Z6.87
X10.8315 Y-0.4391 Z6.8699
X10.836 Y-0.4402 Z6.8698
X10.8406 Y-0.441 Z6.8697
X10.845 Y-0.4415 Z6.8696
X10.8502 Y-0.4418 Z6.8695
X10.8542 Z6.8694
X10.8591 Y-0.4416 Z6.8693
X10.8635 Y-0.4413 Z6.8691
X10.8683 Y-0.4405 Z6.869
X10.873 Y-0.4395 Z6.8689
X10.8777 Y-0.4382 Z6.8688
X10.8824 Y-0.4365 Z6.8687
X10.886 Y-0.435 Z6.8686
X10.8895 Y-0.4332 Z6.8685
X10.8929 Y-0.4312 Z6.8684
X10.8961 Y-0.4291
X10.899 Y-0.4269 Z6.8683
X10.9019 Y-0.4244
X10.9047 Y-0.4215 Z6.8682
X10.9072 Y-0.4187 Z6.8681
X10.9095 Y-0.4156
X10.9116 Y-0.4122
X10.9135 Y-0.4087 Z6.868
X10.9151 Y-0.4051
X10.9162 Y-0.4019
X10.9171 Y-0.3985 Z6.8679
X10.9177 Y-0.3954
X10.918 Y-0.3925
X10.9183 Y-0.388
X10.9182 Y-0.3855
X10.9179 Y-0.3808
X10.9174 Y-0.3774
X10.9166 Y-0.3742
X10.9156 Y-0.371 Z6.868
X10.9145 Y-0.368
X10.913 Y-0.3649
X10.9114 Y-0.3618 Z6.8681
X10.9097 Y-0.359
X10.9078 Y-0.3562
X10.9054 Y-0.3533 Z6.8682
X10.903 Y-0.3506
X10.9005 Y-0.3481 Z6.8683
X10.8979 Y-0.346
X10.8952 Y-0.344 Z6.8684
X10.8917 Y-0.3419 Z6.8685
X10.8894 Y-0.3406
X10.8108 Y-0.293 Z6.8705
X10.8057 Y-0.2899 Z6.8706
X10.8031 Y-0.2882
X10.8007 Y-0.2864 Z6.8707
X10.7978 Y-0.284 Z6.8708
X10.7949 Y-0.2812
X10.7923 Y-0.2785 Z6.8709
X10.7897 Y-0.2755 Z6.871
X10.7871 Y-0.2722
X10.7847 Y-0.2686 Z6.8711
X10.7824 Y-0.2648 Z6.8712
X10.7805 Y-0.2611
X10.7789 Y-0.2574
X10.7776 Y-0.2534 Z6.8713
X10.7765 Y-0.2495
X10.7756 Y-0.2456
X10.7749 Y-0.2413
X10.7741 Y-0.2344 Z6.8714
X10.7746 Y-0.2291
X10.7751 Y-0.2254 Z6.8713
X10.776 Y-0.2211
X10.7771 Y-0.2171
X10.7783 Y-0.2133
X10.7799 Y-0.2094 Z6.8712
X10.7818 Y-0.2054
X10.7837 Y-0.2019 Z6.8711
X10.7857 Y-0.1987
X10.7884 Y-0.1949 Z6.871
X10.7915 Y-0.1912 Z6.8709
X10.7947 Y-0.1876
X10.7982 Y-0.1844 Z6.8708
X10.802 Y-0.1813 Z6.8707
X10.8059 Y-0.1786 Z6.8706
X10.81 Y-0.1761 Z6.8705
X10.8143 Y-0.1738 Z6.8704
X10.8186 Y-0.1717 Z6.8703
X10.8229 Y-0.17 Z6.8702
X10.8273 Y-0.1686 Z6.87
X10.832 Y-0.1673 Z6.8699
X10.8368 Y-0.1664 Z6.8698
X10.8411 Y-0.1657 Z6.8697
X10.8452 Y-0.1653 Z6.8696
X10.8511 Y-0.165 Z6.8695
X10.8546 Z6.8694
X10.8596 Y-0.1653 Z6.8692
X10.864 Y-0.1656 Z6.8691
X10.8691 Y-0.1664 Z6.869
X10.8741 Y-0.1674 Z6.8689
X10.879 Y-0.1688 Z6.8688
X10.8839 Y-0.1704 Z6.8686
X10.8886 Y-0.1723 Z6.8685
X10.8931 Y-0.1745 Z6.8684
X10.8974 Y-0.1769
X10.9011 Y-0.1792 Z6.8683
X10.9049 Y-0.1819 Z6.8682
X10.9086 Y-0.1849 Z6.8681
X10.9121 Y-0.1882 Z6.868
X10.9151 Y-0.1914
X10.9178 Y-0.1947 Z6.8679
X10.9203 Y-0.198
X10.9226 Y-0.2015 Z6.8678
X10.9246 Y-0.2051
X10.9264 Y-0.2086 Z6.8677
X10.928 Y-0.2123
X10.9294 Y-0.2164
X10.9306 Y-0.2211 Z6.8676
X10.9314 Y-0.2246
X10.9319 Y-0.2278
X10.9325 Y-0.2333
X10.9326 Y-0.2346
X10.9318 Y-0.242
X10.931 Y-0.2465
X10.93 Y-0.2505 Z6.8677
X10.929 Y-0.2538
G0 Z7.3559
Z6.9434
G1 Z6.8577 F1.
X10.9289 Y-0.2544 F3.
X10.9276 Y-0.2577
X10.926 Y-0.2615
X10.9239 Y-0.2655 Z6.8578
X10.9216 Y-0.2693
X10.9191 Y-0.273 Z6.8579
X10.9163 Y-0.2765 Z6.858
X10.9132 Y-0.2799
X10.9099 Y-0.283 Z6.8581
X10.9065 Y-0.2859 Z6.8582
X10.9029 Y-0.2886
X10.8977 Y-0.2919 Z6.8583
X10.8174 Y-0.3406 Z6.8603
X10.8132 Y-0.3428 Z6.8604
X10.811 Y-0.3441
X10.809 Y-0.3455 Z6.8605
X10.8067 Y-0.3473 Z6.8606
X10.8045 Y-0.3494
X10.8023 Y-0.3517 Z6.8607
X10.8002 Y-0.3543
X10.7981 Y-0.3571 Z6.8608
X10.7962 Y-0.3601
X10.7945 Y-0.3633 Z6.8609
X10.7929 Y-0.3665
X10.7916 Y-0.3699
X10.7905 Y-0.3734 Z6.861
X10.7896 Y-0.3768
X10.7889 Y-0.3805
X10.7882 Y-0.3863
Y-0.3874
X10.7888 Y-0.3924
X10.7894 Y-0.3956
X10.7902 Y-0.3991
X10.7913 Y-0.4026 Z6.8609
X10.7927 Y-0.4062
X10.7943 Y-0.4097
X10.796 Y-0.4129 Z6.8608
X10.7979 Y-0.4159
X10.8001 Y-0.419 Z6.8607
X10.8028 Y-0.4221
X10.8056 Y-0.4249 Z6.8606
X10.8084 Y-0.4274 Z6.8605
X10.8115 Y-0.4298 Z6.8604
X10.8147 Y-0.4319
X10.8185 Y-0.434 Z6.8603
X10.8227 Y-0.436 Z6.8602
X10.8273 Y-0.4377 Z6.86
X10.8315 Y-0.4391 Z6.8599
X10.836 Y-0.4402 Z6.8598
X10.8406 Y-0.441 Z6.8597
X10.845 Y-0.4415 Z6.8596
X10.8502 Y-0.4418 Z6.8595
X10.8542 Z6.8594
X10.8591 Y-0.4416 Z6.8593
X10.8635 Y-0.4413 Z6.8591
X10.8683 Y-0.4405 Z6.859
X10.873 Y-0.4395 Z6.8589
X10.8777 Y-0.4382 Z6.8588
X10.8824 Y-0.4365 Z6.8587
X10.886 Y-0.435 Z6.8586
X10.8895 Y-0.4332 Z6.8585
X10.8929 Y-0.4312 Z6.8584
X10.8961 Y-0.4291
X10.899 Y-0.4269 Z6.8583
X10.9019 Y-0.4244
X10.9047 Y-0.4215 Z6.8582
X10.9072 Y-0.4187 Z6.8581
X10.9095 Y-0.4156
X10.9116 Y-0.4122
X10.9135 Y-0.4087 Z6.858
X10.9151 Y-0.4051
X10.9162 Y-0.4019
X10.9171 Y-0.3985 Z6.8579
X10.9177 Y-0.3954
X10.918 Y-0.3925
X10.9183 Y-0.388
X10.9182 Y-0.3855
X10.9179 Y-0.3808
X10.9174 Y-0.3774
X10.9166 Y-0.3742
X10.9156 Y-0.371 Z6.858
X10.9145 Y-0.368
X10.913 Y-0.3649
X10.9114 Y-0.3618 Z6.8581
X10.9097 Y-0.359
X10.9078 Y-0.3562
X10.9054 Y-0.3533 Z6.8582
X10.903 Y-0.3506
X10.9005 Y-0.3481 Z6.8583
X10.8979 Y-0.346
X10.8952 Y-0.344 Z6.8584
X10.8917 Y-0.3419 Z6.8585
X10.8894 Y-0.3406
X10.8108 Y-0.293 Z6.8605
X10.8057 Y-0.2899 Z6.8606
X10.8031 Y-0.2882
X10.8007 Y-0.2864 Z6.8607
X10.7978 Y-0.284 Z6.8608
X10.7949 Y-0.2812
X10.7923 Y-0.2785 Z6.8609
X10.7897 Y-0.2755 Z6.861
X10.7871 Y-0.2722
X10.7847 Y-0.2686 Z6.8611
X10.7824 Y-0.2648 Z6.8612
X10.7805 Y-0.2611
X10.7789 Y-0.2574
X10.7776 Y-0.2534 Z6.8613
X10.7765 Y-0.2495
X10.7756 Y-0.2456
X10.7749 Y-0.2413
X10.7741 Y-0.2344 Z6.8614
X10.7746 Y-0.2291
X10.7751 Y-0.2254 Z6.8613
X10.776 Y-0.2211
X10.7771 Y-0.2171
X10.7783 Y-0.2133
X10.7799 Y-0.2094 Z6.8612
X10.7818 Y-0.2054
X10.7837 Y-0.2019 Z6.8611
X10.7857 Y-0.1987
X10.7884 Y-0.1949 Z6.861
X10.7915 Y-0.1912 Z6.8609
X10.7947 Y-0.1876
X10.7982 Y-0.1844 Z6.8608
X10.802 Y-0.1813 Z6.8607
X10.8059 Y-0.1786 Z6.8606
X10.81 Y-0.1761 Z6.8605
X10.8143 Y-0.1738 Z6.8604
X10.8186 Y-0.1717 Z6.8603
X10.8229 Y-0.17 Z6.8602
X10.8273 Y-0.1686 Z6.86
X10.832 Y-0.1673 Z6.8599
X10.8368 Y-0.1664 Z6.8598
X10.8411 Y-0.1657 Z6.8597
X10.8452 Y-0.1653 Z6.8596
X10.8511 Y-0.165 Z6.8595
X10.8546 Z6.8594
X10.8596 Y-0.1653 Z6.8592
X10.864 Y-0.1656 Z6.8591
X10.8691 Y-0.1664 Z6.859
X10.8741 Y-0.1674 Z6.8589
X10.879 Y-0.1688 Z6.8588
X10.8839 Y-0.1704 Z6.8586
X10.8886 Y-0.1723 Z6.8585
X10.8931 Y-0.1745 Z6.8584
X10.8974 Y-0.1769
X10.9011 Y-0.1792 Z6.8583
X10.9049 Y-0.1819 Z6.8582
X10.9086 Y-0.1849 Z6.8581
X10.9121 Y-0.1882 Z6.858
X10.9151 Y-0.1914
X10.9178 Y-0.1947 Z6.8579
X10.9203 Y-0.198
X10.9226 Y-0.2015 Z6.8578
X10.9246 Y-0.2051
X10.9264 Y-0.2086 Z6.8577
X10.928 Y-0.2123
X10.9294 Y-0.2164
X10.9306 Y-0.2211 Z6.8576
X10.9314 Y-0.2246
X10.9319 Y-0.2278
X10.9325 Y-0.2333
X10.9326 Y-0.2346
X10.9318 Y-0.242
X10.931 Y-0.2465
X10.93 Y-0.2505 Z6.8577
X10.929 Y-0.2538
G0 Z7.3559
Y-0.2539
Z6.9434
G1 Z6.8477 F1.
X10.9289 Y-0.2544 F3.
X10.9276 Y-0.2577
X10.926 Y-0.2615
X10.9239 Y-0.2655 Z6.8478
X10.9216 Y-0.2693
X10.9191 Y-0.273 Z6.8479
X10.9163 Y-0.2765 Z6.848
X10.9132 Y-0.2799
X10.9099 Y-0.283 Z6.8481
X10.9065 Y-0.2859 Z6.8482
X10.9029 Y-0.2886
X10.8977 Y-0.2919 Z6.8483
X10.8174 Y-0.3406 Z6.8503
X10.8132 Y-0.3428 Z6.8504
X10.811 Y-0.3441
X10.809 Y-0.3455 Z6.8505
X10.8067 Y-0.3473 Z6.8506
X10.8045 Y-0.3494
X10.8023 Y-0.3517 Z6.8507
X10.8002 Y-0.3543
X10.7981 Y-0.3571 Z6.8508
X10.7962 Y-0.3601
X10.7945 Y-0.3633 Z6.8509
X10.7929 Y-0.3665
X10.7916 Y-0.3699
X10.7905 Y-0.3734 Z6.851
X10.7896 Y-0.3768
X10.7889 Y-0.3805
X10.7882 Y-0.3863
Y-0.3874
X10.7888 Y-0.3924
X10.7894 Y-0.3956
X10.7902 Y-0.3991
X10.7913 Y-0.4026 Z6.8509
X10.7927 Y-0.4062
X10.7943 Y-0.4097
X10.796 Y-0.4129 Z6.8508
X10.7979 Y-0.4159
X10.8001 Y-0.419 Z6.8507
X10.8028 Y-0.4221
X10.8056 Y-0.4249 Z6.8506
X10.8084 Y-0.4274 Z6.8505
X10.8115 Y-0.4298 Z6.8504
X10.8147 Y-0.4319
X10.8185 Y-0.434 Z6.8503
X10.8227 Y-0.436 Z6.8502
X10.8273 Y-0.4377 Z6.85
X10.8315 Y-0.4391 Z6.8499
X10.836 Y-0.4402 Z6.8498
X10.8406 Y-0.441 Z6.8497
X10.845 Y-0.4415 Z6.8496
X10.8502 Y-0.4418 Z6.8495
X10.8542 Z6.8494
X10.8591 Y-0.4416 Z6.8493
X10.8635 Y-0.4413 Z6.8491
X10.8683 Y-0.4405 Z6.849
X10.873 Y-0.4395 Z6.8489
X10.8777 Y-0.4382 Z6.8488
X10.8824 Y-0.4365 Z6.8487
X10.886 Y-0.435 Z6.8486
X10.8895 Y-0.4332 Z6.8485
X10.8929 Y-0.4312 Z6.8484
X10.8961 Y-0.4291
X10.899 Y-0.4269 Z6.8483
X10.9019 Y-0.4244
X10.9047 Y-0.4215 Z6.8482
X10.9072 Y-0.4187 Z6.8481
X10.9095 Y-0.4156
X10.9116 Y-0.4122
X10.9135 Y-0.4087 Z6.848
X10.9151 Y-0.4051
X10.9162 Y-0.4019
X10.9171 Y-0.3985 Z6.8479
X10.9177 Y-0.3954
X10.918 Y-0.3925
X10.9183 Y-0.388
X10.9182 Y-0.3855
X10.9179 Y-0.3808
X10.9174 Y-0.3774
X10.9166 Y-0.3742
X10.9156 Y-0.371 Z6.848
X10.9145 Y-0.368
X10.913 Y-0.3649
X10.9114 Y-0.3618 Z6.8481
X10.9097 Y-0.359
X10.9078 Y-0.3562
X10.9054 Y-0.3533 Z6.8482
X10.903 Y-0.3506
X10.9005 Y-0.3481 Z6.8483
X10.8979 Y-0.346
X10.8952 Y-0.344 Z6.8484
X10.8917 Y-0.3419 Z6.8485
X10.8894 Y-0.3406
X10.8108 Y-0.293 Z6.8505
X10.8057 Y-0.2899 Z6.8506
X10.8031 Y-0.2882
X10.8007 Y-0.2864 Z6.8507
X10.7978 Y-0.284 Z6.8508
X10.7949 Y-0.2812
X10.7923 Y-0.2785 Z6.8509
X10.7897 Y-0.2755 Z6.851
X10.7871 Y-0.2722
X10.7847 Y-0.2686 Z6.8511
X10.7824 Y-0.2648 Z6.8512
X10.7805 Y-0.2611
X10.7789 Y-0.2574
X10.7776 Y-0.2534 Z6.8513
X10.7765 Y-0.2495
X10.7756 Y-0.2456
X10.7749 Y-0.2413
X10.7741 Y-0.2344 Z6.8514
X10.7746 Y-0.2291
X10.7751 Y-0.2254 Z6.8513
X10.776 Y-0.2211
X10.7771 Y-0.2171
X10.7783 Y-0.2133
X10.7799 Y-0.2094 Z6.8512
X10.7818 Y-0.2054
X10.7837 Y-0.2019 Z6.8511
X10.7857 Y-0.1987
X10.7884 Y-0.1949 Z6.851
X10.7915 Y-0.1912 Z6.8509
X10.7947 Y-0.1876
X10.7982 Y-0.1844 Z6.8508
X10.802 Y-0.1813 Z6.8507
X10.8059 Y-0.1786 Z6.8506
X10.81 Y-0.1761 Z6.8505
X10.8143 Y-0.1738 Z6.8504
X10.8186 Y-0.1717 Z6.8503
X10.8229 Y-0.17 Z6.8502
X10.8273 Y-0.1686 Z6.85
X10.832 Y-0.1673 Z6.8499
X10.8368 Y-0.1664 Z6.8498
X10.8411 Y-0.1657 Z6.8497
X10.8452 Y-0.1653 Z6.8496
X10.8511 Y-0.165 Z6.8495
X10.8546 Z6.8494
X10.8596 Y-0.1653 Z6.8492
X10.864 Y-0.1656 Z6.8491
X10.8691 Y-0.1664 Z6.849
X10.8741 Y-0.1674 Z6.8489
X10.879 Y-0.1688 Z6.8488
X10.8839 Y-0.1704 Z6.8486
X10.8886 Y-0.1723 Z6.8485
X10.8931 Y-0.1745 Z6.8484
X10.8974 Y-0.1769
X10.9011 Y-0.1792 Z6.8483
X10.9049 Y-0.1819 Z6.8482
X10.9086 Y-0.1849 Z6.8481
X10.9121 Y-0.1882 Z6.848
X10.9151 Y-0.1914
X10.9178 Y-0.1947 Z6.8479
X10.9203 Y-0.198
X10.9226 Y-0.2015 Z6.8478
X10.9246 Y-0.2051
X10.9264 Y-0.2086 Z6.8477
X10.928 Y-0.2123
X10.9294 Y-0.2164
X10.9306 Y-0.2211 Z6.8476
X10.9314 Y-0.2246
X10.9319 Y-0.2278
X10.9325 Y-0.2333
X10.9326 Y-0.2346
X10.9318 Y-0.242
X10.931 Y-0.2465
X10.93 Y-0.2505 Z6.8477
X10.929 Y-0.2539
G0 Z7.3559
Y-0.254
Z6.9434
G1 Z6.8377 F1.
X10.9289 Y-0.2544 F3.
X10.9276 Y-0.2577
X10.926 Y-0.2615
X10.9239 Y-0.2655 Z6.8378
X10.9216 Y-0.2693
X10.9191 Y-0.273 Z6.8379
X10.9163 Y-0.2765 Z6.838
X10.9132 Y-0.2799
X10.9099 Y-0.283 Z6.8381
X10.9065 Y-0.2859 Z6.8382
X10.9029 Y-0.2886
X10.8977 Y-0.2919 Z6.8383
X10.8174 Y-0.3406 Z6.8403
X10.8132 Y-0.3428 Z6.8404
X10.811 Y-0.3441
X10.809 Y-0.3455 Z6.8405
X10.8067 Y-0.3473 Z6.8406
X10.8045 Y-0.3494
X10.8023 Y-0.3517 Z6.8407
X10.8002 Y-0.3543
X10.7981 Y-0.3571 Z6.8408
X10.7962 Y-0.3601
X10.7945 Y-0.3633 Z6.8409
X10.7929 Y-0.3665
X10.7916 Y-0.3699
X10.7905 Y-0.3734 Z6.841
X10.7896 Y-0.3768
X10.7889 Y-0.3805
X10.7882 Y-0.3863
Y-0.3874
X10.7888 Y-0.3924
X10.7894 Y-0.3956
X10.7902 Y-0.3991
X10.7913 Y-0.4026 Z6.8409
X10.7927 Y-0.4062
X10.7943 Y-0.4097
X10.796 Y-0.4129 Z6.8408
X10.7979 Y-0.4159
X10.8001 Y-0.419 Z6.8407
X10.8028 Y-0.4221
X10.8056 Y-0.4249 Z6.8406
X10.8084 Y-0.4274 Z6.8405
X10.8115 Y-0.4298 Z6.8404
X10.8147 Y-0.4319
X10.8185 Y-0.434 Z6.8403
X10.8227 Y-0.436 Z6.8402
X10.8273 Y-0.4377 Z6.84
X10.8315 Y-0.4391 Z6.8399
X10.836 Y-0.4402 Z6.8398
X10.8406 Y-0.441 Z6.8397
X10.845 Y-0.4415 Z6.8396
X10.8502 Y-0.4418 Z6.8395
X10.8542 Z6.8394
X10.8591 Y-0.4416 Z6.8393
X10.8635 Y-0.4413 Z6.8391
X10.8683 Y-0.4405 Z6.839
X10.873 Y-0.4395 Z6.8389
X10.8777 Y-0.4382 Z6.8388
X10.8824 Y-0.4365 Z6.8387
X10.886 Y-0.435 Z6.8386
X10.8895 Y-0.4332 Z6.8385
X10.8929 Y-0.4312 Z6.8384
X10.8961 Y-0.4291
X10.899 Y-0.4269 Z6.8383
X10.9019 Y-0.4244
X10.9047 Y-0.4215 Z6.8382
X10.9072 Y-0.4187 Z6.8381
X10.9095 Y-0.4156
X10.9116 Y-0.4122
X10.9135 Y-0.4087 Z6.838
X10.9151 Y-0.4051
X10.9162 Y-0.4019
X10.9171 Y-0.3985 Z6.8379
X10.9177 Y-0.3954
X10.918 Y-0.3925
X10.9183 Y-0.388
X10.9182 Y-0.3855
X10.9179 Y-0.3808
X10.9174 Y-0.3774
X10.9166 Y-0.3742
X10.9156 Y-0.371 Z6.838
X10.9145 Y-0.368
X10.913 Y-0.3649
X10.9114 Y-0.3618 Z6.8381
X10.9097 Y-0.359
X10.9078 Y-0.3562
X10.9054 Y-0.3533 Z6.8382
X10.903 Y-0.3506
X10.9005 Y-0.3481 Z6.8383
X10.8979 Y-0.346
X10.8952 Y-0.344 Z6.8384
X10.8917 Y-0.3419 Z6.8385
X10.8894 Y-0.3406
X10.8108 Y-0.293 Z6.8405
X10.8057 Y-0.2899 Z6.8406
X10.8031 Y-0.2882
X10.8007 Y-0.2864 Z6.8407
X10.7978 Y-0.284 Z6.8408
X10.7949 Y-0.2812
X10.7923 Y-0.2785 Z6.8409
X10.7897 Y-0.2755 Z6.841
X10.7871 Y-0.2722
X10.7847 Y-0.2686 Z6.8411
X10.7824 Y-0.2648 Z6.8412
X10.7805 Y-0.2611
X10.7789 Y-0.2574
X10.7776 Y-0.2534 Z6.8413
X10.7765 Y-0.2495
X10.7756 Y-0.2456
X10.7749 Y-0.2413
X10.7741 Y-0.2344 Z6.8414
X10.7746 Y-0.2291
X10.7751 Y-0.2254 Z6.8413
X10.776 Y-0.2211
X10.7771 Y-0.2171
X10.7783 Y-0.2133
X10.7799 Y-0.2094 Z6.8412
X10.7818 Y-0.2054
X10.7837 Y-0.2019 Z6.8411
X10.7857 Y-0.1987
X10.7884 Y-0.1949 Z6.841
X10.7915 Y-0.1912 Z6.8409
X10.7947 Y-0.1876
X10.7982 Y-0.1844 Z6.8408
X10.802 Y-0.1813 Z6.8407
X10.8059 Y-0.1786 Z6.8406
X10.81 Y-0.1761 Z6.8405
X10.8143 Y-0.1738 Z6.8404
X10.8186 Y-0.1717 Z6.8403
X10.8229 Y-0.17 Z6.8402
X10.8273 Y-0.1686 Z6.84
X10.832 Y-0.1673 Z6.8399
X10.8368 Y-0.1664 Z6.8398
X10.8411 Y-0.1657 Z6.8397
X10.8452 Y-0.1653 Z6.8396
X10.8511 Y-0.165 Z6.8395
X10.8546 Z6.8394
X10.8596 Y-0.1653 Z6.8392
X10.864 Y-0.1656 Z6.8391
X10.8691 Y-0.1664 Z6.839
X10.8741 Y-0.1674 Z6.8389
X10.879 Y-0.1688 Z6.8388
X10.8839 Y-0.1704 Z6.8386
X10.8886 Y-0.1723 Z6.8385
X10.8931 Y-0.1745 Z6.8384
X10.8974 Y-0.1769
X10.9011 Y-0.1792 Z6.8383
X10.9049 Y-0.1819 Z6.8382
X10.9086 Y-0.1849 Z6.8381
X10.9121 Y-0.1882 Z6.838
X10.9151 Y-0.1914
X10.9178 Y-0.1947 Z6.8379
X10.9203 Y-0.198
X10.9226 Y-0.2015 Z6.8378
X10.9246 Y-0.2051
X10.9264 Y-0.2086 Z6.8377
X10.928 Y-0.2123
X10.9294 Y-0.2164
X10.9306 Y-0.2211 Z6.8376
X10.9314 Y-0.2246
X10.9319 Y-0.2278
X10.9325 Y-0.2333
X10.9326 Y-0.2346
X10.9318 Y-0.242
X10.931 Y-0.2465
X10.93 Y-0.2505 Z6.8377
X10.929 Y-0.254
G0 Z7.3559
X10.6126 Y-0.2346
Z6.9523
G1 Z6.8762 F1.
X10.6118 Y-0.242 F3.
X10.611 Y-0.2465
X10.61 Y-0.2505 Z6.8763
X10.6088 Y-0.2544
X10.6076 Y-0.2577
X10.606 Y-0.2615 Z6.8764
X10.6039 Y-0.2655 Z6.8765
X10.6016 Y-0.2693
X10.599 Y-0.273 Z6.8766
X10.5963 Y-0.2765 Z6.8767
X10.5932 Y-0.2799 Z6.8768
X10.5899 Y-0.283 Z6.8769
X10.5865 Y-0.2859 Z6.877
X10.5828 Y-0.2886 Z6.8771
X10.5777 Y-0.2918 Z6.8773
X10.5081 Y-0.3341 Z6.8797
X10.4973 Y-0.3407 Z6.8801
X10.4931 Y-0.3428 Z6.8803
X10.491 Y-0.3441
X10.489 Y-0.3454 Z6.8804
X10.4867 Y-0.3473 Z6.8805
X10.4845 Y-0.3494 Z6.8806
X10.4823 Y-0.3517
X10.4802 Y-0.3543 Z6.8807
X10.4781 Y-0.3571 Z6.8808
X10.4762 Y-0.3601 Z6.8809
X10.4745 Y-0.3632
X10.4729 Y-0.3665 Z6.881
X10.4716 Y-0.3699
X10.4704 Y-0.3733 Z6.8811
X10.4695 Y-0.3768
X10.4688 Y-0.3805
X10.4682 Y-0.3862 Z6.8812
X10.4681 Y-0.3873
X10.4688 Y-0.3924 Z6.8811
X10.4694 Y-0.3956
X10.4702 Y-0.3991
X10.4713 Y-0.4026 Z6.881
X10.4726 Y-0.4062
X10.4742 Y-0.4096 Z6.8809
X10.4759 Y-0.4129
X10.4778 Y-0.4159 Z6.8808
X10.4801 Y-0.419 Z6.8807
X10.4828 Y-0.4221 Z6.8806
X10.4855 Y-0.4249 Z6.8805
X10.4883 Y-0.4274 Z6.8804
X10.4914 Y-0.4298 Z6.8803
X10.4946 Y-0.4318 Z6.8802
X10.4985 Y-0.434 Z6.8801
X10.5027 Y-0.436 Z6.8799
X10.5072 Y-0.4377 Z6.8798
X10.5115 Y-0.4391 Z6.8796
X10.5159 Y-0.4402 Z6.8794
X10.5205 Y-0.441 Z6.8793
X10.5249 Y-0.4415 Z6.8791
X10.5302 Y-0.4418 Z6.8789
X10.5341 Z6.8788
X10.539 Y-0.4416 Z6.8786
X10.5434 Y-0.4413 Z6.8785
X10.5482 Y-0.4405 Z6.8783
X10.5529 Y-0.4395 Z6.8781
X10.5577 Y-0.4382 Z6.8779
X10.5623 Y-0.4365 Z6.8778
X10.5659 Y-0.435 Z6.8777
X10.5695 Y-0.4332 Z6.8776
X10.5729 Y-0.4312 Z6.8775
X10.576 Y-0.4291 Z6.8773
X10.5789 Y-0.4269
X10.5819 Y-0.4244 Z6.8772
X10.5846 Y-0.4216 Z6.8771
X10.5871 Y-0.4187 Z6.877
X10.5895 Y-0.4156 Z6.8769
X10.5916 Y-0.4122 Z6.8768
X10.5934 Y-0.4087
X10.595 Y-0.4051 Z6.8767
X10.5961 Y-0.4019
X10.597 Y-0.3985
X10.5976 Y-0.3954
X10.598 Y-0.3925 Z6.8766
X10.5983 Y-0.388
X10.5982 Y-0.3855
X10.5979 Y-0.3808
X10.5973 Y-0.3774 Z6.8767
X10.5966 Y-0.3742
X10.5956 Y-0.371
X10.5944 Y-0.368 Z6.8768
X10.593 Y-0.3649
X10.5914 Y-0.3618 Z6.8769
X10.5897 Y-0.359
X10.5877 Y-0.3562 Z6.877
X10.5854 Y-0.3533
X10.5829 Y-0.3506 Z6.8771
X10.5804 Y-0.3481 Z6.8772
X10.5779 Y-0.346 Z6.8773
X10.5751 Y-0.344 Z6.8774
X10.5716 Y-0.3419 Z6.8775
X10.5693 Y-0.3406 Z6.8776
X10.4908 Y-0.293 Z6.8803
X10.4857 Y-0.29 Z6.8805
X10.4832 Y-0.2883 Z6.8806
X10.4807 Y-0.2865 Z6.8807
X10.4779 Y-0.2841 Z6.8808
X10.475 Y-0.2813 Z6.8809
X10.4724 Y-0.2786 Z6.881
X10.4697 Y-0.2756 Z6.8811
X10.4671 Y-0.2722 Z6.8812
X10.4646 Y-0.2686 Z6.8813
X10.4624 Y-0.2648 Z6.8814
X10.4605 Y-0.2611
X10.4589 Y-0.2574 Z6.8815
X10.4575 Y-0.2534
X10.4564 Y-0.2495 Z6.8816
X10.4555 Y-0.2457
X10.4548 Y-0.2413
X10.4541 Y-0.2344 Z6.8817
X10.4546 Y-0.2291 Z6.8816
X10.4551 Y-0.2254
X10.4559 Y-0.2211
X10.457 Y-0.2171
X10.4582 Y-0.2133 Z6.8815
X10.4598 Y-0.2094
X10.4618 Y-0.2054 Z6.8814
X10.4636 Y-0.202 Z6.8813
X10.4657 Y-0.1987 Z6.8812
X10.4684 Y-0.1949 Z6.8811
X10.4714 Y-0.1912 Z6.881
X10.4747 Y-0.1876 Z6.8809
X10.4782 Y-0.1844 Z6.8808
X10.482 Y-0.1813 Z6.8807
X10.4858 Y-0.1786 Z6.8805
X10.4899 Y-0.1761 Z6.8804
X10.4942 Y-0.1738 Z6.8802
X10.4985 Y-0.1718 Z6.8801
X10.5028 Y-0.1701 Z6.8799
X10.5072 Y-0.1686 Z6.8798
X10.5119 Y-0.1674 Z6.8796
X10.5167 Y-0.1664 Z6.8794
X10.521 Y-0.1657 Z6.8793
X10.5252 Y-0.1653 Z6.8791
X10.531 Y-0.1651 Z6.8789
X10.5345 Y-0.165 Z6.8788
X10.5395 Y-0.1653 Z6.8786
X10.544 Y-0.1656 Z6.8784
X10.5491 Y-0.1664 Z6.8783
X10.554 Y-0.1674 Z6.8781
X10.559 Y-0.1688 Z6.8779
X10.5638 Y-0.1704 Z6.8777
X10.5686 Y-0.1723 Z6.8776
X10.573 Y-0.1745 Z6.8774
X10.5773 Y-0.1769 Z6.8773
X10.5811 Y-0.1792 Z6.8772
X10.5849 Y-0.1819 Z6.8771
X10.5886 Y-0.1849 Z6.8769
X10.5921 Y-0.1882 Z6.8768
X10.5951 Y-0.1914 Z6.8767
X10.5978 Y-0.1947 Z6.8766
X10.6003 Y-0.198
X10.6025 Y-0.2015 Z6.8765
X10.6046 Y-0.2051 Z6.8764
X10.6064 Y-0.2086
X10.6079 Y-0.2123 Z6.8763
X10.6093 Y-0.2164
X10.6106 Y-0.2211 Z6.8762
X10.6114 Y-0.2246
X10.6119 Y-0.2278
X10.6125 Y-0.2333
X10.6126 Y-0.2346
G0 Z7.3559
Y-0.2347
Z6.9523
G1 Z6.8662 F1.
X10.6118 Y-0.242 F3.
X10.611 Y-0.2465
X10.61 Y-0.2505 Z6.8663
X10.6088 Y-0.2544
X10.6076 Y-0.2577
X10.606 Y-0.2615 Z6.8664
X10.6039 Y-0.2655 Z6.8665
X10.6016 Y-0.2693
X10.599 Y-0.273 Z6.8666
X10.5963 Y-0.2765 Z6.8667
X10.5932 Y-0.2799 Z6.8668
X10.5899 Y-0.283 Z6.8669
X10.5865 Y-0.2859 Z6.867
X10.5828 Y-0.2886 Z6.8671
X10.5777 Y-0.2918 Z6.8673
X10.5081 Y-0.3341 Z6.8697
X10.4973 Y-0.3407 Z6.8701
X10.4931 Y-0.3428 Z6.8703
X10.491 Y-0.3441
X10.489 Y-0.3454 Z6.8704
X10.4867 Y-0.3473 Z6.8705
X10.4845 Y-0.3494 Z6.8706
X10.4823 Y-0.3517
X10.4802 Y-0.3543 Z6.8707
X10.4781 Y-0.3571 Z6.8708
X10.4762 Y-0.3601 Z6.8709
X10.4745 Y-0.3632
X10.4729 Y-0.3665 Z6.871
X10.4716 Y-0.3699
X10.4704 Y-0.3733 Z6.8711
X10.4695 Y-0.3768
X10.4688 Y-0.3805
X10.4682 Y-0.3862 Z6.8712
X10.4681 Y-0.3873
X10.4688 Y-0.3924 Z6.8711
X10.4694 Y-0.3956
X10.4702 Y-0.3991
X10.4713 Y-0.4026 Z6.871
X10.4726 Y-0.4062
X10.4742 Y-0.4096 Z6.8709
X10.4759 Y-0.4129
X10.4778 Y-0.4159 Z6.8708
X10.4801 Y-0.419 Z6.8707
X10.4828 Y-0.4221 Z6.8706
X10.4855 Y-0.4249 Z6.8705
X10.4883 Y-0.4274 Z6.8704
X10.4914 Y-0.4298 Z6.8703
X10.4946 Y-0.4318 Z6.8702
X10.4985 Y-0.434 Z6.8701
X10.5027 Y-0.436 Z6.8699
X10.5072 Y-0.4377 Z6.8698
X10.5115 Y-0.4391 Z6.8696
X10.5159 Y-0.4402 Z6.8694
X10.5205 Y-0.441 Z6.8693
X10.5249 Y-0.4415 Z6.8691
X10.5302 Y-0.4418 Z6.8689
X10.5341 Z6.8688
X10.539 Y-0.4416 Z6.8686
X10.5434 Y-0.4413 Z6.8685
X10.5482 Y-0.4405 Z6.8683
X10.5529 Y-0.4395 Z6.8681
X10.5577 Y-0.4382 Z6.8679
X10.5623 Y-0.4365 Z6.8678
X10.5659 Y-0.435 Z6.8677
X10.5695 Y-0.4332 Z6.8676
X10.5729 Y-0.4312 Z6.8675
X10.576 Y-0.4291 Z6.8673
X10.5789 Y-0.4269
X10.5819 Y-0.4244 Z6.8672
X10.5846 Y-0.4216 Z6.8671
X10.5871 Y-0.4187 Z6.867
X10.5895 Y-0.4156 Z6.8669
X10.5916 Y-0.4122 Z6.8668
X10.5934 Y-0.4087
X10.595 Y-0.4051 Z6.8667
X10.5961 Y-0.4019
X10.597 Y-0.3985
X10.5976 Y-0.3954
X10.598 Y-0.3925 Z6.8666
X10.5983 Y-0.388
X10.5982 Y-0.3855
X10.5979 Y-0.3808
X10.5973 Y-0.3774 Z6.8667
X10.5966 Y-0.3742
X10.5956 Y-0.371
X10.5944 Y-0.368 Z6.8668
X10.593 Y-0.3649
X10.5914 Y-0.3618 Z6.8669
X10.5897 Y-0.359
X10.5877 Y-0.3562 Z6.867
X10.5854 Y-0.3533
X10.5829 Y-0.3506 Z6.8671
X10.5804 Y-0.3481 Z6.8672
X10.5779 Y-0.346 Z6.8673
X10.5751 Y-0.344 Z6.8674
X10.5716 Y-0.3419 Z6.8675
X10.5693 Y-0.3406 Z6.8676
X10.4908 Y-0.293 Z6.8703
X10.4857 Y-0.29 Z6.8705
X10.4832 Y-0.2883 Z6.8706
X10.4807 Y-0.2865 Z6.8707
X10.4779 Y-0.2841 Z6.8708
X10.475 Y-0.2813 Z6.8709
X10.4724 Y-0.2786 Z6.871
X10.4697 Y-0.2756 Z6.8711
X10.4671 Y-0.2722 Z6.8712
X10.4646 Y-0.2686 Z6.8713
X10.4624 Y-0.2648 Z6.8714
X10.4605 Y-0.2611
X10.4589 Y-0.2574 Z6.8715
X10.4575 Y-0.2534
X10.4564 Y-0.2495 Z6.8716
X10.4555 Y-0.2457
X10.4548 Y-0.2413
X10.4541 Y-0.2344 Z6.8717
X10.4546 Y-0.2291 Z6.8716
X10.4551 Y-0.2254
X10.4559 Y-0.2211
X10.457 Y-0.2171
X10.4582 Y-0.2133 Z6.8715
X10.4598 Y-0.2094
X10.4618 Y-0.2054 Z6.8714
X10.4636 Y-0.202 Z6.8713
X10.4657 Y-0.1987 Z6.8712
X10.4684 Y-0.1949 Z6.8711
X10.4714 Y-0.1912 Z6.871
X10.4747 Y-0.1876 Z6.8709
X10.4782 Y-0.1844 Z6.8708
X10.482 Y-0.1813 Z6.8707
X10.4858 Y-0.1786 Z6.8705
X10.4899 Y-0.1761 Z6.8704
X10.4942 Y-0.1738 Z6.8702
X10.4985 Y-0.1718 Z6.8701
X10.5028 Y-0.1701 Z6.8699
X10.5072 Y-0.1686 Z6.8698
X10.5119 Y-0.1674 Z6.8696
X10.5167 Y-0.1664 Z6.8694
X10.521 Y-0.1657 Z6.8693
X10.5252 Y-0.1653 Z6.8691
X10.531 Y-0.1651 Z6.8689
X10.5345 Y-0.165 Z6.8688
X10.5395 Y-0.1653 Z6.8686
X10.544 Y-0.1656 Z6.8684
X10.5491 Y-0.1664 Z6.8683
X10.554 Y-0.1674 Z6.8681
X10.559 Y-0.1688 Z6.8679
X10.5638 Y-0.1704 Z6.8677
X10.5686 Y-0.1723 Z6.8676
X10.573 Y-0.1745 Z6.8674
X10.5773 Y-0.1769 Z6.8673
X10.5811 Y-0.1792 Z6.8672
X10.5849 Y-0.1819 Z6.8671
X10.5886 Y-0.1849 Z6.8669
X10.5921 Y-0.1882 Z6.8668
X10.5951 Y-0.1914 Z6.8667
X10.5978 Y-0.1947 Z6.8666
X10.6003 Y-0.198
X10.6025 Y-0.2015 Z6.8665
X10.6046 Y-0.2051 Z6.8664
X10.6064 Y-0.2086
X10.6079 Y-0.2123 Z6.8663
X10.6093 Y-0.2164
X10.6106 Y-0.2211 Z6.8662
X10.6114 Y-0.2246
X10.6119 Y-0.2278
X10.6125 Y-0.2333
X10.6126 Y-0.2346
Y-0.2347
G0 Z7.3559
Z6.9523
G1 Z6.8562 F1.
X10.6118 Y-0.242 F3.
X10.611 Y-0.2465
X10.61 Y-0.2505 Z6.8563
X10.6088 Y-0.2544
X10.6076 Y-0.2577
X10.606 Y-0.2615 Z6.8564
X10.6039 Y-0.2655 Z6.8565
X10.6016 Y-0.2693
X10.599 Y-0.273 Z6.8566
X10.5963 Y-0.2765 Z6.8567
X10.5932 Y-0.2799 Z6.8568
X10.5899 Y-0.283 Z6.8569
X10.5865 Y-0.2859 Z6.857
X10.5828 Y-0.2886 Z6.8571
X10.5777 Y-0.2918 Z6.8573
X10.5081 Y-0.3341 Z6.8597
X10.4973 Y-0.3407 Z6.8601
X10.4931 Y-0.3428 Z6.8603
X10.491 Y-0.3441
X10.489 Y-0.3454 Z6.8604
X10.4867 Y-0.3473 Z6.8605
X10.4845 Y-0.3494 Z6.8606
X10.4823 Y-0.3517
X10.4802 Y-0.3543 Z6.8607
X10.4781 Y-0.3571 Z6.8608
X10.4762 Y-0.3601 Z6.8609
X10.4745 Y-0.3632
X10.4729 Y-0.3665 Z6.861
X10.4716 Y-0.3699
X10.4704 Y-0.3733 Z6.8611
X10.4695 Y-0.3768
X10.4688 Y-0.3805
X10.4682 Y-0.3862 Z6.8612
X10.4681 Y-0.3873
X10.4688 Y-0.3924 Z6.8611
X10.4694 Y-0.3956
X10.4702 Y-0.3991
X10.4713 Y-0.4026 Z6.861
X10.4726 Y-0.4062
X10.4742 Y-0.4096 Z6.8609
X10.4759 Y-0.4129
X10.4778 Y-0.4159 Z6.8608
X10.4801 Y-0.419 Z6.8607
X10.4828 Y-0.4221 Z6.8606
X10.4855 Y-0.4249 Z6.8605
X10.4883 Y-0.4274 Z6.8604
X10.4914 Y-0.4298 Z6.8603
X10.4946 Y-0.4318 Z6.8602
X10.4985 Y-0.434 Z6.8601
X10.5027 Y-0.436 Z6.8599
X10.5072 Y-0.4377 Z6.8598
X10.5115 Y-0.4391 Z6.8596
X10.5159 Y-0.4402 Z6.8594
X10.5205 Y-0.441 Z6.8593
X10.5249 Y-0.4415 Z6.8591
X10.5302 Y-0.4418 Z6.8589
X10.5341 Z6.8588
X10.539 Y-0.4416 Z6.8586
X10.5434 Y-0.4413 Z6.8585
X10.5482 Y-0.4405 Z6.8583
X10.5529 Y-0.4395 Z6.8581
X10.5577 Y-0.4382 Z6.8579
X10.5623 Y-0.4365 Z6.8578
X10.5659 Y-0.435 Z6.8577
X10.5695 Y-0.4332 Z6.8576
X10.5729 Y-0.4312 Z6.8575
X10.576 Y-0.4291 Z6.8573
X10.5789 Y-0.4269
X10.5819 Y-0.4244 Z6.8572
X10.5846 Y-0.4216 Z6.8571
X10.5871 Y-0.4187 Z6.857
X10.5895 Y-0.4156 Z6.8569
X10.5916 Y-0.4122 Z6.8568
X10.5934 Y-0.4087
X10.595 Y-0.4051 Z6.8567
X10.5961 Y-0.4019
X10.597 Y-0.3985
X10.5976 Y-0.3954
X10.598 Y-0.3925 Z6.8566
X10.5983 Y-0.388
X10.5982 Y-0.3855
X10.5979 Y-0.3808
X10.5973 Y-0.3774 Z6.8567
X10.5966 Y-0.3742
X10.5956 Y-0.371
X10.5944 Y-0.368 Z6.8568
X10.593 Y-0.3649
X10.5914 Y-0.3618 Z6.8569
X10.5897 Y-0.359
X10.5877 Y-0.3562 Z6.857
X10.5854 Y-0.3533
X10.5829 Y-0.3506 Z6.8571
X10.5804 Y-0.3481 Z6.8572
X10.5779 Y-0.346 Z6.8573
X10.5751 Y-0.344 Z6.8574
X10.5716 Y-0.3419 Z6.8575
X10.5693 Y-0.3406 Z6.8576
X10.4908 Y-0.293 Z6.8603
X10.4857 Y-0.29 Z6.8605
X10.4832 Y-0.2883 Z6.8606
X10.4807 Y-0.2865 Z6.8607
X10.4779 Y-0.2841 Z6.8608
X10.475 Y-0.2813 Z6.8609
X10.4724 Y-0.2786 Z6.861
X10.4697 Y-0.2756 Z6.8611
X10.4671 Y-0.2722 Z6.8612
X10.4646 Y-0.2686 Z6.8613
X10.4624 Y-0.2648 Z6.8614
X10.4605 Y-0.2611
X10.4589 Y-0.2574 Z6.8615
X10.4575 Y-0.2534
X10.4564 Y-0.2495 Z6.8616
X10.4555 Y-0.2457
X10.4548 Y-0.2413
X10.4541 Y-0.2344 Z6.8617
X10.4546 Y-0.2291 Z6.8616
X10.4551 Y-0.2254
X10.4559 Y-0.2211
X10.457 Y-0.2171
X10.4582 Y-0.2133 Z6.8615
X10.4598 Y-0.2094
X10.4618 Y-0.2054 Z6.8614
X10.4636 Y-0.202 Z6.8613
X10.4657 Y-0.1987 Z6.8612
X10.4684 Y-0.1949 Z6.8611
X10.4714 Y-0.1912 Z6.861
X10.4747 Y-0.1876 Z6.8609
X10.4782 Y-0.1844 Z6.8608
X10.482 Y-0.1813 Z6.8607
X10.4858 Y-0.1786 Z6.8605
X10.4899 Y-0.1761 Z6.8604
X10.4942 Y-0.1738 Z6.8602
X10.4985 Y-0.1718 Z6.8601
X10.5028 Y-0.1701 Z6.8599
X10.5072 Y-0.1686 Z6.8598
X10.5119 Y-0.1674 Z6.8596
X10.5167 Y-0.1664 Z6.8594
X10.521 Y-0.1657 Z6.8593
X10.5252 Y-0.1653 Z6.8591
X10.531 Y-0.1651 Z6.8589
X10.5345 Y-0.165 Z6.8588
X10.5395 Y-0.1653 Z6.8586
X10.544 Y-0.1656 Z6.8584
X10.5491 Y-0.1664 Z6.8583
X10.554 Y-0.1674 Z6.8581
X10.559 Y-0.1688 Z6.8579
X10.5638 Y-0.1704 Z6.8577
X10.5686 Y-0.1723 Z6.8576
X10.573 Y-0.1745 Z6.8574
X10.5773 Y-0.1769 Z6.8573
X10.5811 Y-0.1792 Z6.8572
X10.5849 Y-0.1819 Z6.8571
X10.5886 Y-0.1849 Z6.8569
X10.5921 Y-0.1882 Z6.8568
X10.5951 Y-0.1914 Z6.8567
X10.5978 Y-0.1947 Z6.8566
X10.6003 Y-0.198
X10.6025 Y-0.2015 Z6.8565
X10.6046 Y-0.2051 Z6.8564
X10.6064 Y-0.2086
X10.6079 Y-0.2123 Z6.8563
X10.6093 Y-0.2164
X10.6106 Y-0.2211 Z6.8562
X10.6114 Y-0.2246
X10.6119 Y-0.2278
X10.6125 Y-0.2333
X10.6126 Y-0.2346
Y-0.2347
G0 Z7.3559
X10.6125
Z6.9523
G1 Z6.8462 F1.
X10.6118 Y-0.242 F3.
X10.611 Y-0.2465
X10.61 Y-0.2505 Z6.8463
X10.6088 Y-0.2544
X10.6076 Y-0.2577
X10.606 Y-0.2615 Z6.8464
X10.6039 Y-0.2655 Z6.8465
X10.6016 Y-0.2693
X10.599 Y-0.273 Z6.8466
X10.5963 Y-0.2765 Z6.8467
X10.5932 Y-0.2799 Z6.8468
X10.5899 Y-0.283 Z6.8469
X10.5865 Y-0.2859 Z6.847
X10.5828 Y-0.2886 Z6.8471
X10.5777 Y-0.2918 Z6.8473
X10.5081 Y-0.3341 Z6.8497
X10.4973 Y-0.3407 Z6.8501
X10.4931 Y-0.3428 Z6.8503
X10.491 Y-0.3441
X10.489 Y-0.3454 Z6.8504
X10.4867 Y-0.3473 Z6.8505
X10.4845 Y-0.3494 Z6.8506
X10.4823 Y-0.3517
X10.4802 Y-0.3543 Z6.8507
X10.4781 Y-0.3571 Z6.8508
X10.4762 Y-0.3601 Z6.8509
X10.4745 Y-0.3632
X10.4729 Y-0.3665 Z6.851
X10.4716 Y-0.3699
X10.4704 Y-0.3733 Z6.8511
X10.4695 Y-0.3768
X10.4688 Y-0.3805
X10.4682 Y-0.3862 Z6.8512
X10.4681 Y-0.3873
X10.4688 Y-0.3924 Z6.8511
X10.4694 Y-0.3956
X10.4702 Y-0.3991
X10.4713 Y-0.4026 Z6.851
X10.4726 Y-0.4062
X10.4742 Y-0.4096 Z6.8509
X10.4759 Y-0.4129
X10.4778 Y-0.4159 Z6.8508
X10.4801 Y-0.419 Z6.8507
X10.4828 Y-0.4221 Z6.8506
X10.4855 Y-0.4249 Z6.8505
X10.4883 Y-0.4274 Z6.8504
X10.4914 Y-0.4298 Z6.8503
X10.4946 Y-0.4318 Z6.8502
X10.4985 Y-0.434 Z6.8501
X10.5027 Y-0.436 Z6.8499
X10.5072 Y-0.4377 Z6.8498
X10.5115 Y-0.4391 Z6.8496
X10.5159 Y-0.4402 Z6.8494
X10.5205 Y-0.441 Z6.8493
X10.5249 Y-0.4415 Z6.8491
X10.5302 Y-0.4418 Z6.8489
X10.5341 Z6.8488
X10.539 Y-0.4416 Z6.8486
X10.5434 Y-0.4413 Z6.8485
X10.5482 Y-0.4405 Z6.8483
X10.5529 Y-0.4395 Z6.8481
X10.5577 Y-0.4382 Z6.8479
X10.5623 Y-0.4365 Z6.8478
X10.5659 Y-0.435 Z6.8477
X10.5695 Y-0.4332 Z6.8476
X10.5729 Y-0.4312 Z6.8475
X10.576 Y-0.4291 Z6.8473
X10.5789 Y-0.4269
X10.5819 Y-0.4244 Z6.8472
X10.5846 Y-0.4216 Z6.8471
X10.5871 Y-0.4187 Z6.847
X10.5895 Y-0.4156 Z6.8469
X10.5916 Y-0.4122 Z6.8468
X10.5934 Y-0.4087
X10.595 Y-0.4051 Z6.8467
X10.5961 Y-0.4019
X10.597 Y-0.3985
X10.5976 Y-0.3954
X10.598 Y-0.3925 Z6.8466
X10.5983 Y-0.388
X10.5982 Y-0.3855
X10.5979 Y-0.3808
X10.5973 Y-0.3774 Z6.8467
X10.5966 Y-0.3742
X10.5956 Y-0.371
X10.5944 Y-0.368 Z6.8468
X10.593 Y-0.3649
X10.5914 Y-0.3618 Z6.8469
X10.5897 Y-0.359
X10.5877 Y-0.3562 Z6.847
X10.5854 Y-0.3533
X10.5829 Y-0.3506 Z6.8471
X10.5804 Y-0.3481 Z6.8472
X10.5779 Y-0.346 Z6.8473
X10.5751 Y-0.344 Z6.8474
X10.5716 Y-0.3419 Z6.8475
X10.5693 Y-0.3406 Z6.8476
X10.4908 Y-0.293 Z6.8503
X10.4857 Y-0.29 Z6.8505
X10.4832 Y-0.2883 Z6.8506
X10.4807 Y-0.2865 Z6.8507
X10.4779 Y-0.2841 Z6.8508
X10.475 Y-0.2813 Z6.8509
X10.4724 Y-0.2786 Z6.851
X10.4697 Y-0.2756 Z6.8511
X10.4671 Y-0.2722 Z6.8512
X10.4646 Y-0.2686 Z6.8513
X10.4624 Y-0.2648 Z6.8514
X10.4605 Y-0.2611
X10.4589 Y-0.2574 Z6.8515
X10.4575 Y-0.2534
X10.4564 Y-0.2495 Z6.8516
X10.4555 Y-0.2457
X10.4548 Y-0.2413
X10.4541 Y-0.2344 Z6.8517
X10.4546 Y-0.2291 Z6.8516
X10.4551 Y-0.2254
X10.4559 Y-0.2211
X10.457 Y-0.2171
X10.4582 Y-0.2133 Z6.8515
X10.4598 Y-0.2094
X10.4618 Y-0.2054 Z6.8514
X10.4636 Y-0.202 Z6.8513
X10.4657 Y-0.1987 Z6.8512
X10.4684 Y-0.1949 Z6.8511
X10.4714 Y-0.1912 Z6.851
X10.4747 Y-0.1876 Z6.8509
X10.4782 Y-0.1844 Z6.8508
X10.482 Y-0.1813 Z6.8507
X10.4858 Y-0.1786 Z6.8505
X10.4899 Y-0.1761 Z6.8504
X10.4942 Y-0.1738 Z6.8502
X10.4985 Y-0.1718 Z6.8501
X10.5028 Y-0.1701 Z6.8499
X10.5072 Y-0.1686 Z6.8498
X10.5119 Y-0.1674 Z6.8496
X10.5167 Y-0.1664 Z6.8494
X10.521 Y-0.1657 Z6.8493
X10.5252 Y-0.1653 Z6.8491
X10.531 Y-0.1651 Z6.8489
X10.5345 Y-0.165 Z6.8488
X10.5395 Y-0.1653 Z6.8486
X10.544 Y-0.1656 Z6.8484
X10.5491 Y-0.1664 Z6.8483
X10.554 Y-0.1674 Z6.8481
X10.559 Y-0.1688 Z6.8479
X10.5638 Y-0.1704 Z6.8477
X10.5686 Y-0.1723 Z6.8476
X10.573 Y-0.1745 Z6.8474
X10.5773 Y-0.1769 Z6.8473
X10.5811 Y-0.1792 Z6.8472
X10.5849 Y-0.1819 Z6.8471
X10.5886 Y-0.1849 Z6.8469
X10.5921 Y-0.1882 Z6.8468
X10.5951 Y-0.1914 Z6.8467
X10.5978 Y-0.1947 Z6.8466
X10.6003 Y-0.198
X10.6025 Y-0.2015 Z6.8465
X10.6046 Y-0.2051 Z6.8464
X10.6064 Y-0.2086
X10.6079 Y-0.2123 Z6.8463
X10.6093 Y-0.2164
X10.6106 Y-0.2211 Z6.8462
X10.6114 Y-0.2246
X10.6119 Y-0.2278
X10.6125 Y-0.2333
X10.6126 Y-0.2346
X10.6125 Y-0.2347
G0 Z7.3559
X10.2925 Y-0.2346
Z6.9648
G1 Z6.8882 F1.
X10.2918 Y-0.242 Z6.8883 F3.
X10.291 Y-0.2465
X10.29 Y-0.2505
X10.2888 Y-0.2543 Z6.8884
X10.2876 Y-0.2577
X10.2859 Y-0.2614 Z6.8885
X10.2839 Y-0.2655 Z6.8886
X10.2815 Y-0.2693 Z6.8887
X10.279 Y-0.273 Z6.8888
X10.2762 Y-0.2765 Z6.8889
X10.2732 Y-0.2798 Z6.8891
X10.2699 Y-0.283 Z6.8892
X10.2665 Y-0.2859 Z6.8893
X10.2628 Y-0.2886 Z6.8895
X10.2577 Y-0.2918 Z6.8897
X10.2024 Y-0.3254 Z6.8922
X10.1773 Y-0.3406 Z6.8934
X10.1732 Y-0.3428 Z6.8936
X10.1711 Y-0.344 Z6.8937
X10.1691 Y-0.3454 Z6.8938
X10.1667 Y-0.3472 Z6.8939
X10.1645 Y-0.3494 Z6.894
X10.1623 Y-0.3517 Z6.8941
X10.1601 Y-0.3543 Z6.8942
X10.1581 Y-0.3571 Z6.8943
X10.1562 Y-0.3601 Z6.8944
X10.1544 Y-0.3632 Z6.8945
X10.1529 Y-0.3665 Z6.8946
X10.1515 Y-0.3699
X10.1504 Y-0.3733 Z6.8947
X10.1495 Y-0.3768
X10.1488 Y-0.3805
X10.1481 Y-0.3862 Z6.8948
Y-0.3873
X10.1487 Y-0.3923 Z6.8947
X10.1493 Y-0.3956
X10.1501 Y-0.399
X10.1512 Y-0.4026 Z6.8946
X10.1526 Y-0.4062
X10.1542 Y-0.4096 Z6.8945
X10.1559 Y-0.4129 Z6.8944
X10.1578 Y-0.4159 Z6.8943
X10.16 Y-0.419 Z6.8942
X10.1627 Y-0.4221 Z6.8941
X10.1655 Y-0.4249 Z6.894
X10.1683 Y-0.4274 Z6.8938
X10.1714 Y-0.4298 Z6.8937
X10.1746 Y-0.4318 Z6.8935
X10.1785 Y-0.434 Z6.8934
X10.1826 Y-0.436 Z6.8932
X10.1871 Y-0.4377 Z6.8929
X10.1914 Y-0.4391 Z6.8927
X10.1958 Y-0.4401 Z6.8925
X10.2005 Y-0.441 Z6.8923
X10.2049 Y-0.4415 Z6.8921
X10.2101 Y-0.4418 Z6.8919
X10.214 Z6.8917
X10.2189 Y-0.4416 Z6.8915
X10.2233 Y-0.4413 Z6.8912
X10.2281 Y-0.4405 Z6.891
X10.2329 Y-0.4395 Z6.8908
X10.2376 Y-0.4382 Z6.8906
X10.2422 Y-0.4365 Z6.8904
X10.2459 Y-0.435 Z6.8902
X10.2494 Y-0.4332 Z6.8901
X10.2528 Y-0.4312 Z6.8899
X10.256 Y-0.4291 Z6.8898
X10.2589 Y-0.4269 Z6.8897
X10.2618 Y-0.4244 Z6.8895
X10.2646 Y-0.4216 Z6.8894
X10.2671 Y-0.4187 Z6.8893
X10.2694 Y-0.4156 Z6.8892
X10.2716 Y-0.4122 Z6.8891
X10.2734 Y-0.4087 Z6.889
X10.275 Y-0.4051
X10.2761 Y-0.4019 Z6.8889
X10.277 Y-0.3985
X10.2776 Y-0.3954
X10.278 Y-0.3925 Z6.8888
X10.2782 Y-0.388
Y-0.3855
X10.2778 Y-0.3808 Z6.8889
X10.2773 Y-0.3774
X10.2765 Y-0.3742
X10.2756 Y-0.371
X10.2744 Y-0.368 Z6.889
X10.273 Y-0.3649 Z6.8891
X10.2714 Y-0.3618
X10.2697 Y-0.359 Z6.8892
X10.2677 Y-0.3562 Z6.8893
X10.2654 Y-0.3533 Z6.8894
X10.2629 Y-0.3506 Z6.8895
X10.2604 Y-0.3481 Z6.8896
X10.2578 Y-0.346 Z6.8897
X10.2551 Y-0.344 Z6.8898
X10.2516 Y-0.3419 Z6.89
X10.2493 Y-0.3406 Z6.8901
X10.1708 Y-0.293 Z6.8937
X10.1657 Y-0.29 Z6.8939
X10.1632 Y-0.2883 Z6.8941
X10.1608 Y-0.2865 Z6.8942
X10.1579 Y-0.2841 Z6.8943
X10.1549 Y-0.2814 Z6.8945
X10.1523 Y-0.2786 Z6.8946
X10.1497 Y-0.2756 Z6.8947
X10.1471 Y-0.2722 Z6.8948
X10.1446 Y-0.2687 Z6.8949
X10.1423 Y-0.2649 Z6.895
X10.1405 Y-0.2612 Z6.8951
X10.1389 Y-0.2574 Z6.8952
X10.1375 Y-0.2535 Z6.8953
X10.1364 Y-0.2496
X10.1355 Y-0.2457 Z6.8954
X10.1348 Y-0.2414
X10.134 Y-0.2344
X10.1345 Y-0.2291
X10.135 Y-0.2254
X10.1359 Y-0.2211 Z6.8953
X10.137 Y-0.2171
X10.1382 Y-0.2133 Z6.8952
X10.1398 Y-0.2094
X10.1417 Y-0.2054 Z6.8951
X10.1436 Y-0.202 Z6.895
X10.1456 Y-0.1987 Z6.8949
X10.1483 Y-0.1949 Z6.8948
X10.1513 Y-0.1912 Z6.8946
X10.1546 Y-0.1877 Z6.8945
X10.1582 Y-0.1844 Z6.8943
X10.1619 Y-0.1813 Z6.8941
X10.1658 Y-0.1786 Z6.8939
X10.1698 Y-0.1761 Z6.8938
X10.1742 Y-0.1738 Z6.8936
X10.1785 Y-0.1718 Z6.8933
X10.1828 Y-0.1701 Z6.8931
X10.1872 Y-0.1686 Z6.8929
X10.1919 Y-0.1674 Z6.8927
X10.1967 Y-0.1664 Z6.8925
X10.201 Y-0.1657 Z6.8923
X10.2051 Y-0.1653 Z6.8921
X10.2109 Y-0.1651 Z6.8918
X10.2144 Y-0.165 Z6.8917
X10.2194 Y-0.1653 Z6.8914
X10.2239 Y-0.1656 Z6.8912
X10.229 Y-0.1664 Z6.891
X10.2339 Y-0.1674 Z6.8907
X10.2389 Y-0.1688 Z6.8905
X10.2438 Y-0.1704 Z6.8903
X10.2485 Y-0.1723 Z6.8901
X10.253 Y-0.1745 Z6.8899
X10.2572 Y-0.1768 Z6.8897
X10.261 Y-0.1792 Z6.8896
X10.2648 Y-0.1819 Z6.8894
X10.2685 Y-0.1849 Z6.8893
X10.2721 Y-0.1882 Z6.8891
X10.275 Y-0.1914 Z6.889
X10.2778 Y-0.1947 Z6.8889
X10.2802 Y-0.198 Z6.8887
X10.2825 Y-0.2015
X10.2846 Y-0.2051 Z6.8886
X10.2863 Y-0.2086 Z6.8885
X10.2879 Y-0.2123 Z6.8884
X10.2893 Y-0.2164
X10.2906 Y-0.2211 Z6.8883
X10.2913 Y-0.2246
X10.2919 Y-0.2278 Z6.8882
X10.2924 Y-0.2333
X10.2925 Y-0.2346
G0 Z7.3559
Y-0.2347
Z6.9648
G1 Z6.8782 F1.
X10.2918 Y-0.242 Z6.8783 F3.
X10.291 Y-0.2465
X10.29 Y-0.2505
X10.2888 Y-0.2543 Z6.8784
X10.2876 Y-0.2577
X10.2859 Y-0.2614 Z6.8785
X10.2839 Y-0.2655 Z6.8786
X10.2815 Y-0.2693 Z6.8787
X10.279 Y-0.273 Z6.8788
X10.2762 Y-0.2765 Z6.8789
X10.2732 Y-0.2798 Z6.8791
X10.2699 Y-0.283 Z6.8792
X10.2665 Y-0.2859 Z6.8793
X10.2628 Y-0.2886 Z6.8795
X10.2577 Y-0.2918 Z6.8797
X10.2024 Y-0.3254 Z6.8822
X10.1773 Y-0.3406 Z6.8834
X10.1732 Y-0.3428 Z6.8836
X10.1711 Y-0.344 Z6.8837
X10.1691 Y-0.3454 Z6.8838
X10.1667 Y-0.3472 Z6.8839
X10.1645 Y-0.3494 Z6.884
X10.1623 Y-0.3517 Z6.8841
X10.1601 Y-0.3543 Z6.8842
X10.1581 Y-0.3571 Z6.8843
X10.1562 Y-0.3601 Z6.8844
X10.1544 Y-0.3632 Z6.8845
X10.1529 Y-0.3665 Z6.8846
X10.1515 Y-0.3699
X10.1504 Y-0.3733 Z6.8847
X10.1495 Y-0.3768
X10.1488 Y-0.3805
X10.1481 Y-0.3862 Z6.8848
Y-0.3873
X10.1487 Y-0.3923 Z6.8847
X10.1493 Y-0.3956
X10.1501 Y-0.399
X10.1512 Y-0.4026 Z6.8846
X10.1526 Y-0.4062
X10.1542 Y-0.4096 Z6.8845
X10.1559 Y-0.4129 Z6.8844
X10.1578 Y-0.4159 Z6.8843
X10.16 Y-0.419 Z6.8842
X10.1627 Y-0.4221 Z6.8841
X10.1655 Y-0.4249 Z6.884
X10.1683 Y-0.4274 Z6.8838
X10.1714 Y-0.4298 Z6.8837
X10.1746 Y-0.4318 Z6.8835
X10.1785 Y-0.434 Z6.8834
X10.1826 Y-0.436 Z6.8832
X10.1871 Y-0.4377 Z6.8829
X10.1914 Y-0.4391 Z6.8827
X10.1958 Y-0.4401 Z6.8825
X10.2005 Y-0.441 Z6.8823
X10.2049 Y-0.4415 Z6.8821
X10.2101 Y-0.4418 Z6.8819
X10.214 Z6.8817
X10.2189 Y-0.4416 Z6.8815
X10.2233 Y-0.4413 Z6.8812
X10.2281 Y-0.4405 Z6.881
X10.2329 Y-0.4395 Z6.8808
X10.2376 Y-0.4382 Z6.8806
X10.2422 Y-0.4365 Z6.8804
X10.2459 Y-0.435 Z6.8802
X10.2494 Y-0.4332 Z6.8801
X10.2528 Y-0.4312 Z6.8799
X10.256 Y-0.4291 Z6.8798
X10.2589 Y-0.4269 Z6.8797
X10.2618 Y-0.4244 Z6.8795
X10.2646 Y-0.4216 Z6.8794
X10.2671 Y-0.4187 Z6.8793
X10.2694 Y-0.4156 Z6.8792
X10.2716 Y-0.4122 Z6.8791
X10.2734 Y-0.4087 Z6.879
X10.275 Y-0.4051
X10.2761 Y-0.4019 Z6.8789
X10.277 Y-0.3985
X10.2776 Y-0.3954
X10.278 Y-0.3925 Z6.8788
X10.2782 Y-0.388
Y-0.3855
X10.2778 Y-0.3808 Z6.8789
X10.2773 Y-0.3774
X10.2765 Y-0.3742
X10.2756 Y-0.371
X10.2744 Y-0.368 Z6.879
X10.273 Y-0.3649 Z6.8791
X10.2714 Y-0.3618
X10.2697 Y-0.359 Z6.8792
X10.2677 Y-0.3562 Z6.8793
X10.2654 Y-0.3533 Z6.8794
X10.2629 Y-0.3506 Z6.8795
X10.2604 Y-0.3481 Z6.8796
X10.2578 Y-0.346 Z6.8797
X10.2551 Y-0.344 Z6.8798
X10.2516 Y-0.3419 Z6.88
X10.2493 Y-0.3406 Z6.8801
X10.1708 Y-0.293 Z6.8837
X10.1657 Y-0.29 Z6.8839
X10.1632 Y-0.2883 Z6.8841
X10.1608 Y-0.2865 Z6.8842
X10.1579 Y-0.2841 Z6.8843
X10.1549 Y-0.2814 Z6.8845
X10.1523 Y-0.2786 Z6.8846
X10.1497 Y-0.2756 Z6.8847
X10.1471 Y-0.2722 Z6.8848
X10.1446 Y-0.2687 Z6.8849
X10.1423 Y-0.2649 Z6.885
X10.1405 Y-0.2612 Z6.8851
X10.1389 Y-0.2574 Z6.8852
X10.1375 Y-0.2535 Z6.8853
X10.1364 Y-0.2496
X10.1355 Y-0.2457 Z6.8854
X10.1348 Y-0.2414
X10.134 Y-0.2344
X10.1345 Y-0.2291
X10.135 Y-0.2254
X10.1359 Y-0.2211 Z6.8853
X10.137 Y-0.2171
X10.1382 Y-0.2133 Z6.8852
X10.1398 Y-0.2094
X10.1417 Y-0.2054 Z6.8851
X10.1436 Y-0.202 Z6.885
X10.1456 Y-0.1987 Z6.8849
X10.1483 Y-0.1949 Z6.8848
X10.1513 Y-0.1912 Z6.8846
X10.1546 Y-0.1877 Z6.8845
X10.1582 Y-0.1844 Z6.8843
X10.1619 Y-0.1813 Z6.8841
X10.1658 Y-0.1786 Z6.8839
X10.1698 Y-0.1761 Z6.8838
X10.1742 Y-0.1738 Z6.8836
X10.1785 Y-0.1718 Z6.8833
X10.1828 Y-0.1701 Z6.8831
X10.1872 Y-0.1686 Z6.8829
X10.1919 Y-0.1674 Z6.8827
X10.1967 Y-0.1664 Z6.8825
X10.201 Y-0.1657 Z6.8823
X10.2051 Y-0.1653 Z6.8821
X10.2109 Y-0.1651 Z6.8818
X10.2144 Y-0.165 Z6.8817
X10.2194 Y-0.1653 Z6.8814
X10.2239 Y-0.1656 Z6.8812
X10.229 Y-0.1664 Z6.881
X10.2339 Y-0.1674 Z6.8807
X10.2389 Y-0.1688 Z6.8805
X10.2438 Y-0.1704 Z6.8803
X10.2485 Y-0.1723 Z6.8801
X10.253 Y-0.1745 Z6.8799
X10.2572 Y-0.1768 Z6.8797
X10.261 Y-0.1792 Z6.8796
X10.2648 Y-0.1819 Z6.8794
X10.2685 Y-0.1849 Z6.8793
X10.2721 Y-0.1882 Z6.8791
X10.275 Y-0.1914 Z6.879
X10.2778 Y-0.1947 Z6.8789
X10.2802 Y-0.198 Z6.8787
X10.2825 Y-0.2015
X10.2846 Y-0.2051 Z6.8786
X10.2863 Y-0.2086 Z6.8785
X10.2879 Y-0.2123 Z6.8784
X10.2893 Y-0.2164
X10.2906 Y-0.2211 Z6.8783
X10.2913 Y-0.2246
X10.2919 Y-0.2278 Z6.8782
X10.2924 Y-0.2333
X10.2925 Y-0.2346
Y-0.2347
G0 Z7.3559
Z6.9648
G1 Z6.8682 F1.
X10.2918 Y-0.242 Z6.8683 F3.
X10.291 Y-0.2465
X10.29 Y-0.2505
X10.2888 Y-0.2543 Z6.8684
X10.2876 Y-0.2577
X10.2859 Y-0.2614 Z6.8685
X10.2839 Y-0.2655 Z6.8686
X10.2815 Y-0.2693 Z6.8687
X10.279 Y-0.273 Z6.8688
X10.2762 Y-0.2765 Z6.8689
X10.2732 Y-0.2798 Z6.8691
X10.2699 Y-0.283 Z6.8692
X10.2665 Y-0.2859 Z6.8693
X10.2628 Y-0.2886 Z6.8695
X10.2577 Y-0.2918 Z6.8697
X10.2024 Y-0.3254 Z6.8722
X10.1773 Y-0.3406 Z6.8734
X10.1732 Y-0.3428 Z6.8736
X10.1711 Y-0.344 Z6.8737
X10.1691 Y-0.3454 Z6.8738
X10.1667 Y-0.3472 Z6.8739
X10.1645 Y-0.3494 Z6.874
X10.1623 Y-0.3517 Z6.8741
X10.1601 Y-0.3543 Z6.8742
X10.1581 Y-0.3571 Z6.8743
X10.1562 Y-0.3601 Z6.8744
X10.1544 Y-0.3632 Z6.8745
X10.1529 Y-0.3665 Z6.8746
X10.1515 Y-0.3699
X10.1504 Y-0.3733 Z6.8747
X10.1495 Y-0.3768
X10.1488 Y-0.3805
X10.1481 Y-0.3862 Z6.8748
Y-0.3873
X10.1487 Y-0.3923 Z6.8747
X10.1493 Y-0.3956
X10.1501 Y-0.399
X10.1512 Y-0.4026 Z6.8746
X10.1526 Y-0.4062
X10.1542 Y-0.4096 Z6.8745
X10.1559 Y-0.4129 Z6.8744
X10.1578 Y-0.4159 Z6.8743
X10.16 Y-0.419 Z6.8742
X10.1627 Y-0.4221 Z6.8741
X10.1655 Y-0.4249 Z6.874
X10.1683 Y-0.4274 Z6.8738
X10.1714 Y-0.4298 Z6.8737
X10.1746 Y-0.4318 Z6.8735
X10.1785 Y-0.434 Z6.8734
X10.1826 Y-0.436 Z6.8732
X10.1871 Y-0.4377 Z6.8729
X10.1914 Y-0.4391 Z6.8727
X10.1958 Y-0.4401 Z6.8725
X10.2005 Y-0.441 Z6.8723
X10.2049 Y-0.4415 Z6.8721
X10.2101 Y-0.4418 Z6.8719
X10.214 Z6.8717
X10.2189 Y-0.4416 Z6.8715
X10.2233 Y-0.4413 Z6.8712
X10.2281 Y-0.4405 Z6.871
X10.2329 Y-0.4395 Z6.8708
X10.2376 Y-0.4382 Z6.8706
X10.2422 Y-0.4365 Z6.8704
X10.2459 Y-0.435 Z6.8702
X10.2494 Y-0.4332 Z6.8701
X10.2528 Y-0.4312 Z6.8699
X10.256 Y-0.4291 Z6.8698
X10.2589 Y-0.4269 Z6.8697
X10.2618 Y-0.4244 Z6.8695
X10.2646 Y-0.4216 Z6.8694
X10.2671 Y-0.4187 Z6.8693
X10.2694 Y-0.4156 Z6.8692
X10.2716 Y-0.4122 Z6.8691
X10.2734 Y-0.4087 Z6.869
X10.275 Y-0.4051
X10.2761 Y-0.4019 Z6.8689
X10.277 Y-0.3985
X10.2776 Y-0.3954
X10.278 Y-0.3925 Z6.8688
X10.2782 Y-0.388
Y-0.3855
X10.2778 Y-0.3808 Z6.8689
X10.2773 Y-0.3774
X10.2765 Y-0.3742
X10.2756 Y-0.371
X10.2744 Y-0.368 Z6.869
X10.273 Y-0.3649 Z6.8691
X10.2714 Y-0.3618
X10.2697 Y-0.359 Z6.8692
X10.2677 Y-0.3562 Z6.8693
X10.2654 Y-0.3533 Z6.8694
X10.2629 Y-0.3506 Z6.8695
X10.2604 Y-0.3481 Z6.8696
X10.2578 Y-0.346 Z6.8697
X10.2551 Y-0.344 Z6.8698
X10.2516 Y-0.3419 Z6.87
X10.2493 Y-0.3406 Z6.8701
X10.1708 Y-0.293 Z6.8737
X10.1657 Y-0.29 Z6.8739
X10.1632 Y-0.2883 Z6.8741
X10.1608 Y-0.2865 Z6.8742
X10.1579 Y-0.2841 Z6.8743
X10.1549 Y-0.2814 Z6.8745
X10.1523 Y-0.2786 Z6.8746
X10.1497 Y-0.2756 Z6.8747
X10.1471 Y-0.2722 Z6.8748
X10.1446 Y-0.2687 Z6.8749
X10.1423 Y-0.2649 Z6.875
X10.1405 Y-0.2612 Z6.8751
X10.1389 Y-0.2574 Z6.8752
X10.1375 Y-0.2535 Z6.8753
X10.1364 Y-0.2496
X10.1355 Y-0.2457 Z6.8754
X10.1348 Y-0.2414
X10.134 Y-0.2344
X10.1345 Y-0.2291
X10.135 Y-0.2254
X10.1359 Y-0.2211 Z6.8753
X10.137 Y-0.2171
X10.1382 Y-0.2133 Z6.8752
X10.1398 Y-0.2094
X10.1417 Y-0.2054 Z6.8751
X10.1436 Y-0.202 Z6.875
X10.1456 Y-0.1987 Z6.8749
X10.1483 Y-0.1949 Z6.8748
X10.1513 Y-0.1912 Z6.8746
X10.1546 Y-0.1877 Z6.8745
X10.1582 Y-0.1844 Z6.8743
X10.1619 Y-0.1813 Z6.8741
X10.1658 Y-0.1786 Z6.8739
X10.1698 Y-0.1761 Z6.8738
X10.1742 Y-0.1738 Z6.8736
X10.1785 Y-0.1718 Z6.8733
X10.1828 Y-0.1701 Z6.8731
X10.1872 Y-0.1686 Z6.8729
X10.1919 Y-0.1674 Z6.8727
X10.1967 Y-0.1664 Z6.8725
X10.201 Y-0.1657 Z6.8723
X10.2051 Y-0.1653 Z6.8721
X10.2109 Y-0.1651 Z6.8718
X10.2144 Y-0.165 Z6.8717
X10.2194 Y-0.1653 Z6.8714
X10.2239 Y-0.1656 Z6.8712
X10.229 Y-0.1664 Z6.871
X10.2339 Y-0.1674 Z6.8707
X10.2389 Y-0.1688 Z6.8705
X10.2438 Y-0.1704 Z6.8703
X10.2485 Y-0.1723 Z6.8701
X10.253 Y-0.1745 Z6.8699
X10.2572 Y-0.1768 Z6.8697
X10.261 Y-0.1792 Z6.8696
X10.2648 Y-0.1819 Z6.8694
X10.2685 Y-0.1849 Z6.8693
X10.2721 Y-0.1882 Z6.8691
X10.275 Y-0.1914 Z6.869
X10.2778 Y-0.1947 Z6.8689
X10.2802 Y-0.198 Z6.8687
X10.2825 Y-0.2015
X10.2846 Y-0.2051 Z6.8686
X10.2863 Y-0.2086 Z6.8685
X10.2879 Y-0.2123 Z6.8684
X10.2893 Y-0.2164
X10.2906 Y-0.2211 Z6.8683
X10.2913 Y-0.2246
X10.2919 Y-0.2278 Z6.8682
X10.2924 Y-0.2333
X10.2925 Y-0.2346
Y-0.2347
G0 Z7.3559
Y-0.2348
Z6.9648
G1 Z6.8582 F1.
X10.2918 Y-0.242 Z6.8583 F3.
X10.291 Y-0.2465
X10.29 Y-0.2505
X10.2888 Y-0.2543 Z6.8584
X10.2876 Y-0.2577
X10.2859 Y-0.2614 Z6.8585
X10.2839 Y-0.2655 Z6.8586
X10.2815 Y-0.2693 Z6.8587
X10.279 Y-0.273 Z6.8588
X10.2762 Y-0.2765 Z6.8589
X10.2732 Y-0.2798 Z6.8591
X10.2699 Y-0.283 Z6.8592
X10.2665 Y-0.2859 Z6.8593
X10.2628 Y-0.2886 Z6.8595
X10.2577 Y-0.2918 Z6.8597
X10.2024 Y-0.3254 Z6.8622
X10.1773 Y-0.3406 Z6.8634
X10.1732 Y-0.3428 Z6.8636
X10.1711 Y-0.344 Z6.8637
X10.1691 Y-0.3454 Z6.8638
X10.1667 Y-0.3472 Z6.8639
X10.1645 Y-0.3494 Z6.864
X10.1623 Y-0.3517 Z6.8641
X10.1601 Y-0.3543 Z6.8642
X10.1581 Y-0.3571 Z6.8643
X10.1562 Y-0.3601 Z6.8644
X10.1544 Y-0.3632 Z6.8645
X10.1529 Y-0.3665 Z6.8646
X10.1515 Y-0.3699
X10.1504 Y-0.3733 Z6.8647
X10.1495 Y-0.3768
X10.1488 Y-0.3805
X10.1481 Y-0.3862 Z6.8648
Y-0.3873
X10.1487 Y-0.3923 Z6.8647
X10.1493 Y-0.3956
X10.1501 Y-0.399
X10.1512 Y-0.4026 Z6.8646
X10.1526 Y-0.4062
X10.1542 Y-0.4096 Z6.8645
X10.1559 Y-0.4129 Z6.8644
X10.1578 Y-0.4159 Z6.8643
X10.16 Y-0.419 Z6.8642
X10.1627 Y-0.4221 Z6.8641
X10.1655 Y-0.4249 Z6.864
X10.1683 Y-0.4274 Z6.8638
X10.1714 Y-0.4298 Z6.8637
X10.1746 Y-0.4318 Z6.8635
X10.1785 Y-0.434 Z6.8634
X10.1826 Y-0.436 Z6.8632
X10.1871 Y-0.4377 Z6.8629
X10.1914 Y-0.4391 Z6.8627
X10.1958 Y-0.4401 Z6.8625
X10.2005 Y-0.441 Z6.8623
X10.2049 Y-0.4415 Z6.8621
X10.2101 Y-0.4418 Z6.8619
X10.214 Z6.8617
X10.2189 Y-0.4416 Z6.8615
X10.2233 Y-0.4413 Z6.8612
X10.2281 Y-0.4405 Z6.861
X10.2329 Y-0.4395 Z6.8608
X10.2376 Y-0.4382 Z6.8606
X10.2422 Y-0.4365 Z6.8604
X10.2459 Y-0.435 Z6.8602
X10.2494 Y-0.4332 Z6.8601
X10.2528 Y-0.4312 Z6.8599
X10.256 Y-0.4291 Z6.8598
X10.2589 Y-0.4269 Z6.8597
X10.2618 Y-0.4244 Z6.8595
X10.2646 Y-0.4216 Z6.8594
X10.2671 Y-0.4187 Z6.8593
X10.2694 Y-0.4156 Z6.8592
X10.2716 Y-0.4122 Z6.8591
X10.2734 Y-0.4087 Z6.859
X10.275 Y-0.4051
X10.2761 Y-0.4019 Z6.8589
X10.277 Y-0.3985
X10.2776 Y-0.3954
X10.278 Y-0.3925 Z6.8588
X10.2782 Y-0.388
Y-0.3855
X10.2778 Y-0.3808 Z6.8589
X10.2773 Y-0.3774
X10.2765 Y-0.3742
X10.2756 Y-0.371
X10.2744 Y-0.368 Z6.859
X10.273 Y-0.3649 Z6.8591
X10.2714 Y-0.3618
X10.2697 Y-0.359 Z6.8592
X10.2677 Y-0.3562 Z6.8593
X10.2654 Y-0.3533 Z6.8594
X10.2629 Y-0.3506 Z6.8595
X10.2604 Y-0.3481 Z6.8596
X10.2578 Y-0.346 Z6.8597
X10.2551 Y-0.344 Z6.8598
X10.2516 Y-0.3419 Z6.86
X10.2493 Y-0.3406 Z6.8601
X10.1708 Y-0.293 Z6.8637
X10.1657 Y-0.29 Z6.8639
X10.1632 Y-0.2883 Z6.8641
X10.1608 Y-0.2865 Z6.8642
X10.1579 Y-0.2841 Z6.8643
X10.1549 Y-0.2814 Z6.8645
X10.1523 Y-0.2786 Z6.8646
X10.1497 Y-0.2756 Z6.8647
X10.1471 Y-0.2722 Z6.8648
X10.1446 Y-0.2687 Z6.8649
X10.1423 Y-0.2649 Z6.865
X10.1405 Y-0.2612 Z6.8651
X10.1389 Y-0.2574 Z6.8652
X10.1375 Y-0.2535 Z6.8653
X10.1364 Y-0.2496
X10.1355 Y-0.2457 Z6.8654
X10.1348 Y-0.2414
X10.134 Y-0.2344
X10.1345 Y-0.2291
X10.135 Y-0.2254
X10.1359 Y-0.2211 Z6.8653
X10.137 Y-0.2171
X10.1382 Y-0.2133 Z6.8652
X10.1398 Y-0.2094
X10.1417 Y-0.2054 Z6.8651
X10.1436 Y-0.202 Z6.865
X10.1456 Y-0.1987 Z6.8649
X10.1483 Y-0.1949 Z6.8648
X10.1513 Y-0.1912 Z6.8646
X10.1546 Y-0.1877 Z6.8645
X10.1582 Y-0.1844 Z6.8643
X10.1619 Y-0.1813 Z6.8641
X10.1658 Y-0.1786 Z6.8639
X10.1698 Y-0.1761 Z6.8638
X10.1742 Y-0.1738 Z6.8636
X10.1785 Y-0.1718 Z6.8633
X10.1828 Y-0.1701 Z6.8631
X10.1872 Y-0.1686 Z6.8629
X10.1919 Y-0.1674 Z6.8627
X10.1967 Y-0.1664 Z6.8625
X10.201 Y-0.1657 Z6.8623
X10.2051 Y-0.1653 Z6.8621
X10.2109 Y-0.1651 Z6.8618
X10.2144 Y-0.165 Z6.8617
X10.2194 Y-0.1653 Z6.8614
X10.2239 Y-0.1656 Z6.8612
X10.229 Y-0.1664 Z6.861
X10.2339 Y-0.1674 Z6.8607
X10.2389 Y-0.1688 Z6.8605
X10.2438 Y-0.1704 Z6.8603
X10.2485 Y-0.1723 Z6.8601
X10.253 Y-0.1745 Z6.8599
X10.2572 Y-0.1768 Z6.8597
X10.261 Y-0.1792 Z6.8596
X10.2648 Y-0.1819 Z6.8594
X10.2685 Y-0.1849 Z6.8593
X10.2721 Y-0.1882 Z6.8591
X10.275 Y-0.1914 Z6.859
X10.2778 Y-0.1947 Z6.8589
X10.2802 Y-0.198 Z6.8587
X10.2825 Y-0.2015
X10.2846 Y-0.2051 Z6.8586
X10.2863 Y-0.2086 Z6.8585
X10.2879 Y-0.2123 Z6.8584
X10.2893 Y-0.2164
X10.2906 Y-0.2211 Z6.8583
X10.2913 Y-0.2246
X10.2919 Y-0.2278 Z6.8582
X10.2924 Y-0.2333
X10.2925 Y-0.2346
Y-0.2348
G0 Z7.3559
X9.9725 Y-0.2346
Z6.9807
G1 Z6.9037 F1.
X9.9717 Y-0.242 Z6.9038 F3.
X9.9709 Y-0.2465
X9.9699 Y-0.2505 Z6.9039
X9.9688 Y-0.2543
X9.9675 Y-0.2577 Z6.904
X9.9659 Y-0.2614 Z6.9041
X9.9638 Y-0.2654 Z6.9042
X9.9615 Y-0.2693 Z6.9043
X9.959 Y-0.273 Z6.9045
X9.9562 Y-0.2765 Z6.9046
X9.9531 Y-0.2798 Z6.9048
X9.9498 Y-0.283 Z6.905
X9.9465 Y-0.2859 Z6.9052
X9.9428 Y-0.2886 Z6.9054
X9.9378 Y-0.2918 Z6.9056
X9.8834 Y-0.3248 Z6.9087
X9.8573 Y-0.3406 Z6.9102
X9.8532 Y-0.3427 Z6.9104
X9.8512 Y-0.3439 Z6.9105
X9.8491 Y-0.3454 Z6.9107
X9.8467 Y-0.3472 Z6.9108
X9.8445 Y-0.3493 Z6.9109
X9.8423 Y-0.3516 Z6.9111
X9.8401 Y-0.3542 Z6.9112
X9.8381 Y-0.3571 Z6.9113
X9.8361 Y-0.3601 Z6.9114
X9.8344 Y-0.3632 Z6.9115
X9.8328 Y-0.3665 Z6.9116
X9.8315 Y-0.3698 Z6.9117
X9.8304 Y-0.3733
X9.8295 Y-0.3768 Z6.9118
X9.8288 Y-0.3805
X9.8281 Y-0.3861 Z6.9119
X9.828 Y-0.3873
X9.8287 Y-0.3923 Z6.9118
X9.8293 Y-0.3955
X9.8301 Y-0.399
X9.8312 Y-0.4026 Z6.9117
X9.8325 Y-0.4061 Z6.9116
X9.8341 Y-0.4096 Z6.9115
X9.8358 Y-0.4128 Z6.9114
X9.8377 Y-0.4159 Z6.9113
X9.84 Y-0.419 Z6.9112
X9.8427 Y-0.4221 Z6.911
X9.8454 Y-0.4248 Z6.9109
X9.8482 Y-0.4273 Z6.9107
X9.8513 Y-0.4297 Z6.9105
X9.8545 Y-0.4318 Z6.9103
X9.8584 Y-0.434 Z6.9101
X9.8626 Y-0.436 Z6.9099
X9.8671 Y-0.4377 Z6.9096
X9.8714 Y-0.4391 Z6.9094
X9.8758 Y-0.4401 Z6.9091
X9.8804 Y-0.441 Z6.9088
X9.8848 Y-0.4415 Z6.9086
X9.89 Y-0.4418 Z6.9083
X9.894 Z6.9081
X9.8989 Y-0.4416 Z6.9078
X9.9033 Y-0.4413 Z6.9075
X9.9081 Y-0.4405 Z6.9072
X9.9128 Y-0.4395 Z6.907
X9.9176 Y-0.4382 Z6.9067
X9.9222 Y-0.4365 Z6.9065
X9.9258 Y-0.435 Z6.9063
X9.9294 Y-0.4332 Z6.9061
X9.9328 Y-0.4312 Z6.9059
X9.9359 Y-0.4291 Z6.9057
X9.9388 Y-0.4269 Z6.9056
X9.9418 Y-0.4244 Z6.9054
X9.9446 Y-0.4216 Z6.9053
X9.947 Y-0.4188 Z6.9051
X9.9494 Y-0.4156 Z6.905
X9.9515 Y-0.4122 Z6.9049
X9.9534 Y-0.4087 Z6.9048
X9.955 Y-0.4051 Z6.9047
X9.9561 Y-0.4019 Z6.9046
X9.9569 Y-0.3985
X9.9575 Y-0.3955
X9.9579 Y-0.3925 Z6.9045
X9.9582 Y-0.388
X9.9581 Y-0.3855
X9.9578 Y-0.3808
X9.9573 Y-0.3774 Z6.9046
X9.9565 Y-0.3742
X9.9555 Y-0.371 Z6.9047
X9.9544 Y-0.368
X9.9529 Y-0.3649 Z6.9048
X9.9513 Y-0.3618 Z6.9049
X9.9497 Y-0.359 Z6.905
X9.9477 Y-0.3562 Z6.9051
X9.9453 Y-0.3533 Z6.9052
X9.9429 Y-0.3506 Z6.9053
X9.9404 Y-0.3482 Z6.9055
X9.9378 Y-0.346 Z6.9056
X9.9351 Y-0.344 Z6.9058
X9.9316 Y-0.3419 Z6.906
X9.9293 Y-0.3406 Z6.9061
X9.8671 Y-0.3029 Z6.9096
X9.8502 Y-0.2927 Z6.9106
X9.8454 Y-0.2898 Z6.9109
X9.8428 Y-0.2881 Z6.911
X9.8406 Y-0.2864 Z6.9112
X9.8378 Y-0.2841 Z6.9113
X9.8349 Y-0.2814 Z6.9115
X9.8323 Y-0.2787 Z6.9116
X9.8297 Y-0.2756 Z6.9118
X9.827 Y-0.2723 Z6.9119
X9.8246 Y-0.2687 Z6.9121
X9.8223 Y-0.2649 Z6.9122
X9.8205 Y-0.2612 Z6.9123
X9.8188 Y-0.2574 Z6.9124
X9.8175 Y-0.2535 Z6.9125
X9.8164 Y-0.2496 Z6.9126
X9.8155 Y-0.2457
X9.8148 Y-0.2414
X9.814 Y-0.2344 Z6.9127
X9.8145 Y-0.2291
X9.815 Y-0.2254 Z6.9126
X9.8159 Y-0.2212
X9.8169 Y-0.2171 Z6.9125
X9.8182 Y-0.2134
X9.8198 Y-0.2094 Z6.9124
X9.8217 Y-0.2055 Z6.9122
X9.8235 Y-0.202 Z6.9121
X9.8256 Y-0.1987 Z6.912
X9.8283 Y-0.1949 Z6.9119
X9.8313 Y-0.1912 Z6.9117
X9.8346 Y-0.1877 Z6.9115
X9.8381 Y-0.1844 Z6.9113
X9.8418 Y-0.1814 Z6.9111
X9.8457 Y-0.1786 Z6.9109
X9.8498 Y-0.1761 Z6.9106
X9.8541 Y-0.1738 Z6.9104
X9.8584 Y-0.1718 Z6.9101
X9.8627 Y-0.1701 Z6.9099
X9.8672 Y-0.1686 Z6.9096
X9.8718 Y-0.1674 Z6.9093
X9.8766 Y-0.1664 Z6.9091
X9.8809 Y-0.1657 Z6.9088
X9.885 Y-0.1653 Z6.9086
X9.8908 Y-0.1651 Z6.9082
X9.8943 Y-0.165 Z6.908
X9.8993 Y-0.1653 Z6.9077
X9.9039 Y-0.1656 Z6.9075
X9.9089 Y-0.1664 Z6.9072
X9.9139 Y-0.1674 Z6.9069
X9.9189 Y-0.1688 Z6.9066
X9.9238 Y-0.1704 Z6.9064
X9.9284 Y-0.1723 Z6.9061
X9.9329 Y-0.1745 Z6.9059
X9.9372 Y-0.1768 Z6.9057
X9.941 Y-0.1792 Z6.9054
X9.9448 Y-0.1819 Z6.9052
X9.9485 Y-0.1849 Z6.905
X9.952 Y-0.1882 Z6.9049
X9.955 Y-0.1913 Z6.9047
X9.9577 Y-0.1946 Z6.9045
X9.9602 Y-0.198 Z6.9044
X9.9624 Y-0.2014 Z6.9043
X9.9645 Y-0.2051 Z6.9042
X9.9663 Y-0.2086 Z6.9041
X9.9679 Y-0.2123 Z6.904
X9.9692 Y-0.2164 Z6.9039
X9.9705 Y-0.2211 Z6.9038
X9.9713 Y-0.2245
X9.9718 Y-0.2277
X9.9724 Y-0.2332 Z6.9037
X9.9725 Y-0.2346
G0 Z7.3559
Y-0.2347
Z6.9807
G1 Z6.8937 F1.
X9.9717 Y-0.242 Z6.8938 F3.
X9.9709 Y-0.2465
X9.9699 Y-0.2505 Z6.8939
X9.9688 Y-0.2543
X9.9675 Y-0.2577 Z6.894
X9.9659 Y-0.2614 Z6.8941
X9.9638 Y-0.2654 Z6.8942
X9.9615 Y-0.2693 Z6.8943
X9.959 Y-0.273 Z6.8945
X9.9562 Y-0.2765 Z6.8946
X9.9531 Y-0.2798 Z6.8948
X9.9498 Y-0.283 Z6.895
X9.9465 Y-0.2859 Z6.8952
X9.9428 Y-0.2886 Z6.8954
X9.9378 Y-0.2918 Z6.8956
X9.8834 Y-0.3248 Z6.8987
X9.8573 Y-0.3406 Z6.9002
X9.8532 Y-0.3427 Z6.9004
X9.8512 Y-0.3439 Z6.9005
X9.8491 Y-0.3454 Z6.9007
X9.8467 Y-0.3472 Z6.9008
X9.8445 Y-0.3493 Z6.9009
X9.8423 Y-0.3516 Z6.9011
X9.8401 Y-0.3542 Z6.9012
X9.8381 Y-0.3571 Z6.9013
X9.8361 Y-0.3601 Z6.9014
X9.8344 Y-0.3632 Z6.9015
X9.8328 Y-0.3665 Z6.9016
X9.8315 Y-0.3698 Z6.9017
X9.8304 Y-0.3733
X9.8295 Y-0.3768 Z6.9018
X9.8288 Y-0.3805
X9.8281 Y-0.3861 Z6.9019
X9.828 Y-0.3873
X9.8287 Y-0.3923 Z6.9018
X9.8293 Y-0.3955
X9.8301 Y-0.399
X9.8312 Y-0.4026 Z6.9017
X9.8325 Y-0.4061 Z6.9016
X9.8341 Y-0.4096 Z6.9015
X9.8358 Y-0.4128 Z6.9014
X9.8377 Y-0.4159 Z6.9013
X9.84 Y-0.419 Z6.9012
X9.8427 Y-0.4221 Z6.901
X9.8454 Y-0.4248 Z6.9009
X9.8482 Y-0.4273 Z6.9007
X9.8513 Y-0.4297 Z6.9005
X9.8545 Y-0.4318 Z6.9003
X9.8584 Y-0.434 Z6.9001
X9.8626 Y-0.436 Z6.8999
X9.8671 Y-0.4377 Z6.8996
X9.8714 Y-0.4391 Z6.8994
X9.8758 Y-0.4401 Z6.8991
X9.8804 Y-0.441 Z6.8988
X9.8848 Y-0.4415 Z6.8986
X9.89 Y-0.4418 Z6.8983
X9.894 Z6.8981
X9.8989 Y-0.4416 Z6.8978
X9.9033 Y-0.4413 Z6.8975
X9.9081 Y-0.4405 Z6.8972
X9.9128 Y-0.4395 Z6.897
X9.9176 Y-0.4382 Z6.8967
X9.9222 Y-0.4365 Z6.8965
X9.9258 Y-0.435 Z6.8963
X9.9294 Y-0.4332 Z6.8961
X9.9328 Y-0.4312 Z6.8959
X9.9359 Y-0.4291 Z6.8957
X9.9388 Y-0.4269 Z6.8956
X9.9418 Y-0.4244 Z6.8954
X9.9446 Y-0.4216 Z6.8953
X9.947 Y-0.4188 Z6.8951
X9.9494 Y-0.4156 Z6.895
X9.9515 Y-0.4122 Z6.8949
X9.9534 Y-0.4087 Z6.8948
X9.955 Y-0.4051 Z6.8947
X9.9561 Y-0.4019 Z6.8946
X9.9569 Y-0.3985
X9.9575 Y-0.3955
X9.9579 Y-0.3925 Z6.8945
X9.9582 Y-0.388
X9.9581 Y-0.3855
X9.9578 Y-0.3808
X9.9573 Y-0.3774 Z6.8946
X9.9565 Y-0.3742
X9.9555 Y-0.371 Z6.8947
X9.9544 Y-0.368
X9.9529 Y-0.3649 Z6.8948
X9.9513 Y-0.3618 Z6.8949
X9.9497 Y-0.359 Z6.895
X9.9477 Y-0.3562 Z6.8951
X9.9453 Y-0.3533 Z6.8952
X9.9429 Y-0.3506 Z6.8953
X9.9404 Y-0.3482 Z6.8955
X9.9378 Y-0.346 Z6.8956
X9.9351 Y-0.344 Z6.8958
X9.9316 Y-0.3419 Z6.896
X9.9293 Y-0.3406 Z6.8961
X9.8671 Y-0.3029 Z6.8996
X9.8502 Y-0.2927 Z6.9006
X9.8454 Y-0.2898 Z6.9009
X9.8428 Y-0.2881 Z6.901
X9.8406 Y-0.2864 Z6.9012
X9.8378 Y-0.2841 Z6.9013
X9.8349 Y-0.2814 Z6.9015
X9.8323 Y-0.2787 Z6.9016
X9.8297 Y-0.2756 Z6.9018
X9.827 Y-0.2723 Z6.9019
X9.8246 Y-0.2687 Z6.9021
X9.8223 Y-0.2649 Z6.9022
X9.8205 Y-0.2612 Z6.9023
X9.8188 Y-0.2574 Z6.9024
X9.8175 Y-0.2535 Z6.9025
X9.8164 Y-0.2496 Z6.9026
X9.8155 Y-0.2457
X9.8148 Y-0.2414
X9.814 Y-0.2344 Z6.9027
X9.8145 Y-0.2291
X9.815 Y-0.2254 Z6.9026
X9.8159 Y-0.2212
X9.8169 Y-0.2171 Z6.9025
X9.8182 Y-0.2134
X9.8198 Y-0.2094 Z6.9024
X9.8217 Y-0.2055 Z6.9022
X9.8235 Y-0.202 Z6.9021
X9.8256 Y-0.1987 Z6.902
X9.8283 Y-0.1949 Z6.9019
X9.8313 Y-0.1912 Z6.9017
X9.8346 Y-0.1877 Z6.9015
X9.8381 Y-0.1844 Z6.9013
X9.8418 Y-0.1814 Z6.9011
X9.8457 Y-0.1786 Z6.9009
X9.8498 Y-0.1761 Z6.9006
X9.8541 Y-0.1738 Z6.9004
X9.8584 Y-0.1718 Z6.9001
X9.8627 Y-0.1701 Z6.8999
X9.8672 Y-0.1686 Z6.8996
X9.8718 Y-0.1674 Z6.8993
X9.8766 Y-0.1664 Z6.8991
X9.8809 Y-0.1657 Z6.8988
X9.885 Y-0.1653 Z6.8986
X9.8908 Y-0.1651 Z6.8982
X9.8943 Y-0.165 Z6.898
X9.8993 Y-0.1653 Z6.8977
X9.9039 Y-0.1656 Z6.8975
X9.9089 Y-0.1664 Z6.8972
X9.9139 Y-0.1674 Z6.8969
X9.9189 Y-0.1688 Z6.8966
X9.9238 Y-0.1704 Z6.8964
X9.9284 Y-0.1723 Z6.8961
X9.9329 Y-0.1745 Z6.8959
X9.9372 Y-0.1768 Z6.8957
X9.941 Y-0.1792 Z6.8954
X9.9448 Y-0.1819 Z6.8952
X9.9485 Y-0.1849 Z6.895
X9.952 Y-0.1882 Z6.8949
X9.955 Y-0.1913 Z6.8947
X9.9577 Y-0.1946 Z6.8945
X9.9602 Y-0.198 Z6.8944
X9.9624 Y-0.2014 Z6.8943
X9.9645 Y-0.2051 Z6.8942
X9.9663 Y-0.2086 Z6.8941
X9.9679 Y-0.2123 Z6.894
X9.9692 Y-0.2164 Z6.8939
X9.9705 Y-0.2211 Z6.8938
X9.9713 Y-0.2245
X9.9718 Y-0.2277
X9.9724 Y-0.2332 Z6.8937
X9.9725 Y-0.2346
Y-0.2347
G0 Z7.3559
Y-0.2348
Z6.9807
G1 Z6.8837 F1.
X9.9717 Y-0.242 Z6.8838 F3.
X9.9709 Y-0.2465
X9.9699 Y-0.2505 Z6.8839
X9.9688 Y-0.2543
X9.9675 Y-0.2577 Z6.884
X9.9659 Y-0.2614 Z6.8841
X9.9638 Y-0.2654 Z6.8842
X9.9615 Y-0.2693 Z6.8843
X9.959 Y-0.273 Z6.8845
X9.9562 Y-0.2765 Z6.8846
X9.9531 Y-0.2798 Z6.8848
X9.9498 Y-0.283 Z6.885
X9.9465 Y-0.2859 Z6.8852
X9.9428 Y-0.2886 Z6.8854
X9.9378 Y-0.2918 Z6.8856
X9.8834 Y-0.3248 Z6.8887
X9.8573 Y-0.3406 Z6.8902
X9.8532 Y-0.3427 Z6.8904
X9.8512 Y-0.3439 Z6.8905
X9.8491 Y-0.3454 Z6.8907
X9.8467 Y-0.3472 Z6.8908
X9.8445 Y-0.3493 Z6.8909
X9.8423 Y-0.3516 Z6.8911
X9.8401 Y-0.3542 Z6.8912
X9.8381 Y-0.3571 Z6.8913
X9.8361 Y-0.3601 Z6.8914
X9.8344 Y-0.3632 Z6.8915
X9.8328 Y-0.3665 Z6.8916
X9.8315 Y-0.3698 Z6.8917
X9.8304 Y-0.3733
X9.8295 Y-0.3768 Z6.8918
X9.8288 Y-0.3805
X9.8281 Y-0.3861 Z6.8919
X9.828 Y-0.3873
X9.8287 Y-0.3923 Z6.8918
X9.8293 Y-0.3955
X9.8301 Y-0.399
X9.8312 Y-0.4026 Z6.8917
X9.8325 Y-0.4061 Z6.8916
X9.8341 Y-0.4096 Z6.8915
X9.8358 Y-0.4128 Z6.8914
X9.8377 Y-0.4159 Z6.8913
X9.84 Y-0.419 Z6.8912
X9.8427 Y-0.4221 Z6.891
X9.8454 Y-0.4248 Z6.8909
X9.8482 Y-0.4273 Z6.8907
X9.8513 Y-0.4297 Z6.8905
X9.8545 Y-0.4318 Z6.8903
X9.8584 Y-0.434 Z6.8901
X9.8626 Y-0.436 Z6.8899
X9.8671 Y-0.4377 Z6.8896
X9.8714 Y-0.4391 Z6.8894
X9.8758 Y-0.4401 Z6.8891
X9.8804 Y-0.441 Z6.8888
X9.8848 Y-0.4415 Z6.8886
X9.89 Y-0.4418 Z6.8883
X9.894 Z6.8881
X9.8989 Y-0.4416 Z6.8878
X9.9033 Y-0.4413 Z6.8875
X9.9081 Y-0.4405 Z6.8872
X9.9128 Y-0.4395 Z6.887
X9.9176 Y-0.4382 Z6.8867
X9.9222 Y-0.4365 Z6.8865
X9.9258 Y-0.435 Z6.8863
X9.9294 Y-0.4332 Z6.8861
X9.9328 Y-0.4312 Z6.8859
X9.9359 Y-0.4291 Z6.8857
X9.9388 Y-0.4269 Z6.8856
X9.9418 Y-0.4244 Z6.8854
X9.9446 Y-0.4216 Z6.8853
X9.947 Y-0.4188 Z6.8851
X9.9494 Y-0.4156 Z6.885
X9.9515 Y-0.4122 Z6.8849
X9.9534 Y-0.4087 Z6.8848
X9.955 Y-0.4051 Z6.8847
X9.9561 Y-0.4019 Z6.8846
X9.9569 Y-0.3985
X9.9575 Y-0.3955
X9.9579 Y-0.3925 Z6.8845
X9.9582 Y-0.388
X9.9581 Y-0.3855
X9.9578 Y-0.3808
X9.9573 Y-0.3774 Z6.8846
X9.9565 Y-0.3742
X9.9555 Y-0.371 Z6.8847
X9.9544 Y-0.368
X9.9529 Y-0.3649 Z6.8848
X9.9513 Y-0.3618 Z6.8849
X9.9497 Y-0.359 Z6.885
X9.9477 Y-0.3562 Z6.8851
X9.9453 Y-0.3533 Z6.8852
X9.9429 Y-0.3506 Z6.8853
X9.9404 Y-0.3482 Z6.8855
X9.9378 Y-0.346 Z6.8856
X9.9351 Y-0.344 Z6.8858
X9.9316 Y-0.3419 Z6.886
X9.9293 Y-0.3406 Z6.8861
X9.8671 Y-0.3029 Z6.8896
X9.8502 Y-0.2927 Z6.8906
X9.8454 Y-0.2898 Z6.8909
X9.8428 Y-0.2881 Z6.891
X9.8406 Y-0.2864 Z6.8912
X9.8378 Y-0.2841 Z6.8913
X9.8349 Y-0.2814 Z6.8915
X9.8323 Y-0.2787 Z6.8916
X9.8297 Y-0.2756 Z6.8918
X9.827 Y-0.2723 Z6.8919
X9.8246 Y-0.2687 Z6.8921
X9.8223 Y-0.2649 Z6.8922
X9.8205 Y-0.2612 Z6.8923
X9.8188 Y-0.2574 Z6.8924
X9.8175 Y-0.2535 Z6.8925
X9.8164 Y-0.2496 Z6.8926
X9.8155 Y-0.2457
X9.8148 Y-0.2414
X9.814 Y-0.2344 Z6.8927
X9.8145 Y-0.2291
X9.815 Y-0.2254 Z6.8926
X9.8159 Y-0.2212
X9.8169 Y-0.2171 Z6.8925
X9.8182 Y-0.2134
X9.8198 Y-0.2094 Z6.8924
X9.8217 Y-0.2055 Z6.8922
X9.8235 Y-0.202 Z6.8921
X9.8256 Y-0.1987 Z6.892
X9.8283 Y-0.1949 Z6.8919
X9.8313 Y-0.1912 Z6.8917
X9.8346 Y-0.1877 Z6.8915
X9.8381 Y-0.1844 Z6.8913
X9.8418 Y-0.1814 Z6.8911
X9.8457 Y-0.1786 Z6.8909
X9.8498 Y-0.1761 Z6.8906
X9.8541 Y-0.1738 Z6.8904
X9.8584 Y-0.1718 Z6.8901
X9.8627 Y-0.1701 Z6.8899
X9.8672 Y-0.1686 Z6.8896
X9.8718 Y-0.1674 Z6.8893
X9.8766 Y-0.1664 Z6.8891
X9.8809 Y-0.1657 Z6.8888
X9.885 Y-0.1653 Z6.8886
X9.8908 Y-0.1651 Z6.8882
X9.8943 Y-0.165 Z6.888
X9.8993 Y-0.1653 Z6.8877
X9.9039 Y-0.1656 Z6.8875
X9.9089 Y-0.1664 Z6.8872
X9.9139 Y-0.1674 Z6.8869
X9.9189 Y-0.1688 Z6.8866
X9.9238 Y-0.1704 Z6.8864
X9.9284 Y-0.1723 Z6.8861
X9.9329 Y-0.1745 Z6.8859
X9.9372 Y-0.1768 Z6.8857
X9.941 Y-0.1792 Z6.8854
X9.9448 Y-0.1819 Z6.8852
X9.9485 Y-0.1849 Z6.885
X9.952 Y-0.1882 Z6.8849
X9.955 Y-0.1913 Z6.8847
X9.9577 Y-0.1946 Z6.8845
X9.9602 Y-0.198 Z6.8844
X9.9624 Y-0.2014 Z6.8843
X9.9645 Y-0.2051 Z6.8842
X9.9663 Y-0.2086 Z6.8841
X9.9679 Y-0.2123 Z6.884
X9.9692 Y-0.2164 Z6.8839
X9.9705 Y-0.2211 Z6.8838
X9.9713 Y-0.2245
X9.9718 Y-0.2277
X9.9724 Y-0.2332 Z6.8837
X9.9725 Y-0.2346
Y-0.2348
G0 Z7.3559
Z6.9807
G1 Z6.8737 F1.
X9.9717 Y-0.242 Z6.8738 F3.
X9.9709 Y-0.2465
X9.9699 Y-0.2505 Z6.8739
X9.9688 Y-0.2543
X9.9675 Y-0.2577 Z6.874
X9.9659 Y-0.2614 Z6.8741
X9.9638 Y-0.2654 Z6.8742
X9.9615 Y-0.2693 Z6.8743
X9.959 Y-0.273 Z6.8745
X9.9562 Y-0.2765 Z6.8746
X9.9531 Y-0.2798 Z6.8748
X9.9498 Y-0.283 Z6.875
X9.9465 Y-0.2859 Z6.8752
X9.9428 Y-0.2886 Z6.8754
X9.9378 Y-0.2918 Z6.8756
X9.8834 Y-0.3248 Z6.8787
X9.8573 Y-0.3406 Z6.8802
X9.8532 Y-0.3427 Z6.8804
X9.8512 Y-0.3439 Z6.8805
X9.8491 Y-0.3454 Z6.8807
X9.8467 Y-0.3472 Z6.8808
X9.8445 Y-0.3493 Z6.8809
X9.8423 Y-0.3516 Z6.8811
X9.8401 Y-0.3542 Z6.8812
X9.8381 Y-0.3571 Z6.8813
X9.8361 Y-0.3601 Z6.8814
X9.8344 Y-0.3632 Z6.8815
X9.8328 Y-0.3665 Z6.8816
X9.8315 Y-0.3698 Z6.8817
X9.8304 Y-0.3733
X9.8295 Y-0.3768 Z6.8818
X9.8288 Y-0.3805
X9.8281 Y-0.3861 Z6.8819
X9.828 Y-0.3873
X9.8287 Y-0.3923 Z6.8818
X9.8293 Y-0.3955
X9.8301 Y-0.399
X9.8312 Y-0.4026 Z6.8817
X9.8325 Y-0.4061 Z6.8816
X9.8341 Y-0.4096 Z6.8815
X9.8358 Y-0.4128 Z6.8814
X9.8377 Y-0.4159 Z6.8813
X9.84 Y-0.419 Z6.8812
X9.8427 Y-0.4221 Z6.881
X9.8454 Y-0.4248 Z6.8809
X9.8482 Y-0.4273 Z6.8807
X9.8513 Y-0.4297 Z6.8805
X9.8545 Y-0.4318 Z6.8803
X9.8584 Y-0.434 Z6.8801
X9.8626 Y-0.436 Z6.8799
X9.8671 Y-0.4377 Z6.8796
X9.8714 Y-0.4391 Z6.8794
X9.8758 Y-0.4401 Z6.8791
X9.8804 Y-0.441 Z6.8788
X9.8848 Y-0.4415 Z6.8786
X9.89 Y-0.4418 Z6.8783
X9.894 Z6.8781
X9.8989 Y-0.4416 Z6.8778
X9.9033 Y-0.4413 Z6.8775
X9.9081 Y-0.4405 Z6.8772
X9.9128 Y-0.4395 Z6.877
X9.9176 Y-0.4382 Z6.8767
X9.9222 Y-0.4365 Z6.8765
X9.9258 Y-0.435 Z6.8763
X9.9294 Y-0.4332 Z6.8761
X9.9328 Y-0.4312 Z6.8759
X9.9359 Y-0.4291 Z6.8757
X9.9388 Y-0.4269 Z6.8756
X9.9418 Y-0.4244 Z6.8754
X9.9446 Y-0.4216 Z6.8753
X9.947 Y-0.4188 Z6.8751
X9.9494 Y-0.4156 Z6.875
X9.9515 Y-0.4122 Z6.8749
X9.9534 Y-0.4087 Z6.8748
X9.955 Y-0.4051 Z6.8747
X9.9561 Y-0.4019 Z6.8746
X9.9569 Y-0.3985
X9.9575 Y-0.3955
X9.9579 Y-0.3925 Z6.8745
X9.9582 Y-0.388
X9.9581 Y-0.3855
X9.9578 Y-0.3808
X9.9573 Y-0.3774 Z6.8746
X9.9565 Y-0.3742
X9.9555 Y-0.371 Z6.8747
X9.9544 Y-0.368
X9.9529 Y-0.3649 Z6.8748
X9.9513 Y-0.3618 Z6.8749
X9.9497 Y-0.359 Z6.875
X9.9477 Y-0.3562 Z6.8751
X9.9453 Y-0.3533 Z6.8752
X9.9429 Y-0.3506 Z6.8753
X9.9404 Y-0.3482 Z6.8755
X9.9378 Y-0.346 Z6.8756
X9.9351 Y-0.344 Z6.8758
X9.9316 Y-0.3419 Z6.876
X9.9293 Y-0.3406 Z6.8761
X9.8671 Y-0.3029 Z6.8796
X9.8502 Y-0.2927 Z6.8806
X9.8454 Y-0.2898 Z6.8809
X9.8428 Y-0.2881 Z6.881
X9.8406 Y-0.2864 Z6.8812
X9.8378 Y-0.2841 Z6.8813
X9.8349 Y-0.2814 Z6.8815
X9.8323 Y-0.2787 Z6.8816
X9.8297 Y-0.2756 Z6.8818
X9.827 Y-0.2723 Z6.8819
X9.8246 Y-0.2687 Z6.8821
X9.8223 Y-0.2649 Z6.8822
X9.8205 Y-0.2612 Z6.8823
X9.8188 Y-0.2574 Z6.8824
X9.8175 Y-0.2535 Z6.8825
X9.8164 Y-0.2496 Z6.8826
X9.8155 Y-0.2457
X9.8148 Y-0.2414
X9.814 Y-0.2344 Z6.8827
X9.8145 Y-0.2291
X9.815 Y-0.2254 Z6.8826
X9.8159 Y-0.2212
X9.8169 Y-0.2171 Z6.8825
X9.8182 Y-0.2134
X9.8198 Y-0.2094 Z6.8824
X9.8217 Y-0.2055 Z6.8822
X9.8235 Y-0.202 Z6.8821
X9.8256 Y-0.1987 Z6.882
X9.8283 Y-0.1949 Z6.8819
X9.8313 Y-0.1912 Z6.8817
X9.8346 Y-0.1877 Z6.8815
X9.8381 Y-0.1844 Z6.8813
X9.8418 Y-0.1814 Z6.8811
X9.8457 Y-0.1786 Z6.8809
X9.8498 Y-0.1761 Z6.8806
X9.8541 Y-0.1738 Z6.8804
X9.8584 Y-0.1718 Z6.8801
X9.8627 Y-0.1701 Z6.8799
X9.8672 Y-0.1686 Z6.8796
X9.8718 Y-0.1674 Z6.8793
X9.8766 Y-0.1664 Z6.8791
X9.8809 Y-0.1657 Z6.8788
X9.885 Y-0.1653 Z6.8786
X9.8908 Y-0.1651 Z6.8782
X9.8943 Y-0.165 Z6.878
X9.8993 Y-0.1653 Z6.8777
X9.9039 Y-0.1656 Z6.8775
X9.9089 Y-0.1664 Z6.8772
X9.9139 Y-0.1674 Z6.8769
X9.9189 Y-0.1688 Z6.8766
X9.9238 Y-0.1704 Z6.8764
X9.9284 Y-0.1723 Z6.8761
X9.9329 Y-0.1745 Z6.8759
X9.9372 Y-0.1768 Z6.8757
X9.941 Y-0.1792 Z6.8754
X9.9448 Y-0.1819 Z6.8752
X9.9485 Y-0.1849 Z6.875
X9.952 Y-0.1882 Z6.8749
X9.955 Y-0.1913 Z6.8747
X9.9577 Y-0.1946 Z6.8745
X9.9602 Y-0.198 Z6.8744
X9.9624 Y-0.2014 Z6.8743
X9.9645 Y-0.2051 Z6.8742
X9.9663 Y-0.2086 Z6.8741
X9.9679 Y-0.2123 Z6.874
X9.9692 Y-0.2164 Z6.8739
X9.9705 Y-0.2211 Z6.8738
X9.9713 Y-0.2245
X9.9718 Y-0.2277
X9.9724 Y-0.2332 Z6.8737
X9.9725 Y-0.2346
Y-0.2348
G0 Z7.6059

M5
M9
G53 G0 Z0.
G53 G0 X0. Y0.
G49
G69
G0 A0. C0.
M30
