O0059 (EMTSERIALSUB-99999)

(PROGRAM CREATED FOR MAZAK VARIAXIS-I700 5-AXIS MILL ONLY)

(PROVEN BY: )
(PROVEN ON: )

(QC ACCEPTED BY: )
(QC ACCEPTED ON: )

(T50 D=0.125 CR=0. TAPER=30DEG - CHAMFER MILL)

G90 G94 G17 G49
G20
G53 G0 Z0.

(SERIAL ENGRAVE TIT)
T50 M6
S18000 M3
G90 G94 G17
G54.1 P2
G68.2 X0. Y0. Z0. I107.642 J90. K180.
G53.1 P2
M8
G0 X11.0968 Y-0.3364
G43 Z7.6059 H50
G0 Z6.9401
G1 Z6.8645 F1.
X11.0952 Y-0.3441 F3.
X11.0945 Y-0.3485 Z6.8646
X11.0942 Y-0.3515
Y-0.3552
X11.0945 Y-0.3615
X11.0948 Y-0.3655
X11.0954 Y-0.3694 Z6.8645
X11.0962 Y-0.3737
X11.0974 Y-0.379
X11.099 Y-0.3846
X11.1009 Y-0.3899 Z6.8644
X11.103 Y-0.3949
X11.1054 Y-0.3997
X11.1081 Y-0.4043 Z6.8643
X11.111 Y-0.4086
X11.1138 Y-0.4123
X11.1169 Y-0.416 Z6.8642
X11.1201 Y-0.4192
X11.1232 Y-0.422 Z6.8641
X11.1267 Y-0.4249
X11.1305 Y-0.4276 Z6.864
X11.1344 Y-0.43
X11.1384 Y-0.4322 Z6.8639
X11.1424 Y-0.4342
X11.1465 Y-0.4358 Z6.8638
X11.1505 Y-0.4371
X11.1543 Y-0.438 Z6.8637
X11.1575 Y-0.4387
X11.161 Y-0.4392 Z6.8636
X11.1653 Y-0.4397
X11.1724 Y-0.44 Z6.8635
X11.1753 Z6.8634
X11.1803 Y-0.4397
X11.1839 Y-0.4392 Z6.8633
X11.1878 Y-0.4385
X11.192 Y-0.4376 Z6.8632
X11.1963 Y-0.4363 Z6.8631
X11.2011 Y-0.4346
X11.2059 Y-0.4325 Z6.863
X11.2105 Y-0.4302 Z6.8629
X11.215 Y-0.4276
X11.2193 Y-0.4246
X11.2233 Y-0.4215 Z6.8628
X11.2271 Y-0.4181
X11.2308 Y-0.4143 Z6.8627
X11.2342 Y-0.4104
X11.2373 Y-0.4063
X11.2402 Y-0.4019 Z6.8626
X11.2428 Y-0.3976
X11.2448 Y-0.3937
X11.2467 Y-0.3896
X11.2483 Y-0.3854
X11.2496 Y-0.3812 Z6.8625
X11.2506 Y-0.3773
X11.2513 Y-0.3739
X11.2518 Y-0.3703
X11.2523 Y-0.366
X11.2526 Y-0.3594
Y-0.356
X11.2523 Y-0.3505
X11.252 Y-0.3471
X11.2513 Y-0.343
X11.2504 Y-0.3381
X11.2492 Y-0.3335 Z6.8626
X11.2475 Y-0.3284
X11.2456 Y-0.3235
X11.2434 Y-0.3186
X11.2408 Y-0.3139
X11.2381 Y-0.3093 Z6.8627
X11.235 Y-0.305
X11.2317 Y-0.3008
X11.2282 Y-0.297 Z6.8628
X11.2244 Y-0.2933
X11.2204 Y-0.2899
X11.2163 Y-0.2869 Z6.8629
X11.212 Y-0.2842
X11.2083 Y-0.2821 Z6.863
X11.2043 Y-0.2802
X11.2003 Y-0.2786 Z6.8631
X11.1963 Y-0.2773
X11.1921 Y-0.2761 Z6.8632
X11.1879 Y-0.2753 Z6.8633
X11.1841 Y-0.2747
X11.1809 Y-0.2744
X11.1748 Y-0.2741 Z6.8634
X11.1712 Y-0.2742 Z6.8635
X11.1669 Y-0.2744
X11.1636 Y-0.2748 Z6.8636
X11.159 Y-0.2756
X11.1546 Y-0.2766 Z6.8637
X11.1506 Y-0.2777 Z6.8638
X11.1469 Y-0.2791
X11.1429 Y-0.2807 Z6.8639
X11.1387 Y-0.2827
X11.1348 Y-0.2848 Z6.864
X11.131 Y-0.2872
X11.1266 Y-0.2903 Z6.8641
X11.1225 Y-0.2936 Z6.8642
X11.1186 Y-0.2972
X11.1151 Y-0.301 Z6.8643
X11.1118 Y-0.305
X11.109 Y-0.3089
X11.1063 Y-0.313 Z6.8644
X11.1039 Y-0.3172
X11.1018 Y-0.3216
X11.1 Y-0.3261 Z6.8645
X11.0985 Y-0.3304
X11.0969 Y-0.336
Z6.8545 F1.
X11.0985 Y-0.3304 F3.
X11.1 Y-0.3261
X11.1018 Y-0.3216 Z6.8544
X11.1039 Y-0.3172
X11.1063 Y-0.313
X11.109 Y-0.3089 Z6.8543
X11.1118 Y-0.305
X11.1151 Y-0.301
X11.1186 Y-0.2972 Z6.8542
X11.1225 Y-0.2936
X11.1266 Y-0.2903 Z6.8541
X11.131 Y-0.2872 Z6.854
X11.1348 Y-0.2848
X11.1387 Y-0.2827 Z6.8539
X11.1429 Y-0.2807
X11.1469 Y-0.2791 Z6.8538
X11.1506 Y-0.2777
X11.1546 Y-0.2766 Z6.8537
X11.159 Y-0.2756 Z6.8536
X11.1636 Y-0.2748
X11.1669 Y-0.2744 Z6.8535
X11.1712 Y-0.2742
X11.1748 Y-0.2741 Z6.8534
X11.1809 Y-0.2744 Z6.8533
X11.1841 Y-0.2747
X11.1879 Y-0.2753
X11.1921 Y-0.2761 Z6.8532
X11.1963 Y-0.2773 Z6.8531
X11.2003 Y-0.2786
X11.2043 Y-0.2802 Z6.853
X11.2083 Y-0.2821
X11.212 Y-0.2842 Z6.8529
X11.2163 Y-0.2869
X11.2204 Y-0.2899 Z6.8528
X11.2244 Y-0.2933
X11.2282 Y-0.297
X11.2317 Y-0.3008 Z6.8527
X11.235 Y-0.305
X11.2381 Y-0.3093
X11.2408 Y-0.3139 Z6.8526
X11.2434 Y-0.3186
X11.2456 Y-0.3235
X11.2475 Y-0.3284
X11.2492 Y-0.3335
X11.2504 Y-0.3381 Z6.8525
X11.2513 Y-0.343
X11.252 Y-0.3471
X11.2523 Y-0.3505
X11.2526 Y-0.356
Y-0.3594
X11.2523 Y-0.366
X11.2518 Y-0.3703
X11.2513 Y-0.3739
X11.2506 Y-0.3773
X11.2496 Y-0.3812
X11.2483 Y-0.3854 Z6.8526
X11.2467 Y-0.3896
X11.2448 Y-0.3937
X11.2428 Y-0.3976
X11.2402 Y-0.4019
X11.2373 Y-0.4063 Z6.8527
X11.2342 Y-0.4104
X11.2308 Y-0.4143
X11.2271 Y-0.4181 Z6.8528
X11.2233 Y-0.4215
X11.2193 Y-0.4246 Z6.8529
X11.215 Y-0.4276
X11.2105 Y-0.4302
X11.2059 Y-0.4325 Z6.853
X11.2011 Y-0.4346 Z6.8531
X11.1963 Y-0.4363
X11.192 Y-0.4376 Z6.8532
X11.1878 Y-0.4385 Z6.8533
X11.1839 Y-0.4392
X11.1803 Y-0.4397 Z6.8534
X11.1753 Y-0.44
X11.1724 Z6.8535
X11.1653 Y-0.4397 Z6.8536
X11.161 Y-0.4392
X11.1575 Y-0.4387 Z6.8537
X11.1543 Y-0.438
X11.1505 Y-0.4371 Z6.8538
X11.1465 Y-0.4358
X11.1424 Y-0.4342 Z6.8539
X11.1384 Y-0.4322
X11.1344 Y-0.43 Z6.854
X11.1305 Y-0.4276
X11.1267 Y-0.4249 Z6.8541
X11.1232 Y-0.422
X11.1201 Y-0.4192 Z6.8542
X11.1169 Y-0.416
X11.1138 Y-0.4123 Z6.8543
X11.111 Y-0.4086
X11.1081 Y-0.4043
X11.1054 Y-0.3997 Z6.8544
X11.103 Y-0.3949
X11.1009 Y-0.3899
X11.099 Y-0.3846 Z6.8545
X11.0974 Y-0.379
X11.0962 Y-0.3737
X11.0954 Y-0.3694
X11.0948 Y-0.3655 Z6.8546
X11.0945 Y-0.3615
X11.0942 Y-0.3552
Y-0.3515
X11.0945 Y-0.3485
X11.0952 Y-0.3441 Z6.8545
X11.0968 Y-0.3364
Z6.8445 F1.
X11.0952 Y-0.3441 F3.
X11.0945 Y-0.3485 Z6.8446
X11.0942 Y-0.3515
Y-0.3552
X11.0945 Y-0.3615
X11.0948 Y-0.3655
X11.0954 Y-0.3694 Z6.8445
X11.0962 Y-0.3737
X11.0974 Y-0.379
X11.099 Y-0.3846
X11.1009 Y-0.3899 Z6.8444
X11.103 Y-0.3949
X11.1054 Y-0.3997
X11.1081 Y-0.4043 Z6.8443
X11.111 Y-0.4086
X11.1138 Y-0.4123
X11.1169 Y-0.416 Z6.8442
X11.1201 Y-0.4192
X11.1232 Y-0.422 Z6.8441
X11.1267 Y-0.4249
X11.1305 Y-0.4276 Z6.844
X11.1344 Y-0.43
X11.1384 Y-0.4322 Z6.8439
X11.1424 Y-0.4342
X11.1465 Y-0.4358 Z6.8438
X11.1505 Y-0.4371
X11.1543 Y-0.438 Z6.8437
X11.1575 Y-0.4387
X11.161 Y-0.4392 Z6.8436
X11.1653 Y-0.4397
X11.1724 Y-0.44 Z6.8435
X11.1753 Z6.8434
X11.1803 Y-0.4397
X11.1839 Y-0.4392 Z6.8433
X11.1878 Y-0.4385
X11.192 Y-0.4376 Z6.8432
X11.1963 Y-0.4363 Z6.8431
X11.2011 Y-0.4346
X11.2059 Y-0.4325 Z6.843
X11.2105 Y-0.4302 Z6.8429
X11.215 Y-0.4276
X11.2193 Y-0.4246
X11.2233 Y-0.4215 Z6.8428
X11.2271 Y-0.4181
X11.2308 Y-0.4143 Z6.8427
X11.2342 Y-0.4104
X11.2373 Y-0.4063
X11.2402 Y-0.4019 Z6.8426
X11.2428 Y-0.3976
X11.2448 Y-0.3937
X11.2467 Y-0.3896
X11.2483 Y-0.3854
X11.2496 Y-0.3812 Z6.8425
X11.2506 Y-0.3773
X11.2513 Y-0.3739
X11.2518 Y-0.3703
X11.2523 Y-0.366
X11.2526 Y-0.3594
Y-0.356
X11.2523 Y-0.3505
X11.252 Y-0.3471
X11.2513 Y-0.343
X11.2504 Y-0.3381
X11.2492 Y-0.3335 Z6.8426
X11.2475 Y-0.3284
X11.2456 Y-0.3235
X11.2434 Y-0.3186
X11.2408 Y-0.3139
X11.2381 Y-0.3093 Z6.8427
X11.235 Y-0.305
X11.2317 Y-0.3008
X11.2282 Y-0.297 Z6.8428
X11.2244 Y-0.2933
X11.2204 Y-0.2899
X11.2163 Y-0.2869 Z6.8429
X11.212 Y-0.2842
X11.2083 Y-0.2821 Z6.843
X11.2043 Y-0.2802
X11.2003 Y-0.2786 Z6.8431
X11.1963 Y-0.2773
X11.1921 Y-0.2761 Z6.8432
X11.1879 Y-0.2753 Z6.8433
X11.1841 Y-0.2747
X11.1809 Y-0.2744
X11.1748 Y-0.2741 Z6.8434
X11.1712 Y-0.2742 Z6.8435
X11.1669 Y-0.2744
X11.1636 Y-0.2748 Z6.8436
X11.159 Y-0.2756
X11.1546 Y-0.2766 Z6.8437
X11.1506 Y-0.2777 Z6.8438
X11.1469 Y-0.2791
X11.1429 Y-0.2807 Z6.8439
X11.1387 Y-0.2827
X11.1348 Y-0.2848 Z6.844
X11.131 Y-0.2872
X11.1266 Y-0.2903 Z6.8441
X11.1225 Y-0.2936 Z6.8442
X11.1186 Y-0.2972
X11.1151 Y-0.301 Z6.8443
X11.1118 Y-0.305
X11.109 Y-0.3089
X11.1063 Y-0.313 Z6.8444
X11.1039 Y-0.3172
X11.1018 Y-0.3216
X11.1 Y-0.3261 Z6.8445
X11.0985 Y-0.3304
X11.0969 Y-0.336
Z6.8345 F1.
X11.0985 Y-0.3304 F3.
X11.1 Y-0.3261
X11.1018 Y-0.3216 Z6.8344
X11.1039 Y-0.3172
X11.1063 Y-0.313
X11.109 Y-0.3089 Z6.8343
X11.1118 Y-0.305
X11.1151 Y-0.301
X11.1186 Y-0.2972 Z6.8342
X11.1225 Y-0.2936
X11.1266 Y-0.2903 Z6.8341
X11.131 Y-0.2872 Z6.834
X11.1348 Y-0.2848
X11.1387 Y-0.2827 Z6.8339
X11.1429 Y-0.2807
X11.1469 Y-0.2791 Z6.8338
X11.1506 Y-0.2777
X11.1546 Y-0.2766 Z6.8337
X11.159 Y-0.2756 Z6.8336
X11.1636 Y-0.2748
X11.1669 Y-0.2744 Z6.8335
X11.1712 Y-0.2742
X11.1748 Y-0.2741 Z6.8334
X11.1809 Y-0.2744 Z6.8333
X11.1841 Y-0.2747
X11.1879 Y-0.2753
X11.1921 Y-0.2761 Z6.8332
X11.1963 Y-0.2773 Z6.8331
X11.2003 Y-0.2786
X11.2043 Y-0.2802 Z6.833
X11.2083 Y-0.2821
X11.212 Y-0.2842 Z6.8329
X11.2163 Y-0.2869
X11.2204 Y-0.2899 Z6.8328
X11.2244 Y-0.2933
X11.2282 Y-0.297
X11.2317 Y-0.3008 Z6.8327
X11.235 Y-0.305
X11.2381 Y-0.3093
X11.2408 Y-0.3139 Z6.8326
X11.2434 Y-0.3186
X11.2456 Y-0.3235
X11.2475 Y-0.3284
X11.2492 Y-0.3335
X11.2504 Y-0.3381 Z6.8325
X11.2513 Y-0.343
X11.252 Y-0.3471
X11.2523 Y-0.3505
X11.2526 Y-0.356
Y-0.3594
X11.2523 Y-0.366
X11.2518 Y-0.3703
X11.2513 Y-0.3739
X11.2506 Y-0.3773
X11.2496 Y-0.3812
X11.2483 Y-0.3854 Z6.8326
X11.2467 Y-0.3896
X11.2448 Y-0.3937
X11.2428 Y-0.3976
X11.2402 Y-0.4019
X11.2373 Y-0.4063 Z6.8327
X11.2342 Y-0.4104
X11.2308 Y-0.4143
X11.2271 Y-0.4181 Z6.8328
X11.2233 Y-0.4215
X11.2193 Y-0.4246 Z6.8329
X11.215 Y-0.4276
X11.2105 Y-0.4302
X11.2059 Y-0.4325 Z6.833
X11.2011 Y-0.4346 Z6.8331
X11.1963 Y-0.4363
X11.192 Y-0.4376 Z6.8332
X11.1878 Y-0.4385 Z6.8333
X11.1839 Y-0.4392
X11.1803 Y-0.4397 Z6.8334
X11.1753 Y-0.44
X11.1724 Z6.8335
X11.1653 Y-0.4397 Z6.8336
X11.161 Y-0.4392
X11.1575 Y-0.4387 Z6.8337
X11.1543 Y-0.438
X11.1505 Y-0.4371 Z6.8338
X11.1465 Y-0.4358
X11.1424 Y-0.4342 Z6.8339
X11.1384 Y-0.4322
X11.1344 Y-0.43 Z6.834
X11.1305 Y-0.4276
X11.1267 Y-0.4249 Z6.8341
X11.1232 Y-0.422
X11.1201 Y-0.4192 Z6.8342
X11.1169 Y-0.416
X11.1138 Y-0.4123 Z6.8343
X11.111 Y-0.4086
X11.1081 Y-0.4043
X11.1054 Y-0.3997 Z6.8344
X11.103 Y-0.3949
X11.1009 Y-0.3899
X11.099 Y-0.3846 Z6.8345
X11.0974 Y-0.379
X11.0962 Y-0.3737
X11.0954 Y-0.3694
X11.0948 Y-0.3655 Z6.8346
X11.0945 Y-0.3615
X11.0942 Y-0.3552
Y-0.3515
X11.0945 Y-0.3485
X11.0952 Y-0.3441 Z6.8345
X11.0968 Y-0.3364
Z6.8645
X11.1 Y-0.3245
X11.1023 Y-0.3166 Z6.8644
X11.105 Y-0.3081
X11.1081 Y-0.2994 Z6.8643
X11.1113 Y-0.291
X11.1147 Y-0.2827
X11.1186 Y-0.274 Z6.8642
X11.1227 Y-0.2655 Z6.8641
X11.1273 Y-0.2567
X11.1323 Y-0.2479 Z6.864
X11.1375 Y-0.2392 Z6.8639
X11.1431 Y-0.2307
X11.1489 Y-0.2223 Z6.8638
X11.1548 Y-0.2143 Z6.8637
X11.1608 Y-0.2067 Z6.8636
X11.1672 Y-0.199 Z6.8635
X11.1743 Y-0.1911 Z6.8634
X11.1813 Y-0.1837 Z6.8633
X11.1879 Y-0.177 Z6.8632
X11.1938 Y-0.1714
X11.2009 Y-0.165 Z6.8631
Z6.8531 F1.
X11.1938 Y-0.1714 Z6.8532 F3.
X11.1879 Y-0.177
X11.1813 Y-0.1837 Z6.8533
X11.1743 Y-0.1911 Z6.8534
X11.1672 Y-0.199 Z6.8535
X11.1608 Y-0.2067 Z6.8536
X11.1548 Y-0.2143 Z6.8537
X11.1489 Y-0.2223 Z6.8538
X11.1431 Y-0.2307 Z6.8539
X11.1375 Y-0.2392
X11.1323 Y-0.2479 Z6.854
X11.1273 Y-0.2567 Z6.8541
X11.1227 Y-0.2655
X11.1186 Y-0.274 Z6.8542
X11.1147 Y-0.2827 Z6.8543
X11.1113 Y-0.291
X11.1081 Y-0.2994
X11.105 Y-0.3081 Z6.8544
X11.1023 Y-0.3166
X11.1 Y-0.3245 Z6.8545
X11.0968 Y-0.3364
Z6.8445 F1.
X11.1 Y-0.3245 F3.
X11.1023 Y-0.3166 Z6.8444
X11.105 Y-0.3081
X11.1081 Y-0.2994 Z6.8443
X11.1113 Y-0.291
X11.1147 Y-0.2827
X11.1186 Y-0.274 Z6.8442
X11.1227 Y-0.2655 Z6.8441
X11.1273 Y-0.2567
X11.1323 Y-0.2479 Z6.844
X11.1375 Y-0.2392 Z6.8439
X11.1431 Y-0.2307
X11.1489 Y-0.2223 Z6.8438
X11.1548 Y-0.2143 Z6.8437
X11.1608 Y-0.2067 Z6.8436
X11.1672 Y-0.199 Z6.8435
X11.1743 Y-0.1911 Z6.8434
X11.1813 Y-0.1837 Z6.8433
X11.1879 Y-0.177 Z6.8432
X11.1938 Y-0.1714
X11.2009 Y-0.165 Z6.8431
Z6.8331 F1.
X11.1938 Y-0.1714 Z6.8332 F3.
X11.1879 Y-0.177
X11.1813 Y-0.1837 Z6.8333
X11.1743 Y-0.1911 Z6.8334
X11.1672 Y-0.199 Z6.8335
X11.1608 Y-0.2067 Z6.8336
X11.1548 Y-0.2143 Z6.8337
X11.1489 Y-0.2223 Z6.8338
X11.1431 Y-0.2307 Z6.8339
X11.1375 Y-0.2392
X11.1323 Y-0.2479 Z6.834
X11.1273 Y-0.2567 Z6.8341
X11.1227 Y-0.2655
X11.1186 Y-0.274 Z6.8342
X11.1147 Y-0.2827 Z6.8343
X11.1113 Y-0.291
X11.1081 Y-0.2994
X11.105 Y-0.3081 Z6.8344
X11.1023 Y-0.3166
X11.1 Y-0.3245 Z6.8345
X11.0968 Y-0.3364
G0 Z7.3559
X10.7769 Y-0.336
Z6.9473
G1 Z6.8713 F1.
X10.7785 Y-0.3304 F3.
X10.7799 Y-0.3261 Z6.8712
X10.7818 Y-0.3216
X10.7839 Y-0.3172 Z6.8711
X10.7863 Y-0.313
X10.7889 Y-0.3089 Z6.871
X10.7918 Y-0.305 Z6.8709
X10.7951 Y-0.301 Z6.8708
X10.7986 Y-0.2972
X10.8024 Y-0.2936 Z6.8707
X10.8066 Y-0.2903 Z6.8706
X10.8109 Y-0.2872 Z6.8704
X10.8148 Y-0.2848
X10.8186 Y-0.2827 Z6.8703
X10.8228 Y-0.2807 Z6.8702
X10.8268 Y-0.2791 Z6.8701
X10.8306 Y-0.2777 Z6.87
X10.8345 Y-0.2766 Z6.8699
X10.8389 Y-0.2756 Z6.8698
X10.8435 Y-0.2748 Z6.8696
X10.8467 Y-0.2744
X10.8512 Y-0.2742 Z6.8695
X10.8548 Y-0.2741 Z6.8694
X10.8608 Y-0.2744 Z6.8692
X10.864 Y-0.2747 Z6.8691
X10.8678 Y-0.2753 Z6.869
X10.872 Y-0.2761 Z6.8689
X10.8762 Y-0.2772 Z6.8688
X10.8803 Y-0.2786 Z6.8687
X10.8843 Y-0.2802 Z6.8686
X10.8882 Y-0.2821 Z6.8685
X10.892 Y-0.2842
X10.8962 Y-0.2869 Z6.8684
X10.9003 Y-0.2899 Z6.8683
X10.9044 Y-0.2933 Z6.8682
X10.9081 Y-0.297 Z6.8681
X10.9117 Y-0.3008
X10.915 Y-0.305 Z6.868
X10.918 Y-0.3093 Z6.8679
X10.9208 Y-0.3139
X10.9233 Y-0.3186 Z6.8678
X10.9256 Y-0.3235
X10.9275 Y-0.3284 Z6.8677
X10.9291 Y-0.3335
X10.9303 Y-0.3381
X10.9313 Y-0.343 Z6.8676
X10.9319 Y-0.3471
X10.9323 Y-0.3505
X10.9326 Y-0.356
Y-0.3594
X10.9323 Y-0.366
X10.9318 Y-0.3703
X10.9312 Y-0.3739
X10.9306 Y-0.3773 Z6.8677
X10.9296 Y-0.3812
X10.9283 Y-0.3853
X10.9267 Y-0.3895
X10.9248 Y-0.3937 Z6.8678
X10.9228 Y-0.3976
X10.9202 Y-0.4019 Z6.8679
X10.9172 Y-0.4063
X10.9142 Y-0.4104 Z6.868
X10.9108 Y-0.4143 Z6.8681
X10.907 Y-0.4181
X10.9033 Y-0.4215 Z6.8682
X10.8992 Y-0.4246 Z6.8683
X10.8949 Y-0.4276 Z6.8684
X10.8905 Y-0.4302 Z6.8685
X10.8859 Y-0.4325 Z6.8686
X10.8811 Y-0.4346 Z6.8687
X10.8762 Y-0.4363 Z6.8688
X10.872 Y-0.4375 Z6.8689
X10.8678 Y-0.4385 Z6.869
X10.8639 Y-0.4392 Z6.8691
X10.8604 Y-0.4397 Z6.8692
X10.8553 Y-0.44 Z6.8693
X10.8524 Z6.8694
X10.8454 Y-0.4397 Z6.8696
X10.8413 Y-0.4393 Z6.8697
X10.8382 Y-0.4388 Z6.8698
X10.8346 Y-0.4381 Z6.8699
X10.8305 Y-0.4371 Z6.87
X10.8264 Y-0.4358 Z6.8701
X10.8224 Y-0.4342 Z6.8702
X10.8183 Y-0.4322 Z6.8703
X10.8144 Y-0.43 Z6.8704
X10.8105 Y-0.4276 Z6.8705
X10.8067 Y-0.4249 Z6.8706
X10.8032 Y-0.4221
X10.8 Y-0.4192 Z6.8707
X10.7969 Y-0.416 Z6.8708
X10.7938 Y-0.4124 Z6.8709
X10.791 Y-0.4086
X10.7881 Y-0.4043 Z6.871
X10.7854 Y-0.3997 Z6.8711
X10.783 Y-0.3949
X10.7808 Y-0.3899 Z6.8712
X10.779 Y-0.3846
X10.7774 Y-0.379 Z6.8713
X10.7761 Y-0.3737
X10.7754 Y-0.3695
X10.7748 Y-0.3657
X10.7744 Y-0.3617 Z6.8714
X10.7741 Y-0.3554
X10.7742 Y-0.3518
X10.7745 Y-0.3486
X10.7752 Y-0.3442 Z6.8713
X10.7768 Y-0.3364
Z6.8613 F1.
X10.7752 Y-0.3442 F3.
X10.7745 Y-0.3486 Z6.8614
X10.7742 Y-0.3518
X10.7741 Y-0.3554
X10.7744 Y-0.3617
X10.7748 Y-0.3657 Z6.8613
X10.7754 Y-0.3695
X10.7761 Y-0.3737
X10.7774 Y-0.379
X10.779 Y-0.3846 Z6.8612
X10.7808 Y-0.3899
X10.783 Y-0.3949 Z6.8611
X10.7854 Y-0.3997
X10.7881 Y-0.4043 Z6.861
X10.791 Y-0.4086 Z6.8609
X10.7938 Y-0.4124
X10.7969 Y-0.416 Z6.8608
X10.8 Y-0.4192 Z6.8607
X10.8032 Y-0.4221 Z6.8606
X10.8067 Y-0.4249
X10.8105 Y-0.4276 Z6.8605
X10.8144 Y-0.43 Z6.8604
X10.8183 Y-0.4322 Z6.8603
X10.8224 Y-0.4342 Z6.8602
X10.8264 Y-0.4358 Z6.8601
X10.8305 Y-0.4371 Z6.86
X10.8346 Y-0.4381 Z6.8599
X10.8382 Y-0.4388 Z6.8598
X10.8413 Y-0.4393 Z6.8597
X10.8454 Y-0.4397 Z6.8596
X10.8524 Y-0.44 Z6.8594
X10.8553 Z6.8593
X10.8604 Y-0.4397 Z6.8592
X10.8639 Y-0.4392 Z6.8591
X10.8678 Y-0.4385 Z6.859
X10.872 Y-0.4375 Z6.8589
X10.8762 Y-0.4363 Z6.8588
X10.8811 Y-0.4346 Z6.8587
X10.8859 Y-0.4325 Z6.8586
X10.8905 Y-0.4302 Z6.8585
X10.8949 Y-0.4276 Z6.8584
X10.8992 Y-0.4246 Z6.8583
X10.9033 Y-0.4215 Z6.8582
X10.907 Y-0.4181 Z6.8581
X10.9108 Y-0.4143
X10.9142 Y-0.4104 Z6.858
X10.9172 Y-0.4063 Z6.8579
X10.9202 Y-0.4019
X10.9228 Y-0.3976 Z6.8578
X10.9248 Y-0.3937
X10.9267 Y-0.3895 Z6.8577
X10.9283 Y-0.3853
X10.9296 Y-0.3812
X10.9306 Y-0.3773
X10.9312 Y-0.3739 Z6.8576
X10.9318 Y-0.3703
X10.9323 Y-0.366
X10.9326 Y-0.3594
Y-0.356
X10.9323 Y-0.3505
X10.9319 Y-0.3471
X10.9313 Y-0.343
X10.9303 Y-0.3381 Z6.8577
X10.9291 Y-0.3335
X10.9275 Y-0.3284
X10.9256 Y-0.3235 Z6.8578
X10.9233 Y-0.3186
X10.9208 Y-0.3139 Z6.8579
X10.918 Y-0.3093
X10.915 Y-0.305 Z6.858
X10.9117 Y-0.3008 Z6.8581
X10.9081 Y-0.297
X10.9044 Y-0.2933 Z6.8582
X10.9003 Y-0.2899 Z6.8583
X10.8962 Y-0.2869 Z6.8584
X10.892 Y-0.2842 Z6.8585
X10.8882 Y-0.2821
X10.8843 Y-0.2802 Z6.8586
X10.8803 Y-0.2786 Z6.8587
X10.8762 Y-0.2772 Z6.8588
X10.872 Y-0.2761 Z6.8589
X10.8678 Y-0.2753 Z6.859
X10.864 Y-0.2747 Z6.8591
X10.8608 Y-0.2744 Z6.8592
X10.8548 Y-0.2741 Z6.8594
X10.8512 Y-0.2742 Z6.8595
X10.8467 Y-0.2744 Z6.8596
X10.8435 Y-0.2748
X10.8389 Y-0.2756 Z6.8598
X10.8345 Y-0.2766 Z6.8599
X10.8306 Y-0.2777 Z6.86
X10.8268 Y-0.2791 Z6.8601
X10.8228 Y-0.2807 Z6.8602
X10.8186 Y-0.2827 Z6.8603
X10.8148 Y-0.2848 Z6.8604
X10.8109 Y-0.2872
X10.8066 Y-0.2903 Z6.8606
X10.8024 Y-0.2936 Z6.8607
X10.7986 Y-0.2972 Z6.8608
X10.7951 Y-0.301
X10.7918 Y-0.305 Z6.8609
X10.7889 Y-0.3089 Z6.861
X10.7863 Y-0.313 Z6.8611
X10.7839 Y-0.3172
X10.7818 Y-0.3216 Z6.8612
X10.7799 Y-0.3261
X10.7785 Y-0.3304 Z6.8613
X10.7769 Y-0.336
Z6.8513 F1.
X10.7785 Y-0.3304 F3.
X10.7799 Y-0.3261 Z6.8512
X10.7818 Y-0.3216
X10.7839 Y-0.3172 Z6.8511
X10.7863 Y-0.313
X10.7889 Y-0.3089 Z6.851
X10.7918 Y-0.305 Z6.8509
X10.7951 Y-0.301 Z6.8508
X10.7986 Y-0.2972
X10.8024 Y-0.2936 Z6.8507
X10.8066 Y-0.2903 Z6.8506
X10.8109 Y-0.2872 Z6.8504
X10.8148 Y-0.2848
X10.8186 Y-0.2827 Z6.8503
X10.8228 Y-0.2807 Z6.8502
X10.8268 Y-0.2791 Z6.8501
X10.8306 Y-0.2777 Z6.85
X10.8345 Y-0.2766 Z6.8499
X10.8389 Y-0.2756 Z6.8498
X10.8435 Y-0.2748 Z6.8496
X10.8467 Y-0.2744
X10.8512 Y-0.2742 Z6.8495
X10.8548 Y-0.2741 Z6.8494
X10.8608 Y-0.2744 Z6.8492
X10.864 Y-0.2747 Z6.8491
X10.8678 Y-0.2753 Z6.849
X10.872 Y-0.2761 Z6.8489
X10.8762 Y-0.2772 Z6.8488
X10.8803 Y-0.2786 Z6.8487
X10.8843 Y-0.2802 Z6.8486
X10.8882 Y-0.2821 Z6.8485
X10.892 Y-0.2842
X10.8962 Y-0.2869 Z6.8484
X10.9003 Y-0.2899 Z6.8483
X10.9044 Y-0.2933 Z6.8482
X10.9081 Y-0.297 Z6.8481
X10.9117 Y-0.3008
X10.915 Y-0.305 Z6.848
X10.918 Y-0.3093 Z6.8479
X10.9208 Y-0.3139
X10.9233 Y-0.3186 Z6.8478
X10.9256 Y-0.3235
X10.9275 Y-0.3284 Z6.8477
X10.9291 Y-0.3335
X10.9303 Y-0.3381
X10.9313 Y-0.343 Z6.8476
X10.9319 Y-0.3471
X10.9323 Y-0.3505
X10.9326 Y-0.356
Y-0.3594
X10.9323 Y-0.366
X10.9318 Y-0.3703
X10.9312 Y-0.3739
X10.9306 Y-0.3773 Z6.8477
X10.9296 Y-0.3812
X10.9283 Y-0.3853
X10.9267 Y-0.3895
X10.9248 Y-0.3937 Z6.8478
X10.9228 Y-0.3976
X10.9202 Y-0.4019 Z6.8479
X10.9172 Y-0.4063
X10.9142 Y-0.4104 Z6.848
X10.9108 Y-0.4143 Z6.8481
X10.907 Y-0.4181
X10.9033 Y-0.4215 Z6.8482
X10.8992 Y-0.4246 Z6.8483
X10.8949 Y-0.4276 Z6.8484
X10.8905 Y-0.4302 Z6.8485
X10.8859 Y-0.4325 Z6.8486
X10.8811 Y-0.4346 Z6.8487
X10.8762 Y-0.4363 Z6.8488
X10.872 Y-0.4375 Z6.8489
X10.8678 Y-0.4385 Z6.849
X10.8639 Y-0.4392 Z6.8491
X10.8604 Y-0.4397 Z6.8492
X10.8553 Y-0.44 Z6.8493
X10.8524 Z6.8494
X10.8454 Y-0.4397 Z6.8496
X10.8413 Y-0.4393 Z6.8497
X10.8382 Y-0.4388 Z6.8498
X10.8346 Y-0.4381 Z6.8499
X10.8305 Y-0.4371 Z6.85
X10.8264 Y-0.4358 Z6.8501
X10.8224 Y-0.4342 Z6.8502
X10.8183 Y-0.4322 Z6.8503
X10.8144 Y-0.43 Z6.8504
X10.8105 Y-0.4276 Z6.8505
X10.8067 Y-0.4249 Z6.8506
X10.8032 Y-0.4221
X10.8 Y-0.4192 Z6.8507
X10.7969 Y-0.416 Z6.8508
X10.7938 Y-0.4124 Z6.8509
X10.791 Y-0.4086
X10.7881 Y-0.4043 Z6.851
X10.7854 Y-0.3997 Z6.8511
X10.783 Y-0.3949
X10.7808 Y-0.3899 Z6.8512
X10.779 Y-0.3846
X10.7774 Y-0.379 Z6.8513
X10.7761 Y-0.3737
X10.7754 Y-0.3695
X10.7748 Y-0.3657
X10.7744 Y-0.3617 Z6.8514
X10.7741 Y-0.3554
X10.7742 Y-0.3518
X10.7745 Y-0.3486
X10.7752 Y-0.3442 Z6.8513
X10.7768 Y-0.3364
Z6.8413 F1.
X10.7752 Y-0.3442 F3.
X10.7745 Y-0.3486 Z6.8414
X10.7742 Y-0.3518
X10.7741 Y-0.3554
X10.7744 Y-0.3617
X10.7748 Y-0.3657 Z6.8413
X10.7754 Y-0.3695
X10.7761 Y-0.3737
X10.7774 Y-0.379
X10.779 Y-0.3846 Z6.8412
X10.7808 Y-0.3899
X10.783 Y-0.3949 Z6.8411
X10.7854 Y-0.3997
X10.7881 Y-0.4043 Z6.841
X10.791 Y-0.4086 Z6.8409
X10.7938 Y-0.4124
X10.7969 Y-0.416 Z6.8408
X10.8 Y-0.4192 Z6.8407
X10.8032 Y-0.4221 Z6.8406
X10.8067 Y-0.4249
X10.8105 Y-0.4276 Z6.8405
X10.8144 Y-0.43 Z6.8404
X10.8183 Y-0.4322 Z6.8403
X10.8224 Y-0.4342 Z6.8402
X10.8264 Y-0.4358 Z6.8401
X10.8305 Y-0.4371 Z6.84
X10.8346 Y-0.4381 Z6.8399
X10.8382 Y-0.4388 Z6.8398
X10.8413 Y-0.4393 Z6.8397
X10.8454 Y-0.4397 Z6.8396
X10.8524 Y-0.44 Z6.8394
X10.8553 Z6.8393
X10.8604 Y-0.4397 Z6.8392
X10.8639 Y-0.4392 Z6.8391
X10.8678 Y-0.4385 Z6.839
X10.872 Y-0.4375 Z6.8389
X10.8762 Y-0.4363 Z6.8388
X10.8811 Y-0.4346 Z6.8387
X10.8859 Y-0.4325 Z6.8386
X10.8905 Y-0.4302 Z6.8385
X10.8949 Y-0.4276 Z6.8384
X10.8992 Y-0.4246 Z6.8383
X10.9033 Y-0.4215 Z6.8382
X10.907 Y-0.4181 Z6.8381
X10.9108 Y-0.4143
X10.9142 Y-0.4104 Z6.838
X10.9172 Y-0.4063 Z6.8379
X10.9202 Y-0.4019
X10.9228 Y-0.3976 Z6.8378
X10.9248 Y-0.3937
X10.9267 Y-0.3895 Z6.8377
X10.9283 Y-0.3853
X10.9296 Y-0.3812
X10.9306 Y-0.3773
X10.9312 Y-0.3739 Z6.8376
X10.9318 Y-0.3703
X10.9323 Y-0.366
X10.9326 Y-0.3594
Y-0.356
X10.9323 Y-0.3505
X10.9319 Y-0.3471
X10.9313 Y-0.343
X10.9303 Y-0.3381 Z6.8377
X10.9291 Y-0.3335
X10.9275 Y-0.3284
X10.9256 Y-0.3235 Z6.8378
X10.9233 Y-0.3186
X10.9208 Y-0.3139 Z6.8379
X10.918 Y-0.3093
X10.915 Y-0.305 Z6.838
X10.9117 Y-0.3008 Z6.8381
X10.9081 Y-0.297
X10.9044 Y-0.2933 Z6.8382
X10.9003 Y-0.2899 Z6.8383
X10.8962 Y-0.2869 Z6.8384
X10.892 Y-0.2842 Z6.8385
X10.8882 Y-0.2821
X10.8843 Y-0.2802 Z6.8386
X10.8803 Y-0.2786 Z6.8387
X10.8762 Y-0.2772 Z6.8388
X10.872 Y-0.2761 Z6.8389
X10.8678 Y-0.2753 Z6.839
X10.864 Y-0.2747 Z6.8391
X10.8608 Y-0.2744 Z6.8392
X10.8548 Y-0.2741 Z6.8394
X10.8512 Y-0.2742 Z6.8395
X10.8467 Y-0.2744 Z6.8396
X10.8435 Y-0.2748
X10.8389 Y-0.2756 Z6.8398
X10.8345 Y-0.2766 Z6.8399
X10.8306 Y-0.2777 Z6.84
X10.8268 Y-0.2791 Z6.8401
X10.8228 Y-0.2807 Z6.8402
X10.8186 Y-0.2827 Z6.8403
X10.8148 Y-0.2848 Z6.8404
X10.8109 Y-0.2872
X10.8066 Y-0.2903 Z6.8406
X10.8024 Y-0.2936 Z6.8407
X10.7986 Y-0.2972 Z6.8408
X10.7951 Y-0.301
X10.7918 Y-0.305 Z6.8409
X10.7889 Y-0.3089 Z6.841
X10.7863 Y-0.313 Z6.8411
X10.7839 Y-0.3172
X10.7818 Y-0.3216 Z6.8412
X10.7799 Y-0.3261
X10.7785 Y-0.3304 Z6.8413
X10.7769 Y-0.336
G0 Z7.3559
X10.7768 Y-0.3364
Z6.9473
G1 Z6.8713 F1.
X10.78 Y-0.3245 Z6.8712 F3.
X10.7822 Y-0.3167
X10.785 Y-0.3082 Z6.8711
X10.788 Y-0.2994 Z6.871
X10.7912 Y-0.2911 Z6.8709
X10.7946 Y-0.2827
X10.7985 Y-0.2741 Z6.8708
X10.8026 Y-0.2655 Z6.8707
X10.8072 Y-0.2567 Z6.8705
X10.8122 Y-0.2479 Z6.8704
X10.8174 Y-0.2393 Z6.8703
X10.823 Y-0.2308 Z6.8701
X10.8288 Y-0.2224 Z6.87
X10.8348 Y-0.2144 Z6.8699
X10.8408 Y-0.2067 Z6.8697
X10.8471 Y-0.1991 Z6.8696
X10.8542 Y-0.1911 Z6.8694
X10.8611 Y-0.1838 Z6.8692
X10.8676 Y-0.1773 Z6.869
X10.873 Y-0.1722 Z6.8689
X10.8808 Y-0.165 Z6.8687
Z6.8587 F1.
X10.873 Y-0.1722 Z6.8589 F3.
X10.8676 Y-0.1773 Z6.859
X10.8611 Y-0.1838 Z6.8592
X10.8542 Y-0.1911 Z6.8594
X10.8471 Y-0.1991 Z6.8596
X10.8408 Y-0.2067 Z6.8597
X10.8348 Y-0.2144 Z6.8599
X10.8288 Y-0.2224 Z6.86
X10.823 Y-0.2308 Z6.8601
X10.8174 Y-0.2393 Z6.8603
X10.8122 Y-0.2479 Z6.8604
X10.8072 Y-0.2567 Z6.8605
X10.8026 Y-0.2655 Z6.8607
X10.7985 Y-0.2741 Z6.8608
X10.7946 Y-0.2827 Z6.8609
X10.7912 Y-0.2911
X10.788 Y-0.2994 Z6.861
X10.785 Y-0.3082 Z6.8611
X10.7822 Y-0.3167 Z6.8612
X10.78 Y-0.3245
X10.7768 Y-0.3364 Z6.8613
Z6.8513 F1.
X10.78 Y-0.3245 Z6.8512 F3.
X10.7822 Y-0.3167
X10.785 Y-0.3082 Z6.8511
X10.788 Y-0.2994 Z6.851
X10.7912 Y-0.2911 Z6.8509
X10.7946 Y-0.2827
X10.7985 Y-0.2741 Z6.8508
X10.8026 Y-0.2655 Z6.8507
X10.8072 Y-0.2567 Z6.8505
X10.8122 Y-0.2479 Z6.8504
X10.8174 Y-0.2393 Z6.8503
X10.823 Y-0.2308 Z6.8501
X10.8288 Y-0.2224 Z6.85
X10.8348 Y-0.2144 Z6.8499
X10.8408 Y-0.2067 Z6.8497
X10.8471 Y-0.1991 Z6.8496
X10.8542 Y-0.1911 Z6.8494
X10.8611 Y-0.1838 Z6.8492
X10.8676 Y-0.1773 Z6.849
X10.873 Y-0.1722 Z6.8489
X10.8808 Y-0.165 Z6.8487
Z6.8387 F1.
X10.873 Y-0.1722 Z6.8389 F3.
X10.8676 Y-0.1773 Z6.839
X10.8611 Y-0.1838 Z6.8392
X10.8542 Y-0.1911 Z6.8394
X10.8471 Y-0.1991 Z6.8396
X10.8408 Y-0.2067 Z6.8397
X10.8348 Y-0.2144 Z6.8399
X10.8288 Y-0.2224 Z6.84
X10.823 Y-0.2308 Z6.8401
X10.8174 Y-0.2393 Z6.8403
X10.8122 Y-0.2479 Z6.8404
X10.8072 Y-0.2567 Z6.8405
X10.8026 Y-0.2655 Z6.8407
X10.7985 Y-0.2741 Z6.8408
X10.7946 Y-0.2827 Z6.8409
X10.7912 Y-0.2911
X10.788 Y-0.2994 Z6.841
X10.785 Y-0.3082 Z6.8411
X10.7822 Y-0.3167 Z6.8412
X10.78 Y-0.3245
X10.7768 Y-0.3364 Z6.8413
G0 Z7.3559
X10.4568 Y-0.336
Z6.9579
G1 Z6.8816 F1.
X10.4584 Y-0.3304 Z6.8815 F3.
X10.4599 Y-0.3261
X10.4618 Y-0.3216 Z6.8814
X10.4639 Y-0.3172 Z6.8813
X10.4662 Y-0.313 Z6.8812
X10.4689 Y-0.3089 Z6.8811
X10.4717 Y-0.305 Z6.881
X10.475 Y-0.301 Z6.8809
X10.4786 Y-0.2972 Z6.8808
X10.4824 Y-0.2937 Z6.8806
X10.4865 Y-0.2903 Z6.8805
X10.4909 Y-0.2872 Z6.8803
X10.4947 Y-0.2848 Z6.8802
X10.4986 Y-0.2827 Z6.8801
X10.5028 Y-0.2807 Z6.8799
X10.5067 Y-0.2791 Z6.8798
X10.5105 Y-0.2777 Z6.8796
X10.5144 Y-0.2766 Z6.8795
X10.5189 Y-0.2756 Z6.8793
X10.5234 Y-0.2748 Z6.8792
X10.5266 Y-0.2744 Z6.8791
X10.5311 Y-0.2742 Z6.8789
X10.5347 Y-0.2741 Z6.8788
X10.5406 Y-0.2744 Z6.8786
X10.5439 Y-0.2747 Z6.8784
X10.5477 Y-0.2753 Z6.8783
X10.5519 Y-0.2761 Z6.8782
X10.5561 Y-0.2772 Z6.878
X10.5602 Y-0.2786 Z6.8779
X10.5642 Y-0.2802 Z6.8777
X10.5681 Y-0.2821 Z6.8776
X10.5719 Y-0.2842 Z6.8775
X10.5761 Y-0.2869 Z6.8773
X10.5803 Y-0.2899 Z6.8772
X10.5843 Y-0.2933 Z6.8771
X10.5881 Y-0.297 Z6.877
X10.5916 Y-0.3008 Z6.8768
X10.5949 Y-0.3049 Z6.8767
X10.598 Y-0.3093 Z6.8766
X10.6008 Y-0.3139
X10.6033 Y-0.3186 Z6.8765
X10.6055 Y-0.3234 Z6.8764
X10.6074 Y-0.3284 Z6.8763
X10.6091 Y-0.3335
X10.6103 Y-0.3381 Z6.8762
X10.6113 Y-0.343
X10.6119 Y-0.3471
X10.6123 Y-0.3505
X10.6125 Y-0.356
Y-0.3594
X10.6122 Y-0.366
X10.6118 Y-0.3703
X10.6112 Y-0.3737
X10.6105 Y-0.3772
X10.6095 Y-0.3811 Z6.8763
X10.6082 Y-0.3853
X10.6066 Y-0.3895 Z6.8764
X10.6048 Y-0.3937
X10.6028 Y-0.3975 Z6.8765
X10.6002 Y-0.4019 Z6.8766
X10.5972 Y-0.4063 Z6.8767
X10.5941 Y-0.4104 Z6.8768
X10.5907 Y-0.4143 Z6.8769
X10.587 Y-0.4181 Z6.877
X10.5832 Y-0.4215 Z6.8771
X10.5792 Y-0.4246 Z6.8772
X10.5749 Y-0.4276 Z6.8774
X10.5705 Y-0.4302 Z6.8775
X10.5658 Y-0.4325 Z6.8777
X10.5611 Y-0.4346 Z6.8778
X10.5562 Y-0.4363 Z6.878
X10.552 Y-0.4375 Z6.8781
X10.5478 Y-0.4385 Z6.8783
X10.5439 Y-0.4392 Z6.8784
X10.5403 Y-0.4397 Z6.8786
X10.5353 Y-0.44 Z6.8787
X10.5323 Z6.8789
X10.5255 Y-0.4397 Z6.8791
X10.5216 Y-0.4393 Z6.8792
X10.5185 Y-0.4389 Z6.8794
X10.5147 Y-0.4381 Z6.8795
X10.5105 Y-0.4371 Z6.8796
X10.5065 Y-0.4358 Z6.8798
X10.5024 Y-0.4342 Z6.8799
X10.4983 Y-0.4323 Z6.8801
X10.4944 Y-0.4301 Z6.8802
X10.4905 Y-0.4276 Z6.8804
X10.4867 Y-0.4249 Z6.8805
X10.4832 Y-0.4221 Z6.8806
X10.48 Y-0.4192 Z6.8807
X10.4769 Y-0.416 Z6.8808
X10.4738 Y-0.4124 Z6.881
X10.471 Y-0.4086 Z6.8811
X10.4681 Y-0.4043 Z6.8812
X10.4654 Y-0.3997 Z6.8813
X10.4629 Y-0.3949
X10.4608 Y-0.3899 Z6.8814
X10.459 Y-0.3846 Z6.8815
X10.4573 Y-0.379
X10.4561 Y-0.3738 Z6.8816
X10.4553 Y-0.3696
X10.4548 Y-0.3658
X10.4544 Y-0.3618
X10.4541 Y-0.3556 Z6.8817
Y-0.3519
X10.4544 Y-0.3487 Z6.8816
X10.4551 Y-0.3442
X10.4567 Y-0.3364
Z6.8716 F1.
X10.4551 Y-0.3442 F3.
X10.4544 Y-0.3487
X10.4541 Y-0.3519 Z6.8717
Y-0.3556
X10.4544 Y-0.3618 Z6.8716
X10.4548 Y-0.3658
X10.4553 Y-0.3696
X10.4561 Y-0.3738
X10.4573 Y-0.379 Z6.8715
X10.459 Y-0.3846
X10.4608 Y-0.3899 Z6.8714
X10.4629 Y-0.3949 Z6.8713
X10.4654 Y-0.3997
X10.4681 Y-0.4043 Z6.8712
X10.471 Y-0.4086 Z6.8711
X10.4738 Y-0.4124 Z6.871
X10.4769 Y-0.416 Z6.8708
X10.48 Y-0.4192 Z6.8707
X10.4832 Y-0.4221 Z6.8706
X10.4867 Y-0.4249 Z6.8705
X10.4905 Y-0.4276 Z6.8704
X10.4944 Y-0.4301 Z6.8702
X10.4983 Y-0.4323 Z6.8701
X10.5024 Y-0.4342 Z6.8699
X10.5065 Y-0.4358 Z6.8698
X10.5105 Y-0.4371 Z6.8696
X10.5147 Y-0.4381 Z6.8695
X10.5185 Y-0.4389 Z6.8694
X10.5216 Y-0.4393 Z6.8692
X10.5255 Y-0.4397 Z6.8691
X10.5323 Y-0.44 Z6.8689
X10.5353 Z6.8687
X10.5403 Y-0.4397 Z6.8686
X10.5439 Y-0.4392 Z6.8684
X10.5478 Y-0.4385 Z6.8683
X10.552 Y-0.4375 Z6.8681
X10.5562 Y-0.4363 Z6.868
X10.5611 Y-0.4346 Z6.8678
X10.5658 Y-0.4325 Z6.8677
X10.5705 Y-0.4302 Z6.8675
X10.5749 Y-0.4276 Z6.8674
X10.5792 Y-0.4246 Z6.8672
X10.5832 Y-0.4215 Z6.8671
X10.587 Y-0.4181 Z6.867
X10.5907 Y-0.4143 Z6.8669
X10.5941 Y-0.4104 Z6.8668
X10.5972 Y-0.4063 Z6.8667
X10.6002 Y-0.4019 Z6.8666
X10.6028 Y-0.3975 Z6.8665
X10.6048 Y-0.3937 Z6.8664
X10.6066 Y-0.3895
X10.6082 Y-0.3853 Z6.8663
X10.6095 Y-0.3811
X10.6105 Y-0.3772 Z6.8662
X10.6112 Y-0.3737
X10.6118 Y-0.3703
X10.6122 Y-0.366
X10.6125 Y-0.3594
Y-0.356
X10.6123 Y-0.3505
X10.6119 Y-0.3471
X10.6113 Y-0.343
X10.6103 Y-0.3381
X10.6091 Y-0.3335 Z6.8663
X10.6074 Y-0.3284
X10.6055 Y-0.3234 Z6.8664
X10.6033 Y-0.3186 Z6.8665
X10.6008 Y-0.3139 Z6.8666
X10.598 Y-0.3093
X10.5949 Y-0.3049 Z6.8667
X10.5916 Y-0.3008 Z6.8668
X10.5881 Y-0.297 Z6.867
X10.5843 Y-0.2933 Z6.8671
X10.5803 Y-0.2899 Z6.8672
X10.5761 Y-0.2869 Z6.8673
X10.5719 Y-0.2842 Z6.8675
X10.5681 Y-0.2821 Z6.8676
X10.5642 Y-0.2802 Z6.8677
X10.5602 Y-0.2786 Z6.8679
X10.5561 Y-0.2772 Z6.868
X10.5519 Y-0.2761 Z6.8682
X10.5477 Y-0.2753 Z6.8683
X10.5439 Y-0.2747 Z6.8684
X10.5406 Y-0.2744 Z6.8686
X10.5347 Y-0.2741 Z6.8688
X10.5311 Y-0.2742 Z6.8689
X10.5266 Y-0.2744 Z6.8691
X10.5234 Y-0.2748 Z6.8692
X10.5189 Y-0.2756 Z6.8693
X10.5144 Y-0.2766 Z6.8695
X10.5105 Y-0.2777 Z6.8696
X10.5067 Y-0.2791 Z6.8698
X10.5028 Y-0.2807 Z6.8699
X10.4986 Y-0.2827 Z6.8701
X10.4947 Y-0.2848 Z6.8702
X10.4909 Y-0.2872 Z6.8703
X10.4865 Y-0.2903 Z6.8705
X10.4824 Y-0.2937 Z6.8706
X10.4786 Y-0.2972 Z6.8708
X10.475 Y-0.301 Z6.8709
X10.4717 Y-0.305 Z6.871
X10.4689 Y-0.3089 Z6.8711
X10.4662 Y-0.313 Z6.8712
X10.4639 Y-0.3172 Z6.8713
X10.4618 Y-0.3216 Z6.8714
X10.4599 Y-0.3261 Z6.8715
X10.4584 Y-0.3304
X10.4568 Y-0.336 Z6.8716
Z6.8616 F1.
X10.4584 Y-0.3304 Z6.8615 F3.
X10.4599 Y-0.3261
X10.4618 Y-0.3216 Z6.8614
X10.4639 Y-0.3172 Z6.8613
X10.4662 Y-0.313 Z6.8612
X10.4689 Y-0.3089 Z6.8611
X10.4717 Y-0.305 Z6.861
X10.475 Y-0.301 Z6.8609
X10.4786 Y-0.2972 Z6.8608
X10.4824 Y-0.2937 Z6.8606
X10.4865 Y-0.2903 Z6.8605
X10.4909 Y-0.2872 Z6.8603
X10.4947 Y-0.2848 Z6.8602
X10.4986 Y-0.2827 Z6.8601
X10.5028 Y-0.2807 Z6.8599
X10.5067 Y-0.2791 Z6.8598
X10.5105 Y-0.2777 Z6.8596
X10.5144 Y-0.2766 Z6.8595
X10.5189 Y-0.2756 Z6.8593
X10.5234 Y-0.2748 Z6.8592
X10.5266 Y-0.2744 Z6.8591
X10.5311 Y-0.2742 Z6.8589
X10.5347 Y-0.2741 Z6.8588
X10.5406 Y-0.2744 Z6.8586
X10.5439 Y-0.2747 Z6.8584
X10.5477 Y-0.2753 Z6.8583
X10.5519 Y-0.2761 Z6.8582
X10.5561 Y-0.2772 Z6.858
X10.5602 Y-0.2786 Z6.8579
X10.5642 Y-0.2802 Z6.8577
X10.5681 Y-0.2821 Z6.8576
X10.5719 Y-0.2842 Z6.8575
X10.5761 Y-0.2869 Z6.8573
X10.5803 Y-0.2899 Z6.8572
X10.5843 Y-0.2933 Z6.8571
X10.5881 Y-0.297 Z6.857
X10.5916 Y-0.3008 Z6.8568
X10.5949 Y-0.3049 Z6.8567
X10.598 Y-0.3093 Z6.8566
X10.6008 Y-0.3139
X10.6033 Y-0.3186 Z6.8565
X10.6055 Y-0.3234 Z6.8564
X10.6074 Y-0.3284 Z6.8563
X10.6091 Y-0.3335
X10.6103 Y-0.3381 Z6.8562
X10.6113 Y-0.343
X10.6119 Y-0.3471
X10.6123 Y-0.3505
X10.6125 Y-0.356
Y-0.3594
X10.6122 Y-0.366
X10.6118 Y-0.3703
X10.6112 Y-0.3737
X10.6105 Y-0.3772
X10.6095 Y-0.3811 Z6.8563
X10.6082 Y-0.3853
X10.6066 Y-0.3895 Z6.8564
X10.6048 Y-0.3937
X10.6028 Y-0.3975 Z6.8565
X10.6002 Y-0.4019 Z6.8566
X10.5972 Y-0.4063 Z6.8567
X10.5941 Y-0.4104 Z6.8568
X10.5907 Y-0.4143 Z6.8569
X10.587 Y-0.4181 Z6.857
X10.5832 Y-0.4215 Z6.8571
X10.5792 Y-0.4246 Z6.8572
X10.5749 Y-0.4276 Z6.8574
X10.5705 Y-0.4302 Z6.8575
X10.5658 Y-0.4325 Z6.8577
X10.5611 Y-0.4346 Z6.8578
X10.5562 Y-0.4363 Z6.858
X10.552 Y-0.4375 Z6.8581
X10.5478 Y-0.4385 Z6.8583
X10.5439 Y-0.4392 Z6.8584
X10.5403 Y-0.4397 Z6.8586
X10.5353 Y-0.44 Z6.8587
X10.5323 Z6.8589
X10.5255 Y-0.4397 Z6.8591
X10.5216 Y-0.4393 Z6.8592
X10.5185 Y-0.4389 Z6.8594
X10.5147 Y-0.4381 Z6.8595
X10.5105 Y-0.4371 Z6.8596
X10.5065 Y-0.4358 Z6.8598
X10.5024 Y-0.4342 Z6.8599
X10.4983 Y-0.4323 Z6.8601
X10.4944 Y-0.4301 Z6.8602
X10.4905 Y-0.4276 Z6.8604
X10.4867 Y-0.4249 Z6.8605
X10.4832 Y-0.4221 Z6.8606
X10.48 Y-0.4192 Z6.8607
X10.4769 Y-0.416 Z6.8608
X10.4738 Y-0.4124 Z6.861
X10.471 Y-0.4086 Z6.8611
X10.4681 Y-0.4043 Z6.8612
X10.4654 Y-0.3997 Z6.8613
X10.4629 Y-0.3949
X10.4608 Y-0.3899 Z6.8614
X10.459 Y-0.3846 Z6.8615
X10.4573 Y-0.379
X10.4561 Y-0.3738 Z6.8616
X10.4553 Y-0.3696
X10.4548 Y-0.3658
X10.4544 Y-0.3618
X10.4541 Y-0.3556 Z6.8617
Y-0.3519
X10.4544 Y-0.3487 Z6.8616
X10.4551 Y-0.3442
X10.4567 Y-0.3364
Z6.8516 F1.
X10.4551 Y-0.3442 F3.
X10.4544 Y-0.3487
X10.4541 Y-0.3519 Z6.8517
Y-0.3556
X10.4544 Y-0.3618 Z6.8516
X10.4548 Y-0.3658
X10.4553 Y-0.3696
X10.4561 Y-0.3738
X10.4573 Y-0.379 Z6.8515
X10.459 Y-0.3846
X10.4608 Y-0.3899 Z6.8514
X10.4629 Y-0.3949 Z6.8513
X10.4654 Y-0.3997
X10.4681 Y-0.4043 Z6.8512
X10.471 Y-0.4086 Z6.8511
X10.4738 Y-0.4124 Z6.851
X10.4769 Y-0.416 Z6.8508
X10.48 Y-0.4192 Z6.8507
X10.4832 Y-0.4221 Z6.8506
X10.4867 Y-0.4249 Z6.8505
X10.4905 Y-0.4276 Z6.8504
X10.4944 Y-0.4301 Z6.8502
X10.4983 Y-0.4323 Z6.8501
X10.5024 Y-0.4342 Z6.8499
X10.5065 Y-0.4358 Z6.8498
X10.5105 Y-0.4371 Z6.8496
X10.5147 Y-0.4381 Z6.8495
X10.5185 Y-0.4389 Z6.8494
X10.5216 Y-0.4393 Z6.8492
X10.5255 Y-0.4397 Z6.8491
X10.5323 Y-0.44 Z6.8489
X10.5353 Z6.8487
X10.5403 Y-0.4397 Z6.8486
X10.5439 Y-0.4392 Z6.8484
X10.5478 Y-0.4385 Z6.8483
X10.552 Y-0.4375 Z6.8481
X10.5562 Y-0.4363 Z6.848
X10.5611 Y-0.4346 Z6.8478
X10.5658 Y-0.4325 Z6.8477
X10.5705 Y-0.4302 Z6.8475
X10.5749 Y-0.4276 Z6.8474
X10.5792 Y-0.4246 Z6.8472
X10.5832 Y-0.4215 Z6.8471
X10.587 Y-0.4181 Z6.847
X10.5907 Y-0.4143 Z6.8469
X10.5941 Y-0.4104 Z6.8468
X10.5972 Y-0.4063 Z6.8467
X10.6002 Y-0.4019 Z6.8466
X10.6028 Y-0.3975 Z6.8465
X10.6048 Y-0.3937 Z6.8464
X10.6066 Y-0.3895
X10.6082 Y-0.3853 Z6.8463
X10.6095 Y-0.3811
X10.6105 Y-0.3772 Z6.8462
X10.6112 Y-0.3737
X10.6118 Y-0.3703
X10.6122 Y-0.366
X10.6125 Y-0.3594
Y-0.356
X10.6123 Y-0.3505
X10.6119 Y-0.3471
X10.6113 Y-0.343
X10.6103 Y-0.3381
X10.6091 Y-0.3335 Z6.8463
X10.6074 Y-0.3284
X10.6055 Y-0.3234 Z6.8464
X10.6033 Y-0.3186 Z6.8465
X10.6008 Y-0.3139 Z6.8466
X10.598 Y-0.3093
X10.5949 Y-0.3049 Z6.8467
X10.5916 Y-0.3008 Z6.8468
X10.5881 Y-0.297 Z6.847
X10.5843 Y-0.2933 Z6.8471
X10.5803 Y-0.2899 Z6.8472
X10.5761 Y-0.2869 Z6.8473
X10.5719 Y-0.2842 Z6.8475
X10.5681 Y-0.2821 Z6.8476
X10.5642 Y-0.2802 Z6.8477
X10.5602 Y-0.2786 Z6.8479
X10.5561 Y-0.2772 Z6.848
X10.5519 Y-0.2761 Z6.8482
X10.5477 Y-0.2753 Z6.8483
X10.5439 Y-0.2747 Z6.8484
X10.5406 Y-0.2744 Z6.8486
X10.5347 Y-0.2741 Z6.8488
X10.5311 Y-0.2742 Z6.8489
X10.5266 Y-0.2744 Z6.8491
X10.5234 Y-0.2748 Z6.8492
X10.5189 Y-0.2756 Z6.8493
X10.5144 Y-0.2766 Z6.8495
X10.5105 Y-0.2777 Z6.8496
X10.5067 Y-0.2791 Z6.8498
X10.5028 Y-0.2807 Z6.8499
X10.4986 Y-0.2827 Z6.8501
X10.4947 Y-0.2848 Z6.8502
X10.4909 Y-0.2872 Z6.8503
X10.4865 Y-0.2903 Z6.8505
X10.4824 Y-0.2937 Z6.8506
X10.4786 Y-0.2972 Z6.8508
X10.475 Y-0.301 Z6.8509
X10.4717 Y-0.305 Z6.851
X10.4689 Y-0.3089 Z6.8511
X10.4662 Y-0.313 Z6.8512
X10.4639 Y-0.3172 Z6.8513
X10.4618 Y-0.3216 Z6.8514
X10.4599 Y-0.3261 Z6.8515
X10.4584 Y-0.3304
X10.4568 Y-0.336 Z6.8516
G0 Z7.3559
X10.4567 Y-0.3364
Z6.9579
G1 Z6.8816 F1.
X10.4599 Y-0.3246 Z6.8814 F3.
X10.4622 Y-0.3167
X10.4649 Y-0.3082 Z6.8813
X10.468 Y-0.2995 Z6.8812
X10.4711 Y-0.2911 Z6.881
X10.4746 Y-0.2828 Z6.8809
X10.4785 Y-0.2741 Z6.8808
X10.4826 Y-0.2656 Z6.8806
X10.4872 Y-0.2568 Z6.8805
X10.4922 Y-0.2479 Z6.8803
X10.4974 Y-0.2393 Z6.8801
X10.503 Y-0.2308 Z6.8799
X10.5088 Y-0.2224 Z6.8797
X10.5147 Y-0.2144 Z6.8795
X10.5207 Y-0.2067 Z6.8793
X10.5271 Y-0.1991 Z6.879
X10.5341 Y-0.1912 Z6.8788
X10.541 Y-0.1839 Z6.8785
X10.5473 Y-0.1775 Z6.8783
X10.5524 Y-0.1727 Z6.8781
X10.5602 Y-0.1655 Z6.8779
X10.5608 Y-0.165 Z6.8778
Z6.8678 F1.
X10.5602 Y-0.1655 Z6.8679 F3.
X10.5524 Y-0.1727 Z6.8681
X10.5473 Y-0.1775 Z6.8683
X10.541 Y-0.1839 Z6.8685
X10.5341 Y-0.1912 Z6.8688
X10.5271 Y-0.1991 Z6.869
X10.5207 Y-0.2067 Z6.8693
X10.5147 Y-0.2144 Z6.8695
X10.5088 Y-0.2224 Z6.8697
X10.503 Y-0.2308 Z6.8699
X10.4974 Y-0.2393 Z6.8701
X10.4922 Y-0.2479 Z6.8703
X10.4872 Y-0.2568 Z6.8705
X10.4826 Y-0.2656 Z6.8706
X10.4785 Y-0.2741 Z6.8708
X10.4746 Y-0.2828 Z6.8709
X10.4711 Y-0.2911 Z6.871
X10.468 Y-0.2995 Z6.8712
X10.4649 Y-0.3082 Z6.8713
X10.4622 Y-0.3167 Z6.8714
X10.4599 Y-0.3246
X10.4567 Y-0.3364 Z6.8716
Z6.8616 F1.
X10.4599 Y-0.3246 Z6.8614 F3.
X10.4622 Y-0.3167
X10.4649 Y-0.3082 Z6.8613
X10.468 Y-0.2995 Z6.8612
X10.4711 Y-0.2911 Z6.861
X10.4746 Y-0.2828 Z6.8609
X10.4785 Y-0.2741 Z6.8608
X10.4826 Y-0.2656 Z6.8606
X10.4872 Y-0.2568 Z6.8605
X10.4922 Y-0.2479 Z6.8603
X10.4974 Y-0.2393 Z6.8601
X10.503 Y-0.2308 Z6.8599
X10.5088 Y-0.2224 Z6.8597
X10.5147 Y-0.2144 Z6.8595
X10.5207 Y-0.2067 Z6.8593
X10.5271 Y-0.1991 Z6.859
X10.5341 Y-0.1912 Z6.8588
X10.541 Y-0.1839 Z6.8585
X10.5473 Y-0.1775 Z6.8583
X10.5524 Y-0.1727 Z6.8581
X10.5602 Y-0.1655 Z6.8579
X10.5608 Y-0.165 Z6.8578
Z6.8478 F1.
X10.5602 Y-0.1655 Z6.8479 F3.
X10.5524 Y-0.1727 Z6.8481
X10.5473 Y-0.1775 Z6.8483
X10.541 Y-0.1839 Z6.8485
X10.5341 Y-0.1912 Z6.8488
X10.5271 Y-0.1991 Z6.849
X10.5207 Y-0.2067 Z6.8493
X10.5147 Y-0.2144 Z6.8495
X10.5088 Y-0.2224 Z6.8497
X10.503 Y-0.2308 Z6.8499
X10.4974 Y-0.2393 Z6.8501
X10.4922 Y-0.2479 Z6.8503
X10.4872 Y-0.2568 Z6.8505
X10.4826 Y-0.2656 Z6.8506
X10.4785 Y-0.2741 Z6.8508
X10.4746 Y-0.2828 Z6.8509
X10.4711 Y-0.2911 Z6.851
X10.468 Y-0.2995 Z6.8512
X10.4649 Y-0.3082 Z6.8513
X10.4622 Y-0.3167 Z6.8514
X10.4599 Y-0.3246
X10.4567 Y-0.3364 Z6.8516
G0 Z7.3559
X10.1368 Y-0.336
Z6.9721
G1 Z6.8953 F1.
X10.1384 Y-0.3305 Z6.8952 F3.
X10.1399 Y-0.3261
X10.1417 Y-0.3216 Z6.8951
X10.1438 Y-0.3173 Z6.895
X10.1462 Y-0.313 Z6.8949
X10.1488 Y-0.3089 Z6.8947
X10.1517 Y-0.305 Z6.8946
X10.155 Y-0.301 Z6.8945
X10.1585 Y-0.2972 Z6.8943
X10.1623 Y-0.2937 Z6.8941
X10.1665 Y-0.2903 Z6.8939
X10.1708 Y-0.2872 Z6.8937
X10.1746 Y-0.2848 Z6.8935
X10.1785 Y-0.2827 Z6.8933
X10.1827 Y-0.2807 Z6.8932
X10.1867 Y-0.2791 Z6.893
X10.1904 Y-0.2777 Z6.8928
X10.1944 Y-0.2766 Z6.8926
X10.1988 Y-0.2756 Z6.8924
X10.2033 Y-0.2748 Z6.8922
X10.2066 Y-0.2744 Z6.892
X10.211 Y-0.2742 Z6.8918
X10.2146 Y-0.2741 Z6.8917
X10.2205 Y-0.2744 Z6.8914
X10.2238 Y-0.2747 Z6.8912
X10.2276 Y-0.2752 Z6.891
X10.2319 Y-0.2761 Z6.8908
X10.236 Y-0.2772 Z6.8907
X10.2401 Y-0.2786 Z6.8905
X10.2441 Y-0.2802 Z6.8903
X10.2481 Y-0.2821 Z6.8901
X10.2519 Y-0.2842 Z6.89
X10.2561 Y-0.2869 Z6.8898
X10.2603 Y-0.2899 Z6.8896
X10.2643 Y-0.2933 Z6.8894
X10.2681 Y-0.297 Z6.8893
X10.2716 Y-0.3008 Z6.8891
X10.2749 Y-0.3049 Z6.889
X10.2779 Y-0.3093 Z6.8888
X10.2807 Y-0.3138 Z6.8887
X10.2832 Y-0.3185 Z6.8886
X10.2855 Y-0.3234 Z6.8885
X10.2874 Y-0.3284 Z6.8884
X10.2891 Y-0.3335
X10.2902 Y-0.3381 Z6.8883
X10.2912 Y-0.343
X10.2919 Y-0.3471 Z6.8882
X10.2922 Y-0.3505
X10.2925 Y-0.356
Y-0.3594
X10.2922 Y-0.366
X10.2917 Y-0.3703 Z6.8883
X10.2912 Y-0.3737
X10.2905 Y-0.3772
X10.2895 Y-0.3811
X10.2882 Y-0.3853 Z6.8884
X10.2866 Y-0.3895 Z6.8885
X10.2847 Y-0.3937 Z6.8886
X10.2827 Y-0.3975
X10.2802 Y-0.4019 Z6.8888
X10.2772 Y-0.4063 Z6.8889
X10.2741 Y-0.4104 Z6.889
X10.2707 Y-0.4143 Z6.8892
X10.267 Y-0.418 Z6.8893
X10.2632 Y-0.4215 Z6.8895
X10.2592 Y-0.4246 Z6.8897
X10.2548 Y-0.4276 Z6.8898
X10.2504 Y-0.4302 Z6.89
X10.2458 Y-0.4325 Z6.8902
X10.2411 Y-0.4346 Z6.8904
X10.2362 Y-0.4363 Z6.8906
X10.232 Y-0.4375 Z6.8908
X10.2278 Y-0.4385 Z6.891
X10.224 Y-0.4392 Z6.8912
X10.2203 Y-0.4396 Z6.8914
X10.2154 Y-0.44 Z6.8916
X10.2124 Z6.8918
X10.2055 Y-0.4397 Z6.8921
X10.2018 Y-0.4393 Z6.8923
X10.1987 Y-0.4389 Z6.8924
X10.1947 Y-0.4382 Z6.8926
X10.1906 Y-0.4371 Z6.8928
X10.1864 Y-0.4358 Z6.893
X10.1823 Y-0.4342 Z6.8932
X10.1783 Y-0.4323 Z6.8934
X10.1743 Y-0.4301 Z6.8935
X10.1704 Y-0.4276 Z6.8937
X10.1667 Y-0.4249 Z6.8939
X10.1632 Y-0.4221 Z6.8941
X10.16 Y-0.4192 Z6.8942
X10.1568 Y-0.416 Z6.8944
X10.1537 Y-0.4124 Z6.8945
X10.151 Y-0.4087 Z6.8946
X10.1481 Y-0.4044 Z6.8948
X10.1453 Y-0.3997 Z6.8949
X10.1429 Y-0.3949 Z6.895
X10.1408 Y-0.3899 Z6.8951
X10.1389 Y-0.3847 Z6.8952
X10.1373 Y-0.3791 Z6.8953
X10.1361 Y-0.3739
X10.1353 Y-0.3697 Z6.8954
X10.1348 Y-0.3659
X10.1344 Y-0.3619
X10.1341 Y-0.3558
Y-0.352
X10.1344 Y-0.3487
X10.1351 Y-0.3443
X10.1367 Y-0.3364 Z6.8953
Z6.8853 F1.
X10.1351 Y-0.3443 Z6.8854 F3.
X10.1344 Y-0.3487
X10.1341 Y-0.352
Y-0.3558
X10.1344 Y-0.3619
X10.1348 Y-0.3659
X10.1353 Y-0.3697
X10.1361 Y-0.3739 Z6.8853
X10.1373 Y-0.3791
X10.1389 Y-0.3847 Z6.8852
X10.1408 Y-0.3899 Z6.8851
X10.1429 Y-0.3949 Z6.885
X10.1453 Y-0.3997 Z6.8849
X10.1481 Y-0.4044 Z6.8848
X10.151 Y-0.4087 Z6.8846
X10.1537 Y-0.4124 Z6.8845
X10.1568 Y-0.416 Z6.8844
X10.16 Y-0.4192 Z6.8842
X10.1632 Y-0.4221 Z6.8841
X10.1667 Y-0.4249 Z6.8839
X10.1704 Y-0.4276 Z6.8837
X10.1743 Y-0.4301 Z6.8835
X10.1783 Y-0.4323 Z6.8834
X10.1823 Y-0.4342 Z6.8832
X10.1864 Y-0.4358 Z6.883
X10.1906 Y-0.4371 Z6.8828
X10.1947 Y-0.4382 Z6.8826
X10.1987 Y-0.4389 Z6.8824
X10.2018 Y-0.4393 Z6.8823
X10.2055 Y-0.4397 Z6.8821
X10.2124 Y-0.44 Z6.8818
X10.2154 Z6.8816
X10.2203 Y-0.4396 Z6.8814
X10.224 Y-0.4392 Z6.8812
X10.2278 Y-0.4385 Z6.881
X10.232 Y-0.4375 Z6.8808
X10.2362 Y-0.4363 Z6.8806
X10.2411 Y-0.4346 Z6.8804
X10.2458 Y-0.4325 Z6.8802
X10.2504 Y-0.4302 Z6.88
X10.2548 Y-0.4276 Z6.8798
X10.2592 Y-0.4246 Z6.8797
X10.2632 Y-0.4215 Z6.8795
X10.267 Y-0.418 Z6.8793
X10.2707 Y-0.4143 Z6.8792
X10.2741 Y-0.4104 Z6.879
X10.2772 Y-0.4063 Z6.8789
X10.2802 Y-0.4019 Z6.8788
X10.2827 Y-0.3975 Z6.8786
X10.2847 Y-0.3937
X10.2866 Y-0.3895 Z6.8785
X10.2882 Y-0.3853 Z6.8784
X10.2895 Y-0.3811 Z6.8783
X10.2905 Y-0.3772
X10.2912 Y-0.3737
X10.2917 Y-0.3703
X10.2922 Y-0.366 Z6.8782
X10.2925 Y-0.3594
Y-0.356
X10.2922 Y-0.3505
X10.2919 Y-0.3471
X10.2912 Y-0.343 Z6.8783
X10.2902 Y-0.3381
X10.2891 Y-0.3335 Z6.8784
X10.2874 Y-0.3284
X10.2855 Y-0.3234 Z6.8785
X10.2832 Y-0.3185 Z6.8786
X10.2807 Y-0.3138 Z6.8787
X10.2779 Y-0.3093 Z6.8788
X10.2749 Y-0.3049 Z6.879
X10.2716 Y-0.3008 Z6.8791
X10.2681 Y-0.297 Z6.8793
X10.2643 Y-0.2933 Z6.8794
X10.2603 Y-0.2899 Z6.8796
X10.2561 Y-0.2869 Z6.8798
X10.2519 Y-0.2842 Z6.88
X10.2481 Y-0.2821 Z6.8801
X10.2441 Y-0.2802 Z6.8803
X10.2401 Y-0.2786 Z6.8805
X10.236 Y-0.2772 Z6.8807
X10.2319 Y-0.2761 Z6.8808
X10.2276 Y-0.2752 Z6.881
X10.2238 Y-0.2747 Z6.8812
X10.2205 Y-0.2744 Z6.8814
X10.2146 Y-0.2741 Z6.8817
X10.211 Y-0.2742 Z6.8818
X10.2066 Y-0.2744 Z6.882
X10.2033 Y-0.2748 Z6.8822
X10.1988 Y-0.2756 Z6.8824
X10.1944 Y-0.2766 Z6.8826
X10.1904 Y-0.2777 Z6.8828
X10.1867 Y-0.2791 Z6.883
X10.1827 Y-0.2807 Z6.8832
X10.1785 Y-0.2827 Z6.8833
X10.1746 Y-0.2848 Z6.8835
X10.1708 Y-0.2872 Z6.8837
X10.1665 Y-0.2903 Z6.8839
X10.1623 Y-0.2937 Z6.8841
X10.1585 Y-0.2972 Z6.8843
X10.155 Y-0.301 Z6.8845
X10.1517 Y-0.305 Z6.8846
X10.1488 Y-0.3089 Z6.8847
X10.1462 Y-0.313 Z6.8849
X10.1438 Y-0.3173 Z6.885
X10.1417 Y-0.3216 Z6.8851
X10.1399 Y-0.3261 Z6.8852
X10.1384 Y-0.3305
X10.1368 Y-0.336 Z6.8853
Z6.8753 F1.
X10.1384 Y-0.3305 Z6.8752 F3.
X10.1399 Y-0.3261
X10.1417 Y-0.3216 Z6.8751
X10.1438 Y-0.3173 Z6.875
X10.1462 Y-0.313 Z6.8749
X10.1488 Y-0.3089 Z6.8747
X10.1517 Y-0.305 Z6.8746
X10.155 Y-0.301 Z6.8745
X10.1585 Y-0.2972 Z6.8743
X10.1623 Y-0.2937 Z6.8741
X10.1665 Y-0.2903 Z6.8739
X10.1708 Y-0.2872 Z6.8737
X10.1746 Y-0.2848 Z6.8735
X10.1785 Y-0.2827 Z6.8733
X10.1827 Y-0.2807 Z6.8732
X10.1867 Y-0.2791 Z6.873
X10.1904 Y-0.2777 Z6.8728
X10.1944 Y-0.2766 Z6.8726
X10.1988 Y-0.2756 Z6.8724
X10.2033 Y-0.2748 Z6.8722
X10.2066 Y-0.2744 Z6.872
X10.211 Y-0.2742 Z6.8718
X10.2146 Y-0.2741 Z6.8717
X10.2205 Y-0.2744 Z6.8714
X10.2238 Y-0.2747 Z6.8712
X10.2276 Y-0.2752 Z6.871
X10.2319 Y-0.2761 Z6.8708
X10.236 Y-0.2772 Z6.8707
X10.2401 Y-0.2786 Z6.8705
X10.2441 Y-0.2802 Z6.8703
X10.2481 Y-0.2821 Z6.8701
X10.2519 Y-0.2842 Z6.87
X10.2561 Y-0.2869 Z6.8698
X10.2603 Y-0.2899 Z6.8696
X10.2643 Y-0.2933 Z6.8694
X10.2681 Y-0.297 Z6.8693
X10.2716 Y-0.3008 Z6.8691
X10.2749 Y-0.3049 Z6.869
X10.2779 Y-0.3093 Z6.8688
X10.2807 Y-0.3138 Z6.8687
X10.2832 Y-0.3185 Z6.8686
X10.2855 Y-0.3234 Z6.8685
X10.2874 Y-0.3284 Z6.8684
X10.2891 Y-0.3335
X10.2902 Y-0.3381 Z6.8683
X10.2912 Y-0.343
X10.2919 Y-0.3471 Z6.8682
X10.2922 Y-0.3505
X10.2925 Y-0.356
Y-0.3594
X10.2922 Y-0.366
X10.2917 Y-0.3703 Z6.8683
X10.2912 Y-0.3737
X10.2905 Y-0.3772
X10.2895 Y-0.3811
X10.2882 Y-0.3853 Z6.8684
X10.2866 Y-0.3895 Z6.8685
X10.2847 Y-0.3937 Z6.8686
X10.2827 Y-0.3975
X10.2802 Y-0.4019 Z6.8688
X10.2772 Y-0.4063 Z6.8689
X10.2741 Y-0.4104 Z6.869
X10.2707 Y-0.4143 Z6.8692
X10.267 Y-0.418 Z6.8693
X10.2632 Y-0.4215 Z6.8695
X10.2592 Y-0.4246 Z6.8697
X10.2548 Y-0.4276 Z6.8698
X10.2504 Y-0.4302 Z6.87
X10.2458 Y-0.4325 Z6.8702
X10.2411 Y-0.4346 Z6.8704
X10.2362 Y-0.4363 Z6.8706
X10.232 Y-0.4375 Z6.8708
X10.2278 Y-0.4385 Z6.871
X10.224 Y-0.4392 Z6.8712
X10.2203 Y-0.4396 Z6.8714
X10.2154 Y-0.44 Z6.8716
X10.2124 Z6.8718
X10.2055 Y-0.4397 Z6.8721
X10.2018 Y-0.4393 Z6.8723
X10.1987 Y-0.4389 Z6.8724
X10.1947 Y-0.4382 Z6.8726
X10.1906 Y-0.4371 Z6.8728
X10.1864 Y-0.4358 Z6.873
X10.1823 Y-0.4342 Z6.8732
X10.1783 Y-0.4323 Z6.8734
X10.1743 Y-0.4301 Z6.8735
X10.1704 Y-0.4276 Z6.8737
X10.1667 Y-0.4249 Z6.8739
X10.1632 Y-0.4221 Z6.8741
X10.16 Y-0.4192 Z6.8742
X10.1568 Y-0.416 Z6.8744
X10.1537 Y-0.4124 Z6.8745
X10.151 Y-0.4087 Z6.8746
X10.1481 Y-0.4044 Z6.8748
X10.1453 Y-0.3997 Z6.8749
X10.1429 Y-0.3949 Z6.875
X10.1408 Y-0.3899 Z6.8751
X10.1389 Y-0.3847 Z6.8752
X10.1373 Y-0.3791 Z6.8753
X10.1361 Y-0.3739
X10.1353 Y-0.3697 Z6.8754
X10.1348 Y-0.3659
X10.1344 Y-0.3619
X10.1341 Y-0.3558
Y-0.352
X10.1344 Y-0.3487
X10.1351 Y-0.3443
X10.1367 Y-0.3364 Z6.8753
Z6.8653 F1.
X10.1351 Y-0.3443 Z6.8654 F3.
X10.1344 Y-0.3487
X10.1341 Y-0.352
Y-0.3558
X10.1344 Y-0.3619
X10.1348 Y-0.3659
X10.1353 Y-0.3697
X10.1361 Y-0.3739 Z6.8653
X10.1373 Y-0.3791
X10.1389 Y-0.3847 Z6.8652
X10.1408 Y-0.3899 Z6.8651
X10.1429 Y-0.3949 Z6.865
X10.1453 Y-0.3997 Z6.8649
X10.1481 Y-0.4044 Z6.8648
X10.151 Y-0.4087 Z6.8646
X10.1537 Y-0.4124 Z6.8645
X10.1568 Y-0.416 Z6.8644
X10.16 Y-0.4192 Z6.8642
X10.1632 Y-0.4221 Z6.8641
X10.1667 Y-0.4249 Z6.8639
X10.1704 Y-0.4276 Z6.8637
X10.1743 Y-0.4301 Z6.8635
X10.1783 Y-0.4323 Z6.8634
X10.1823 Y-0.4342 Z6.8632
X10.1864 Y-0.4358 Z6.863
X10.1906 Y-0.4371 Z6.8628
X10.1947 Y-0.4382 Z6.8626
X10.1987 Y-0.4389 Z6.8624
X10.2018 Y-0.4393 Z6.8623
X10.2055 Y-0.4397 Z6.8621
X10.2124 Y-0.44 Z6.8618
X10.2154 Z6.8616
X10.2203 Y-0.4396 Z6.8614
X10.224 Y-0.4392 Z6.8612
X10.2278 Y-0.4385 Z6.861
X10.232 Y-0.4375 Z6.8608
X10.2362 Y-0.4363 Z6.8606
X10.2411 Y-0.4346 Z6.8604
X10.2458 Y-0.4325 Z6.8602
X10.2504 Y-0.4302 Z6.86
X10.2548 Y-0.4276 Z6.8598
X10.2592 Y-0.4246 Z6.8597
X10.2632 Y-0.4215 Z6.8595
X10.267 Y-0.418 Z6.8593
X10.2707 Y-0.4143 Z6.8592
X10.2741 Y-0.4104 Z6.859
X10.2772 Y-0.4063 Z6.8589
X10.2802 Y-0.4019 Z6.8588
X10.2827 Y-0.3975 Z6.8586
X10.2847 Y-0.3937
X10.2866 Y-0.3895 Z6.8585
X10.2882 Y-0.3853 Z6.8584
X10.2895 Y-0.3811 Z6.8583
X10.2905 Y-0.3772
X10.2912 Y-0.3737
X10.2917 Y-0.3703
X10.2922 Y-0.366 Z6.8582
X10.2925 Y-0.3594
Y-0.356
X10.2922 Y-0.3505
X10.2919 Y-0.3471
X10.2912 Y-0.343 Z6.8583
X10.2902 Y-0.3381
X10.2891 Y-0.3335 Z6.8584
X10.2874 Y-0.3284
X10.2855 Y-0.3234 Z6.8585
X10.2832 Y-0.3185 Z6.8586
X10.2807 Y-0.3138 Z6.8587
X10.2779 Y-0.3093 Z6.8588
X10.2749 Y-0.3049 Z6.859
X10.2716 Y-0.3008 Z6.8591
X10.2681 Y-0.297 Z6.8593
X10.2643 Y-0.2933 Z6.8594
X10.2603 Y-0.2899 Z6.8596
X10.2561 Y-0.2869 Z6.8598
X10.2519 Y-0.2842 Z6.86
X10.2481 Y-0.2821 Z6.8601
X10.2441 Y-0.2802 Z6.8603
X10.2401 Y-0.2786 Z6.8605
X10.236 Y-0.2772 Z6.8607
X10.2319 Y-0.2761 Z6.8608
X10.2276 Y-0.2752 Z6.861
X10.2238 Y-0.2747 Z6.8612
X10.2205 Y-0.2744 Z6.8614
X10.2146 Y-0.2741 Z6.8617
X10.211 Y-0.2742 Z6.8618
X10.2066 Y-0.2744 Z6.862
X10.2033 Y-0.2748 Z6.8622
X10.1988 Y-0.2756 Z6.8624
X10.1944 Y-0.2766 Z6.8626
X10.1904 Y-0.2777 Z6.8628
X10.1867 Y-0.2791 Z6.863
X10.1827 Y-0.2807 Z6.8632
X10.1785 Y-0.2827 Z6.8633
X10.1746 Y-0.2848 Z6.8635
X10.1708 Y-0.2872 Z6.8637
X10.1665 Y-0.2903 Z6.8639
X10.1623 Y-0.2937 Z6.8641
X10.1585 Y-0.2972 Z6.8643
X10.155 Y-0.301 Z6.8645
X10.1517 Y-0.305 Z6.8646
X10.1488 Y-0.3089 Z6.8647
X10.1462 Y-0.313 Z6.8649
X10.1438 Y-0.3173 Z6.865
X10.1417 Y-0.3216 Z6.8651
X10.1399 Y-0.3261 Z6.8652
X10.1384 Y-0.3305
X10.1368 Y-0.336 Z6.8653
G0 Z7.3559
X10.1367 Y-0.3364
Z6.9721
G1 Z6.8953 F1.
X10.1398 Y-0.3247 Z6.8952 F3.
X10.1421 Y-0.3168 Z6.8951
X10.1449 Y-0.3083 Z6.8949
X10.1479 Y-0.2995 Z6.8948
X10.1511 Y-0.2912 Z6.8946
X10.1546 Y-0.2828 Z6.8945
X10.1584 Y-0.2741 Z6.8943
X10.1625 Y-0.2656 Z6.8941
X10.1671 Y-0.2568 Z6.8939
X10.1721 Y-0.2479 Z6.8936
X10.1773 Y-0.2393 Z6.8934
X10.1829 Y-0.2308 Z6.8931
X10.1887 Y-0.2224 Z6.8929
X10.1946 Y-0.2144 Z6.8926
X10.2007 Y-0.2067 Z6.8923
X10.207 Y-0.1991 Z6.892
X10.2141 Y-0.1912 Z6.8917
X10.2208 Y-0.184 Z6.8914
X10.227 Y-0.1778 Z6.8911
X10.2319 Y-0.1731 Z6.8908
X10.2394 Y-0.1662 Z6.8905
X10.2408 Y-0.165
Z6.8805 F1.
X10.2394 Y-0.1662 F3.
X10.2319 Y-0.1731 Z6.8808
X10.227 Y-0.1778 Z6.8811
X10.2208 Y-0.184 Z6.8814
X10.2141 Y-0.1912 Z6.8817
X10.207 Y-0.1991 Z6.882
X10.2007 Y-0.2067 Z6.8823
X10.1946 Y-0.2144 Z6.8826
X10.1887 Y-0.2224 Z6.8829
X10.1829 Y-0.2308 Z6.8831
X10.1773 Y-0.2393 Z6.8834
X10.1721 Y-0.2479 Z6.8836
X10.1671 Y-0.2568 Z6.8839
X10.1625 Y-0.2656 Z6.8841
X10.1584 Y-0.2741 Z6.8843
X10.1546 Y-0.2828 Z6.8845
X10.1511 Y-0.2912 Z6.8846
X10.1479 Y-0.2995 Z6.8848
X10.1449 Y-0.3083 Z6.8849
X10.1421 Y-0.3168 Z6.8851
X10.1398 Y-0.3247 Z6.8852
X10.1367 Y-0.3364 Z6.8853
Z6.8753 F1.
X10.1398 Y-0.3247 Z6.8752 F3.
X10.1421 Y-0.3168 Z6.8751
X10.1449 Y-0.3083 Z6.8749
X10.1479 Y-0.2995 Z6.8748
X10.1511 Y-0.2912 Z6.8746
X10.1546 Y-0.2828 Z6.8745
X10.1584 Y-0.2741 Z6.8743
X10.1625 Y-0.2656 Z6.8741
X10.1671 Y-0.2568 Z6.8739
X10.1721 Y-0.2479 Z6.8736
X10.1773 Y-0.2393 Z6.8734
X10.1829 Y-0.2308 Z6.8731
X10.1887 Y-0.2224 Z6.8729
X10.1946 Y-0.2144 Z6.8726
X10.2007 Y-0.2067 Z6.8723
X10.207 Y-0.1991 Z6.872
X10.2141 Y-0.1912 Z6.8717
X10.2208 Y-0.184 Z6.8714
X10.227 Y-0.1778 Z6.8711
X10.2319 Y-0.1731 Z6.8708
X10.2394 Y-0.1662 Z6.8705
X10.2408 Y-0.165
Z6.8605 F1.
X10.2394 Y-0.1662 F3.
X10.2319 Y-0.1731 Z6.8608
X10.227 Y-0.1778 Z6.8611
X10.2208 Y-0.184 Z6.8614
X10.2141 Y-0.1912 Z6.8617
X10.207 Y-0.1991 Z6.862
X10.2007 Y-0.2067 Z6.8623
X10.1946 Y-0.2144 Z6.8626
X10.1887 Y-0.2224 Z6.8629
X10.1829 Y-0.2308 Z6.8631
X10.1773 Y-0.2393 Z6.8634
X10.1721 Y-0.2479 Z6.8636
X10.1671 Y-0.2568 Z6.8639
X10.1625 Y-0.2656 Z6.8641
X10.1584 Y-0.2741 Z6.8643
X10.1546 Y-0.2828 Z6.8645
X10.1511 Y-0.2912 Z6.8646
X10.1479 Y-0.2995 Z6.8648
X10.1449 Y-0.3083 Z6.8649
X10.1421 Y-0.3168 Z6.8651
X10.1398 Y-0.3247 Z6.8652
X10.1367 Y-0.3364 Z6.8653
G0 Z7.3559
X9.8168 Y-0.336
Z6.9897
G1 Z6.9125 F1.
X9.8183 Y-0.3305 Z6.9124 F3.
X9.8198 Y-0.3262
X9.8217 Y-0.3216 Z6.9122
X9.8238 Y-0.3173 Z6.9121
X9.8262 Y-0.313 Z6.912
X9.8288 Y-0.3089 Z6.9118
X9.8316 Y-0.305 Z6.9117
X9.8349 Y-0.301 Z6.9115
X9.8384 Y-0.2972 Z6.9113
X9.8423 Y-0.2937 Z6.9111
X9.8464 Y-0.2903 Z6.9108
X9.8508 Y-0.2872 Z6.9106
X9.8546 Y-0.2848 Z6.9103
X9.8584 Y-0.2827 Z6.9101
X9.8626 Y-0.2808 Z6.9099
X9.8666 Y-0.2791 Z6.9096
X9.8704 Y-0.2777 Z6.9094
X9.8743 Y-0.2766 Z6.9092
X9.8787 Y-0.2756 Z6.9089
X9.8832 Y-0.2748 Z6.9087
X9.8865 Y-0.2744 Z6.9085
X9.8909 Y-0.2742 Z6.9082
X9.8946 Y-0.2741 Z6.908
X9.9004 Y-0.2744 Z6.9077
X9.9037 Y-0.2747 Z6.9075
X9.9076 Y-0.2752 Z6.9073
X9.9118 Y-0.2761 Z6.907
X9.916 Y-0.2772 Z6.9068
X9.9201 Y-0.2786 Z6.9066
X9.9241 Y-0.2802 Z6.9064
X9.9281 Y-0.2821 Z6.9062
X9.9319 Y-0.2842 Z6.9059
X9.9361 Y-0.2869 Z6.9057
X9.9402 Y-0.2899 Z6.9055
X9.9442 Y-0.2933 Z6.9053
X9.948 Y-0.297 Z6.9051
X9.9516 Y-0.3008 Z6.9049
X9.9548 Y-0.3049 Z6.9047
X9.9579 Y-0.3093 Z6.9045
X9.9607 Y-0.3138 Z6.9044
X9.9632 Y-0.3185 Z6.9042
X9.9654 Y-0.3234 Z6.9041
X9.9674 Y-0.3283 Z6.904
X9.969 Y-0.3334 Z6.9039
X9.9702 Y-0.338
X9.9712 Y-0.343 Z6.9038
X9.9718 Y-0.347
X9.9722 Y-0.3505
X9.9725 Y-0.3559 Z6.9037
Y-0.3593
X9.9721 Y-0.366 Z6.9038
X9.9717 Y-0.3701
X9.9712 Y-0.3735
X9.9705 Y-0.377
X9.9695 Y-0.3811 Z6.9039
X9.9682 Y-0.3853 Z6.904
X9.9666 Y-0.3895 Z6.9041
X9.9647 Y-0.3937 Z6.9042
X9.9627 Y-0.3975 Z6.9043
X9.9601 Y-0.4019 Z6.9044
X9.9572 Y-0.4063 Z6.9046
X9.9541 Y-0.4103 Z6.9047
X9.9507 Y-0.4143 Z6.9049
X9.947 Y-0.418 Z6.9051
X9.9431 Y-0.4215 Z6.9053
X9.9391 Y-0.4246 Z6.9056
X9.9348 Y-0.4276 Z6.9058
X9.9304 Y-0.4302 Z6.906
X9.9258 Y-0.4325 Z6.9063
X9.921 Y-0.4346 Z6.9065
X9.9162 Y-0.4363 Z6.9068
X9.912 Y-0.4375 Z6.907
X9.9078 Y-0.4385 Z6.9073
X9.9039 Y-0.4392 Z6.9075
X9.9003 Y-0.4396 Z6.9077
X9.8954 Y-0.44 Z6.908
X9.8924 Z6.9082
X9.8856 Y-0.4397 Z6.9085
X9.8821 Y-0.4394 Z6.9087
X9.8788 Y-0.4389 Z6.9089
X9.8748 Y-0.4382 Z6.9092
X9.8705 Y-0.4371 Z6.9094
X9.8664 Y-0.4358 Z6.9097
X9.8623 Y-0.4342 Z6.9099
X9.8583 Y-0.4323 Z6.9101
X9.8543 Y-0.4301 Z6.9104
X9.8504 Y-0.4276 Z6.9106
X9.8467 Y-0.4249 Z6.9108
X9.8432 Y-0.4221 Z6.911
X9.84 Y-0.4192 Z6.9112
X9.8368 Y-0.416 Z6.9114
X9.8337 Y-0.4124 Z6.9115
X9.8309 Y-0.4087 Z6.9117
X9.828 Y-0.4044 Z6.9119
X9.8253 Y-0.3997 Z6.912
X9.8229 Y-0.3949 Z6.9122
X9.8208 Y-0.39 Z6.9123
X9.8189 Y-0.3847 Z6.9124
X9.8173 Y-0.3791 Z6.9125
X9.8161 Y-0.3739 Z6.9126
X9.8153 Y-0.3698
X9.8147 Y-0.366
X9.8143 Y-0.3619 Z6.9127
X9.8141 Y-0.3559
Y-0.3523
X9.8143 Y-0.349
X9.815 Y-0.3446 Z6.9126
X9.8167 Y-0.3364 Z6.9125
Z6.9025 F1.
X9.815 Y-0.3446 Z6.9026 F3.
X9.8143 Y-0.349 Z6.9027
X9.8141 Y-0.3523
Y-0.3559
X9.8143 Y-0.3619
X9.8147 Y-0.366 Z6.9026
X9.8153 Y-0.3698
X9.8161 Y-0.3739
X9.8173 Y-0.3791 Z6.9025
X9.8189 Y-0.3847 Z6.9024
X9.8208 Y-0.39 Z6.9023
X9.8229 Y-0.3949 Z6.9022
X9.8253 Y-0.3997 Z6.902
X9.828 Y-0.4044 Z6.9019
X9.8309 Y-0.4087 Z6.9017
X9.8337 Y-0.4124 Z6.9015
X9.8368 Y-0.416 Z6.9014
X9.84 Y-0.4192 Z6.9012
X9.8432 Y-0.4221 Z6.901
X9.8467 Y-0.4249 Z6.9008
X9.8504 Y-0.4276 Z6.9006
X9.8543 Y-0.4301 Z6.9004
X9.8583 Y-0.4323 Z6.9001
X9.8623 Y-0.4342 Z6.8999
X9.8664 Y-0.4358 Z6.8997
X9.8705 Y-0.4371 Z6.8994
X9.8748 Y-0.4382 Z6.8992
X9.8788 Y-0.4389 Z6.8989
X9.8821 Y-0.4394 Z6.8987
X9.8856 Y-0.4397 Z6.8985
X9.8924 Y-0.44 Z6.8982
X9.8954 Z6.898
X9.9003 Y-0.4396 Z6.8977
X9.9039 Y-0.4392 Z6.8975
X9.9078 Y-0.4385 Z6.8973
X9.912 Y-0.4375 Z6.897
X9.9162 Y-0.4363 Z6.8968
X9.921 Y-0.4346 Z6.8965
X9.9258 Y-0.4325 Z6.8963
X9.9304 Y-0.4302 Z6.896
X9.9348 Y-0.4276 Z6.8958
X9.9391 Y-0.4246 Z6.8956
X9.9431 Y-0.4215 Z6.8953
X9.947 Y-0.418 Z6.8951
X9.9507 Y-0.4143 Z6.8949
X9.9541 Y-0.4103 Z6.8947
X9.9572 Y-0.4063 Z6.8946
X9.9601 Y-0.4019 Z6.8944
X9.9627 Y-0.3975 Z6.8943
X9.9647 Y-0.3937 Z6.8942
X9.9666 Y-0.3895 Z6.8941
X9.9682 Y-0.3853 Z6.894
X9.9695 Y-0.3811 Z6.8939
X9.9705 Y-0.377 Z6.8938
X9.9712 Y-0.3735
X9.9717 Y-0.3701
X9.9721 Y-0.366
X9.9725 Y-0.3593 Z6.8937
Y-0.3559
X9.9722 Y-0.3505 Z6.8938
X9.9718 Y-0.347
X9.9712 Y-0.343
X9.9702 Y-0.338 Z6.8939
X9.969 Y-0.3334
X9.9674 Y-0.3283 Z6.894
X9.9654 Y-0.3234 Z6.8941
X9.9632 Y-0.3185 Z6.8942
X9.9607 Y-0.3138 Z6.8944
X9.9579 Y-0.3093 Z6.8945
X9.9548 Y-0.3049 Z6.8947
X9.9516 Y-0.3008 Z6.8949
X9.948 Y-0.297 Z6.8951
X9.9442 Y-0.2933 Z6.8953
X9.9402 Y-0.2899 Z6.8955
X9.9361 Y-0.2869 Z6.8957
X9.9319 Y-0.2842 Z6.8959
X9.9281 Y-0.2821 Z6.8962
X9.9241 Y-0.2802 Z6.8964
X9.9201 Y-0.2786 Z6.8966
X9.916 Y-0.2772 Z6.8968
X9.9118 Y-0.2761 Z6.897
X9.9076 Y-0.2752 Z6.8973
X9.9037 Y-0.2747 Z6.8975
X9.9004 Y-0.2744 Z6.8977
X9.8946 Y-0.2741 Z6.898
X9.8909 Y-0.2742 Z6.8982
X9.8865 Y-0.2744 Z6.8985
X9.8832 Y-0.2748 Z6.8987
X9.8787 Y-0.2756 Z6.8989
X9.8743 Y-0.2766 Z6.8992
X9.8704 Y-0.2777 Z6.8994
X9.8666 Y-0.2791 Z6.8996
X9.8626 Y-0.2808 Z6.8999
X9.8584 Y-0.2827 Z6.9001
X9.8546 Y-0.2848 Z6.9003
X9.8508 Y-0.2872 Z6.9006
X9.8464 Y-0.2903 Z6.9008
X9.8423 Y-0.2937 Z6.9011
X9.8384 Y-0.2972 Z6.9013
X9.8349 Y-0.301 Z6.9015
X9.8316 Y-0.305 Z6.9017
X9.8288 Y-0.3089 Z6.9018
X9.8262 Y-0.313 Z6.902
X9.8238 Y-0.3173 Z6.9021
X9.8217 Y-0.3216 Z6.9022
X9.8198 Y-0.3262 Z6.9024
X9.8183 Y-0.3305
X9.8168 Y-0.336 Z6.9025
Z6.8925 F1.
X9.8183 Y-0.3305 Z6.8924 F3.
X9.8198 Y-0.3262
X9.8217 Y-0.3216 Z6.8922
X9.8238 Y-0.3173 Z6.8921
X9.8262 Y-0.313 Z6.892
X9.8288 Y-0.3089 Z6.8918
X9.8316 Y-0.305 Z6.8917
X9.8349 Y-0.301 Z6.8915
X9.8384 Y-0.2972 Z6.8913
X9.8423 Y-0.2937 Z6.8911
X9.8464 Y-0.2903 Z6.8908
X9.8508 Y-0.2872 Z6.8906
X9.8546 Y-0.2848 Z6.8903
X9.8584 Y-0.2827 Z6.8901
X9.8626 Y-0.2808 Z6.8899
X9.8666 Y-0.2791 Z6.8896
X9.8704 Y-0.2777 Z6.8894
X9.8743 Y-0.2766 Z6.8892
X9.8787 Y-0.2756 Z6.8889
X9.8832 Y-0.2748 Z6.8887
X9.8865 Y-0.2744 Z6.8885
X9.8909 Y-0.2742 Z6.8882
X9.8946 Y-0.2741 Z6.888
X9.9004 Y-0.2744 Z6.8877
X9.9037 Y-0.2747 Z6.8875
X9.9076 Y-0.2752 Z6.8873
X9.9118 Y-0.2761 Z6.887
X9.916 Y-0.2772 Z6.8868
X9.9201 Y-0.2786 Z6.8866
X9.9241 Y-0.2802 Z6.8864
X9.9281 Y-0.2821 Z6.8862
X9.9319 Y-0.2842 Z6.8859
X9.9361 Y-0.2869 Z6.8857
X9.9402 Y-0.2899 Z6.8855
X9.9442 Y-0.2933 Z6.8853
X9.948 Y-0.297 Z6.8851
X9.9516 Y-0.3008 Z6.8849
X9.9548 Y-0.3049 Z6.8847
X9.9579 Y-0.3093 Z6.8845
X9.9607 Y-0.3138 Z6.8844
X9.9632 Y-0.3185 Z6.8842
X9.9654 Y-0.3234 Z6.8841
X9.9674 Y-0.3283 Z6.884
X9.969 Y-0.3334 Z6.8839
X9.9702 Y-0.338
X9.9712 Y-0.343 Z6.8838
X9.9718 Y-0.347
X9.9722 Y-0.3505
X9.9725 Y-0.3559 Z6.8837
Y-0.3593
X9.9721 Y-0.366 Z6.8838
X9.9717 Y-0.3701
X9.9712 Y-0.3735
X9.9705 Y-0.377
X9.9695 Y-0.3811 Z6.8839
X9.9682 Y-0.3853 Z6.884
X9.9666 Y-0.3895 Z6.8841
X9.9647 Y-0.3937 Z6.8842
X9.9627 Y-0.3975 Z6.8843
X9.9601 Y-0.4019 Z6.8844
X9.9572 Y-0.4063 Z6.8846
X9.9541 Y-0.4103 Z6.8847
X9.9507 Y-0.4143 Z6.8849
X9.947 Y-0.418 Z6.8851
X9.9431 Y-0.4215 Z6.8853
X9.9391 Y-0.4246 Z6.8856
X9.9348 Y-0.4276 Z6.8858
X9.9304 Y-0.4302 Z6.886
X9.9258 Y-0.4325 Z6.8863
X9.921 Y-0.4346 Z6.8865
X9.9162 Y-0.4363 Z6.8868
X9.912 Y-0.4375 Z6.887
X9.9078 Y-0.4385 Z6.8873
X9.9039 Y-0.4392 Z6.8875
X9.9003 Y-0.4396 Z6.8877
X9.8954 Y-0.44 Z6.888
X9.8924 Z6.8882
X9.8856 Y-0.4397 Z6.8885
X9.8821 Y-0.4394 Z6.8887
X9.8788 Y-0.4389 Z6.8889
X9.8748 Y-0.4382 Z6.8892
X9.8705 Y-0.4371 Z6.8894
X9.8664 Y-0.4358 Z6.8897
X9.8623 Y-0.4342 Z6.8899
X9.8583 Y-0.4323 Z6.8901
X9.8543 Y-0.4301 Z6.8904
X9.8504 Y-0.4276 Z6.8906
X9.8467 Y-0.4249 Z6.8908
X9.8432 Y-0.4221 Z6.891
X9.84 Y-0.4192 Z6.8912
X9.8368 Y-0.416 Z6.8914
X9.8337 Y-0.4124 Z6.8915
X9.8309 Y-0.4087 Z6.8917
X9.828 Y-0.4044 Z6.8919
X9.8253 Y-0.3997 Z6.892
X9.8229 Y-0.3949 Z6.8922
X9.8208 Y-0.39 Z6.8923
X9.8189 Y-0.3847 Z6.8924
X9.8173 Y-0.3791 Z6.8925
X9.8161 Y-0.3739 Z6.8926
X9.8153 Y-0.3698
X9.8147 Y-0.366
X9.8143 Y-0.3619 Z6.8927
X9.8141 Y-0.3559
Y-0.3523
X9.8143 Y-0.349
X9.815 Y-0.3446 Z6.8926
X9.8167 Y-0.3364 Z6.8925
Z6.8825 F1.
X9.815 Y-0.3446 Z6.8826 F3.
X9.8143 Y-0.349 Z6.8827
X9.8141 Y-0.3523
Y-0.3559
X9.8143 Y-0.3619
X9.8147 Y-0.366 Z6.8826
X9.8153 Y-0.3698
X9.8161 Y-0.3739
X9.8173 Y-0.3791 Z6.8825
X9.8189 Y-0.3847 Z6.8824
X9.8208 Y-0.39 Z6.8823
X9.8229 Y-0.3949 Z6.8822
X9.8253 Y-0.3997 Z6.882
X9.828 Y-0.4044 Z6.8819
X9.8309 Y-0.4087 Z6.8817
X9.8337 Y-0.4124 Z6.8815
X9.8368 Y-0.416 Z6.8814
X9.84 Y-0.4192 Z6.8812
X9.8432 Y-0.4221 Z6.881
X9.8467 Y-0.4249 Z6.8808
X9.8504 Y-0.4276 Z6.8806
X9.8543 Y-0.4301 Z6.8804
X9.8583 Y-0.4323 Z6.8801
X9.8623 Y-0.4342 Z6.8799
X9.8664 Y-0.4358 Z6.8797
X9.8705 Y-0.4371 Z6.8794
X9.8748 Y-0.4382 Z6.8792
X9.8788 Y-0.4389 Z6.8789
X9.8821 Y-0.4394 Z6.8787
X9.8856 Y-0.4397 Z6.8785
X9.8924 Y-0.44 Z6.8782
X9.8954 Z6.878
X9.9003 Y-0.4396 Z6.8777
X9.9039 Y-0.4392 Z6.8775
X9.9078 Y-0.4385 Z6.8773
X9.912 Y-0.4375 Z6.877
X9.9162 Y-0.4363 Z6.8768
X9.921 Y-0.4346 Z6.8765
X9.9258 Y-0.4325 Z6.8763
X9.9304 Y-0.4302 Z6.876
X9.9348 Y-0.4276 Z6.8758
X9.9391 Y-0.4246 Z6.8756
X9.9431 Y-0.4215 Z6.8753
X9.947 Y-0.418 Z6.8751
X9.9507 Y-0.4143 Z6.8749
X9.9541 Y-0.4103 Z6.8747
X9.9572 Y-0.4063 Z6.8746
X9.9601 Y-0.4019 Z6.8744
X9.9627 Y-0.3975 Z6.8743
X9.9647 Y-0.3937 Z6.8742
X9.9666 Y-0.3895 Z6.8741
X9.9682 Y-0.3853 Z6.874
X9.9695 Y-0.3811 Z6.8739
X9.9705 Y-0.377 Z6.8738
X9.9712 Y-0.3735
X9.9717 Y-0.3701
X9.9721 Y-0.366
X9.9725 Y-0.3593 Z6.8737
Y-0.3559
X9.9722 Y-0.3505 Z6.8738
X9.9718 Y-0.347
X9.9712 Y-0.343
X9.9702 Y-0.338 Z6.8739
X9.969 Y-0.3334
X9.9674 Y-0.3283 Z6.874
X9.9654 Y-0.3234 Z6.8741
X9.9632 Y-0.3185 Z6.8742
X9.9607 Y-0.3138 Z6.8744
X9.9579 Y-0.3093 Z6.8745
X9.9548 Y-0.3049 Z6.8747
X9.9516 Y-0.3008 Z6.8749
X9.948 Y-0.297 Z6.8751
X9.9442 Y-0.2933 Z6.8753
X9.9402 Y-0.2899 Z6.8755
X9.9361 Y-0.2869 Z6.8757
X9.9319 Y-0.2842 Z6.8759
X9.9281 Y-0.2821 Z6.8762
X9.9241 Y-0.2802 Z6.8764
X9.9201 Y-0.2786 Z6.8766
X9.916 Y-0.2772 Z6.8768
X9.9118 Y-0.2761 Z6.877
X9.9076 Y-0.2752 Z6.8773
X9.9037 Y-0.2747 Z6.8775
X9.9004 Y-0.2744 Z6.8777
X9.8946 Y-0.2741 Z6.878
X9.8909 Y-0.2742 Z6.8782
X9.8865 Y-0.2744 Z6.8785
X9.8832 Y-0.2748 Z6.8787
X9.8787 Y-0.2756 Z6.8789
X9.8743 Y-0.2766 Z6.8792
X9.8704 Y-0.2777 Z6.8794
X9.8666 Y-0.2791 Z6.8796
X9.8626 Y-0.2808 Z6.8799
X9.8584 Y-0.2827 Z6.8801
X9.8546 Y-0.2848 Z6.8803
X9.8508 Y-0.2872 Z6.8806
X9.8464 Y-0.2903 Z6.8808
X9.8423 Y-0.2937 Z6.8811
X9.8384 Y-0.2972 Z6.8813
X9.8349 Y-0.301 Z6.8815
X9.8316 Y-0.305 Z6.8817
X9.8288 Y-0.3089 Z6.8818
X9.8262 Y-0.313 Z6.882
X9.8238 Y-0.3173 Z6.8821
X9.8217 Y-0.3216 Z6.8822
X9.8198 Y-0.3262 Z6.8824
X9.8183 Y-0.3305
X9.8168 Y-0.336 Z6.8825
G0 Z7.3559
X9.8167 Y-0.3364
Z6.9897
G1 Z6.9125 F1.
X9.8198 Y-0.3247 Z6.9124 F3.
X9.8221 Y-0.3169 Z6.9122
X9.8248 Y-0.3083 Z6.9121
X9.8279 Y-0.2996 Z6.9119
X9.831 Y-0.2912 Z6.9117
X9.8345 Y-0.2828 Z6.9115
X9.8384 Y-0.2742 Z6.9113
X9.8425 Y-0.2656 Z6.911
X9.8471 Y-0.2568 Z6.9108
X9.8521 Y-0.248 Z6.9105
X9.8573 Y-0.2393 Z6.9102
X9.8628 Y-0.2308 Z6.9099
X9.8687 Y-0.2225 Z6.9095
X9.8746 Y-0.2144 Z6.9092
X9.8806 Y-0.2067 Z6.9088
X9.887 Y-0.1991 Z6.9085
X9.894 Y-0.1912 Z6.9081
X9.9007 Y-0.1841 Z6.9077
X9.9068 Y-0.178 Z6.9073
X9.9118 Y-0.1732 Z6.907
X9.9189 Y-0.1667 Z6.9066
X9.9207 Y-0.165 Z6.9065
Z6.8965 F1.
X9.9189 Y-0.1667 Z6.8966 F3.
X9.9118 Y-0.1732 Z6.897
X9.9068 Y-0.178 Z6.8973
X9.9007 Y-0.1841 Z6.8977
X9.894 Y-0.1912 Z6.8981
X9.887 Y-0.1991 Z6.8985
X9.8806 Y-0.2067 Z6.8988
X9.8746 Y-0.2144 Z6.8992
X9.8687 Y-0.2225 Z6.8995
X9.8628 Y-0.2308 Z6.8999
X9.8573 Y-0.2393 Z6.9002
X9.8521 Y-0.248 Z6.9005
X9.8471 Y-0.2568 Z6.9008
X9.8425 Y-0.2656 Z6.901
X9.8384 Y-0.2742 Z6.9013
X9.8345 Y-0.2828 Z6.9015
X9.831 Y-0.2912 Z6.9017
X9.8279 Y-0.2996 Z6.9019
X9.8248 Y-0.3083 Z6.9021
X9.8221 Y-0.3169 Z6.9022
X9.8198 Y-0.3247 Z6.9024
X9.8167 Y-0.3364 Z6.9025
Z6.8925 F1.
X9.8198 Y-0.3247 Z6.8924 F3.
X9.8221 Y-0.3169 Z6.8922
X9.8248 Y-0.3083 Z6.8921
X9.8279 Y-0.2996 Z6.8919
X9.831 Y-0.2912 Z6.8917
X9.8345 Y-0.2828 Z6.8915
X9.8384 Y-0.2742 Z6.8913
X9.8425 Y-0.2656 Z6.891
X9.8471 Y-0.2568 Z6.8908
X9.8521 Y-0.248 Z6.8905
X9.8573 Y-0.2393 Z6.8902
X9.8628 Y-0.2308 Z6.8899
X9.8687 Y-0.2225 Z6.8895
X9.8746 Y-0.2144 Z6.8892
X9.8806 Y-0.2067 Z6.8888
X9.887 Y-0.1991 Z6.8885
X9.894 Y-0.1912 Z6.8881
X9.9007 Y-0.1841 Z6.8877
X9.9068 Y-0.178 Z6.8873
X9.9118 Y-0.1732 Z6.887
X9.9189 Y-0.1667 Z6.8866
X9.9207 Y-0.165 Z6.8865
Z6.8765 F1.
X9.9189 Y-0.1667 Z6.8766 F3.
X9.9118 Y-0.1732 Z6.877
X9.9068 Y-0.178 Z6.8773
X9.9007 Y-0.1841 Z6.8777
X9.894 Y-0.1912 Z6.8781
X9.887 Y-0.1991 Z6.8785
X9.8806 Y-0.2067 Z6.8788
X9.8746 Y-0.2144 Z6.8792
X9.8687 Y-0.2225 Z6.8795
X9.8628 Y-0.2308 Z6.8799
X9.8573 Y-0.2393 Z6.8802
X9.8521 Y-0.248 Z6.8805
X9.8471 Y-0.2568 Z6.8808
X9.8425 Y-0.2656 Z6.881
X9.8384 Y-0.2742 Z6.8813
X9.8345 Y-0.2828 Z6.8815
X9.831 Y-0.2912 Z6.8817
X9.8279 Y-0.2996 Z6.8819
X9.8248 Y-0.3083 Z6.8821
X9.8221 Y-0.3169 Z6.8822
X9.8198 Y-0.3247 Z6.8824
X9.8167 Y-0.3364 Z6.8825
G0 Z7.6059

M5
M9
G53 G0 Z0.
G53 G0 X0. Y0.
G49
G69
G0 A0. C0.
M30
